tests/fixtures/luts/edge/domain-negative-to-positive-4.cube
# Generated for Real Landscape P0 LUT compatibility testing.
# RGB order: red changes fastest, followed by green, then blue.
TITLE "P0 Signed Domain"
LUT_3D_SIZE 4
DOMAIN_MIN -1.000000 -1.000000 -1.000000
DOMAIN_MAX 1.000000 1.000000 1.000000

-1.000000 -1.000000 -1.000000
-0.333333 -1.000000 -1.000000
0.333333 -1.000000 -1.000000
1.000000 -1.000000 -1.000000
-1.000000 -0.333333 -1.000000
-0.333333 -0.333333 -1.000000
0.333333 -0.333333 -1.000000
1.000000 -0.333333 -1.000000
-1.000000 0.333333 -1.000000
-0.333333 0.333333 -1.000000
0.333333 0.333333 -1.000000
1.000000 0.333333 -1.000000
-1.000000 1.000000 -1.000000
-0.333333 1.000000 -1.000000
0.333333 1.000000 -1.000000
1.000000 1.000000 -1.000000
-1.000000 -1.000000 -0.333333
-0.333333 -1.000000 -0.333333
0.333333 -1.000000 -0.333333
1.000000 -1.000000 -0.333333
-1.000000 -0.333333 -0.333333
-0.333333 -0.333333 -0.333333
0.333333 -0.333333 -0.333333
1.000000 -0.333333 -0.333333
-1.000000 0.333333 -0.333333
-0.333333 0.333333 -0.333333
0.333333 0.333333 -0.333333
1.000000 0.333333 -0.333333
-1.000000 1.000000 -0.333333
-0.333333 1.000000 -0.333333
0.333333 1.000000 -0.333333
1.000000 1.000000 -0.333333
-1.000000 -1.000000 0.333333
-0.333333 -1.000000 0.333333
0.333333 -1.000000 0.333333
1.000000 -1.000000 0.333333
-1.000000 -0.333333 0.333333
-0.333333 -0.333333 0.333333
0.333333 -0.333333 0.333333
1.000000 -0.333333 0.333333
-1.000000 0.333333 0.333333
-0.333333 0.333333 0.333333
0.333333 0.333333 0.333333
1.000000 0.333333 0.333333
-1.000000 1.000000 0.333333
-0.333333 1.000000 0.333333
0.333333 1.000000 0.333333
1.000000 1.000000 0.333333
-1.000000 -1.000000 1.000000
-0.333333 -1.000000 1.000000
0.333333 -1.000000 1.000000
1.000000 -1.000000 1.000000
-1.000000 -0.333333 1.000000
-0.333333 -0.333333 1.000000
0.333333 -0.333333 1.000000
1.000000 -0.333333 1.000000
-1.000000 0.333333 1.000000
-0.333333 0.333333 1.000000
0.333333 0.333333 1.000000
1.000000 0.333333 1.000000
-1.000000 1.000000 1.000000
-0.333333 1.000000 1.000000
0.333333 1.000000 1.000000
1.000000 1.000000 1.000000
