tests/fixtures/luts/edge/domain-quarter-to-three-quarters-4.cube
# Generated for Real Landscape P0 LUT compatibility testing.
# RGB order: red changes fastest, followed by green, then blue.
TITLE "P0 Partial Positive Domain"
LUT_3D_SIZE 4
DOMAIN_MIN 0.250000 0.250000 0.250000
DOMAIN_MAX 0.750000 0.750000 0.750000

0.250000 0.250000 0.250000
0.416667 0.250000 0.250000
0.583333 0.250000 0.250000
0.750000 0.250000 0.250000
0.250000 0.416667 0.250000
0.416667 0.416667 0.250000
0.583333 0.416667 0.250000
0.750000 0.416667 0.250000
0.250000 0.583333 0.250000
0.416667 0.583333 0.250000
0.583333 0.583333 0.250000
0.750000 0.583333 0.250000
0.250000 0.750000 0.250000
0.416667 0.750000 0.250000
0.583333 0.750000 0.250000
0.750000 0.750000 0.250000
0.250000 0.250000 0.416667
0.416667 0.250000 0.416667
0.583333 0.250000 0.416667
0.750000 0.250000 0.416667
0.250000 0.416667 0.416667
0.416667 0.416667 0.416667
0.583333 0.416667 0.416667
0.750000 0.416667 0.416667
0.250000 0.583333 0.416667
0.416667 0.583333 0.416667
0.583333 0.583333 0.416667
0.750000 0.583333 0.416667
0.250000 0.750000 0.416667
0.416667 0.750000 0.416667
0.583333 0.750000 0.416667
0.750000 0.750000 0.416667
0.250000 0.250000 0.583333
0.416667 0.250000 0.583333
0.583333 0.250000 0.583333
0.750000 0.250000 0.583333
0.250000 0.416667 0.583333
0.416667 0.416667 0.583333
0.583333 0.416667 0.583333
0.750000 0.416667 0.583333
0.250000 0.583333 0.583333
0.416667 0.583333 0.583333
0.583333 0.583333 0.583333
0.750000 0.583333 0.583333
0.250000 0.750000 0.583333
0.416667 0.750000 0.583333
0.583333 0.750000 0.583333
0.750000 0.750000 0.583333
0.250000 0.250000 0.750000
0.416667 0.250000 0.750000
0.583333 0.250000 0.750000
0.750000 0.250000 0.750000
0.250000 0.416667 0.750000
0.416667 0.416667 0.750000
0.583333 0.416667 0.750000
0.750000 0.416667 0.750000
0.250000 0.583333 0.750000
0.416667 0.583333 0.750000
0.583333 0.583333 0.750000
0.750000 0.583333 0.750000
0.250000 0.750000 0.750000
0.416667 0.750000 0.750000
0.583333 0.750000 0.750000
0.750000 0.750000 0.750000
