tests/fixtures/luts/invalid/combined-one-and-three-dimensional.cube
TITLE "P0 Combined 1D and 3D LUT"
LUT_1D_SIZE 2
LUT_3D_SIZE 2
0.000000 0.000000 0.000000
1.000000 1.000000 1.000000
0.000000 0.000000 0.000000
1.000000 0.000000 0.000000
0.000000 1.000000 0.000000
1.000000 1.000000 0.000000
0.000000 0.000000 1.000000
1.000000 0.000000 1.000000
0.000000 1.000000 1.000000
1.000000 1.000000 1.000000
