tests/fixtures/luts/invalid/one-dimensional.cube
TITLE "P0 One-dimensional LUT"
LUT_1D_SIZE 2
0.000000 0.000000 0.000000
1.000000 1.000000 1.000000
