tests/fixtures/luts/creative/clean-contrast-17.cube
# Generated for Real Landscape P0 LUT compatibility testing.
# RGB order: red changes fastest, followed by green, then blue.
TITLE "P0 Clean Contrast"
LUT_3D_SIZE 17
DOMAIN_MIN 0.000000 0.000000 0.000000
DOMAIN_MAX 1.000000 1.000000 1.000000
0.000000 0.000000 0.000000
0.044043 0.000000 0.000000
0.095469 0.000000 0.000000
0.153223 0.000000 0.000000
0.216250 0.000000 0.000000
0.283496 0.000000 0.000000
0.353906 0.000000 0.000000
0.426426 0.000000 0.000000
0.500000 0.000000 0.000000
0.573574 0.000000 0.000000
0.646094 0.000000 0.000000
0.716504 0.000000 0.000000
0.783750 0.000000 0.000000
0.846777 0.000000 0.000000
0.904531 0.000000 0.000000
0.955957 0.000000 0.000000
1.000000 0.000000 0.000000
0.000000 0.044043 0.000000
0.044043 0.044043 0.000000
0.095469 0.044043 0.000000
0.153223 0.044043 0.000000
0.216250 0.044043 0.000000
0.283496 0.044043 0.000000
0.353906 0.044043 0.000000
0.426426 0.044043 0.000000
0.500000 0.044043 0.000000
0.573574 0.044043 0.000000
0.646094 0.044043 0.000000
0.716504 0.044043 0.000000
0.783750 0.044043 0.000000
0.846777 0.044043 0.000000
0.904531 0.044043 0.000000
0.955957 0.044043 0.000000
1.000000 0.044043 0.000000
0.000000 0.095469 0.000000
0.044043 0.095469 0.000000
0.095469 0.095469 0.000000
0.153223 0.095469 0.000000
0.216250 0.095469 0.000000
0.283496 0.095469 0.000000
0.353906 0.095469 0.000000
0.426426 0.095469 0.000000
0.500000 0.095469 0.000000
0.573574 0.095469 0.000000
0.646094 0.095469 0.000000
0.716504 0.095469 0.000000
0.783750 0.095469 0.000000
0.846777 0.095469 0.000000
0.904531 0.095469 0.000000
0.955957 0.095469 0.000000
1.000000 0.095469 0.000000
0.000000 0.153223 0.000000
0.044043 0.153223 0.000000
0.095469 0.153223 0.000000
0.153223 0.153223 0.000000
0.216250 0.153223 0.000000
0.283496 0.153223 0.000000
0.353906 0.153223 0.000000
0.426426 0.153223 0.000000
0.500000 0.153223 0.000000
0.573574 0.153223 0.000000
0.646094 0.153223 0.000000
0.716504 0.153223 0.000000
0.783750 0.153223 0.000000
0.846777 0.153223 0.000000
0.904531 0.153223 0.000000
0.955957 0.153223 0.000000
1.000000 0.153223 0.000000
0.000000 0.216250 0.000000
0.044043 0.216250 0.000000
0.095469 0.216250 0.000000
0.153223 0.216250 0.000000
0.216250 0.216250 0.000000
0.283496 0.216250 0.000000
0.353906 0.216250 0.000000
0.426426 0.216250 0.000000
0.500000 0.216250 0.000000
0.573574 0.216250 0.000000
0.646094 0.216250 0.000000
0.716504 0.216250 0.000000
0.783750 0.216250 0.000000
0.846777 0.216250 0.000000
0.904531 0.216250 0.000000
0.955957 0.216250 0.000000
1.000000 0.216250 0.000000
0.000000 0.283496 0.000000
0.044043 0.283496 0.000000
0.095469 0.283496 0.000000
0.153223 0.283496 0.000000
0.216250 0.283496 0.000000
0.283496 0.283496 0.000000
0.353906 0.283496 0.000000
0.426426 0.283496 0.000000
0.500000 0.283496 0.000000
0.573574 0.283496 0.000000
0.646094 0.283496 0.000000
0.716504 0.283496 0.000000
0.783750 0.283496 0.000000
0.846777 0.283496 0.000000
0.904531 0.283496 0.000000
0.955957 0.283496 0.000000
1.000000 0.283496 0.000000
0.000000 0.353906 0.000000
0.044043 0.353906 0.000000
0.095469 0.353906 0.000000
0.153223 0.353906 0.000000
0.216250 0.353906 0.000000
0.283496 0.353906 0.000000
0.353906 0.353906 0.000000
0.426426 0.353906 0.000000
0.500000 0.353906 0.000000
0.573574 0.353906 0.000000
0.646094 0.353906 0.000000
0.716504 0.353906 0.000000
0.783750 0.353906 0.000000
0.846777 0.353906 0.000000
0.904531 0.353906 0.000000
0.955957 0.353906 0.000000
1.000000 0.353906 0.000000
0.000000 0.426426 0.000000
0.044043 0.426426 0.000000
0.095469 0.426426 0.000000
0.153223 0.426426 0.000000
0.216250 0.426426 0.000000
0.283496 0.426426 0.000000
0.353906 0.426426 0.000000
0.426426 0.426426 0.000000
0.500000 0.426426 0.000000
0.573574 0.426426 0.000000
0.646094 0.426426 0.000000
0.716504 0.426426 0.000000
0.783750 0.426426 0.000000
0.846777 0.426426 0.000000
0.904531 0.426426 0.000000
0.955957 0.426426 0.000000
1.000000 0.426426 0.000000
0.000000 0.500000 0.000000
0.044043 0.500000 0.000000
0.095469 0.500000 0.000000
0.153223 0.500000 0.000000
0.216250 0.500000 0.000000
0.283496 0.500000 0.000000
0.353906 0.500000 0.000000
0.426426 0.500000 0.000000
0.500000 0.500000 0.000000
0.573574 0.500000 0.000000
0.646094 0.500000 0.000000
0.716504 0.500000 0.000000
0.783750 0.500000 0.000000
0.846777 0.500000 0.000000
0.904531 0.500000 0.000000
0.955957 0.500000 0.000000
1.000000 0.500000 0.000000
0.000000 0.573574 0.000000
0.044043 0.573574 0.000000
0.095469 0.573574 0.000000
0.153223 0.573574 0.000000
0.216250 0.573574 0.000000
0.283496 0.573574 0.000000
0.353906 0.573574 0.000000
0.426426 0.573574 0.000000
0.500000 0.573574 0.000000
0.573574 0.573574 0.000000
0.646094 0.573574 0.000000
0.716504 0.573574 0.000000
0.783750 0.573574 0.000000
0.846777 0.573574 0.000000
0.904531 0.573574 0.000000
0.955957 0.573574 0.000000
1.000000 0.573574 0.000000
0.000000 0.646094 0.000000
0.044043 0.646094 0.000000
0.095469 0.646094 0.000000
0.153223 0.646094 0.000000
0.216250 0.646094 0.000000
0.283496 0.646094 0.000000
0.353906 0.646094 0.000000
0.426426 0.646094 0.000000
0.500000 0.646094 0.000000
0.573574 0.646094 0.000000
0.646094 0.646094 0.000000
0.716504 0.646094 0.000000
0.783750 0.646094 0.000000
0.846777 0.646094 0.000000
0.904531 0.646094 0.000000
0.955957 0.646094 0.000000
1.000000 0.646094 0.000000
0.000000 0.716504 0.000000
0.044043 0.716504 0.000000
0.095469 0.716504 0.000000
0.153223 0.716504 0.000000
0.216250 0.716504 0.000000
0.283496 0.716504 0.000000
0.353906 0.716504 0.000000
0.426426 0.716504 0.000000
0.500000 0.716504 0.000000
0.573574 0.716504 0.000000
0.646094 0.716504 0.000000
0.716504 0.716504 0.000000
0.783750 0.716504 0.000000
0.846777 0.716504 0.000000
0.904531 0.716504 0.000000
0.955957 0.716504 0.000000
1.000000 0.716504 0.000000
0.000000 0.783750 0.000000
0.044043 0.783750 0.000000
0.095469 0.783750 0.000000
0.153223 0.783750 0.000000
0.216250 0.783750 0.000000
0.283496 0.783750 0.000000
0.353906 0.783750 0.000000
0.426426 0.783750 0.000000
0.500000 0.783750 0.000000
0.573574 0.783750 0.000000
0.646094 0.783750 0.000000
0.716504 0.783750 0.000000
0.783750 0.783750 0.000000
0.846777 0.783750 0.000000
0.904531 0.783750 0.000000
0.955957 0.783750 0.000000
1.000000 0.783750 0.000000
0.000000 0.846777 0.000000
0.044043 0.846777 0.000000
0.095469 0.846777 0.000000
0.153223 0.846777 0.000000
0.216250 0.846777 0.000000
0.283496 0.846777 0.000000
0.353906 0.846777 0.000000
0.426426 0.846777 0.000000
0.500000 0.846777 0.000000
0.573574 0.846777 0.000000
0.646094 0.846777 0.000000
0.716504 0.846777 0.000000
0.783750 0.846777 0.000000
0.846777 0.846777 0.000000
0.904531 0.846777 0.000000
0.955957 0.846777 0.000000
1.000000 0.846777 0.000000
0.000000 0.904531 0.000000
0.044043 0.904531 0.000000
0.095469 0.904531 0.000000
0.153223 0.904531 0.000000
0.216250 0.904531 0.000000
0.283496 0.904531 0.000000
0.353906 0.904531 0.000000
0.426426 0.904531 0.000000
0.500000 0.904531 0.000000
0.573574 0.904531 0.000000
0.646094 0.904531 0.000000
0.716504 0.904531 0.000000
0.783750 0.904531 0.000000
0.846777 0.904531 0.000000
0.904531 0.904531 0.000000
0.955957 0.904531 0.000000
1.000000 0.904531 0.000000
0.000000 0.955957 0.000000
0.044043 0.955957 0.000000
0.095469 0.955957 0.000000
0.153223 0.955957 0.000000
0.216250 0.955957 0.000000
0.283496 0.955957 0.000000
0.353906 0.955957 0.000000
0.426426 0.955957 0.000000
0.500000 0.955957 0.000000
0.573574 0.955957 0.000000
0.646094 0.955957 0.000000
0.716504 0.955957 0.000000
0.783750 0.955957 0.000000
0.846777 0.955957 0.000000
0.904531 0.955957 0.000000
0.955957 0.955957 0.000000
1.000000 0.955957 0.000000
0.000000 1.000000 0.000000
0.044043 1.000000 0.000000
0.095469 1.000000 0.000000
0.153223 1.000000 0.000000
0.216250 1.000000 0.000000
0.283496 1.000000 0.000000
0.353906 1.000000 0.000000
0.426426 1.000000 0.000000
0.500000 1.000000 0.000000
0.573574 1.000000 0.000000
0.646094 1.000000 0.000000
0.716504 1.000000 0.000000
0.783750 1.000000 0.000000
0.846777 1.000000 0.000000
0.904531 1.000000 0.000000
0.955957 1.000000 0.000000
1.000000 1.000000 0.000000
0.000000 0.000000 0.044043
0.044043 0.000000 0.044043
0.095469 0.000000 0.044043
0.153223 0.000000 0.044043
0.216250 0.000000 0.044043
0.283496 0.000000 0.044043
0.353906 0.000000 0.044043
0.426426 0.000000 0.044043
0.500000 0.000000 0.044043
0.573574 0.000000 0.044043
0.646094 0.000000 0.044043
0.716504 0.000000 0.044043
0.783750 0.000000 0.044043
0.846777 0.000000 0.044043
0.904531 0.000000 0.044043
0.955957 0.000000 0.044043
1.000000 0.000000 0.044043
0.000000 0.044043 0.044043
0.044043 0.044043 0.044043
0.095469 0.044043 0.044043
0.153223 0.044043 0.044043
0.216250 0.044043 0.044043
0.283496 0.044043 0.044043
0.353906 0.044043 0.044043
0.426426 0.044043 0.044043
0.500000 0.044043 0.044043
0.573574 0.044043 0.044043
0.646094 0.044043 0.044043
0.716504 0.044043 0.044043
0.783750 0.044043 0.044043
0.846777 0.044043 0.044043
0.904531 0.044043 0.044043
0.955957 0.044043 0.044043
1.000000 0.044043 0.044043
0.000000 0.095469 0.044043
0.044043 0.095469 0.044043
0.095469 0.095469 0.044043
0.153223 0.095469 0.044043
0.216250 0.095469 0.044043
0.283496 0.095469 0.044043
0.353906 0.095469 0.044043
0.426426 0.095469 0.044043
0.500000 0.095469 0.044043
0.573574 0.095469 0.044043
0.646094 0.095469 0.044043
0.716504 0.095469 0.044043
0.783750 0.095469 0.044043
0.846777 0.095469 0.044043
0.904531 0.095469 0.044043
0.955957 0.095469 0.044043
1.000000 0.095469 0.044043
0.000000 0.153223 0.044043
0.044043 0.153223 0.044043
0.095469 0.153223 0.044043
0.153223 0.153223 0.044043
0.216250 0.153223 0.044043
0.283496 0.153223 0.044043
0.353906 0.153223 0.044043
0.426426 0.153223 0.044043
0.500000 0.153223 0.044043
0.573574 0.153223 0.044043
0.646094 0.153223 0.044043
0.716504 0.153223 0.044043
0.783750 0.153223 0.044043
0.846777 0.153223 0.044043
0.904531 0.153223 0.044043
0.955957 0.153223 0.044043
1.000000 0.153223 0.044043
0.000000 0.216250 0.044043
0.044043 0.216250 0.044043
0.095469 0.216250 0.044043
0.153223 0.216250 0.044043
0.216250 0.216250 0.044043
0.283496 0.216250 0.044043
0.353906 0.216250 0.044043
0.426426 0.216250 0.044043
0.500000 0.216250 0.044043
0.573574 0.216250 0.044043
0.646094 0.216250 0.044043
0.716504 0.216250 0.044043
0.783750 0.216250 0.044043
0.846777 0.216250 0.044043
0.904531 0.216250 0.044043
0.955957 0.216250 0.044043
1.000000 0.216250 0.044043
0.000000 0.283496 0.044043
0.044043 0.283496 0.044043
0.095469 0.283496 0.044043
0.153223 0.283496 0.044043
0.216250 0.283496 0.044043
0.283496 0.283496 0.044043
0.353906 0.283496 0.044043
0.426426 0.283496 0.044043
0.500000 0.283496 0.044043
0.573574 0.283496 0.044043
0.646094 0.283496 0.044043
0.716504 0.283496 0.044043
0.783750 0.283496 0.044043
0.846777 0.283496 0.044043
0.904531 0.283496 0.044043
0.955957 0.283496 0.044043
1.000000 0.283496 0.044043
0.000000 0.353906 0.044043
0.044043 0.353906 0.044043
0.095469 0.353906 0.044043
0.153223 0.353906 0.044043
0.216250 0.353906 0.044043
0.283496 0.353906 0.044043
0.353906 0.353906 0.044043
0.426426 0.353906 0.044043
0.500000 0.353906 0.044043
0.573574 0.353906 0.044043
0.646094 0.353906 0.044043
0.716504 0.353906 0.044043
0.783750 0.353906 0.044043
0.846777 0.353906 0.044043
0.904531 0.353906 0.044043
0.955957 0.353906 0.044043
1.000000 0.353906 0.044043
0.000000 0.426426 0.044043
0.044043 0.426426 0.044043
0.095469 0.426426 0.044043
0.153223 0.426426 0.044043
0.216250 0.426426 0.044043
0.283496 0.426426 0.044043
0.353906 0.426426 0.044043
0.426426 0.426426 0.044043
0.500000 0.426426 0.044043
0.573574 0.426426 0.044043
0.646094 0.426426 0.044043
0.716504 0.426426 0.044043
0.783750 0.426426 0.044043
0.846777 0.426426 0.044043
0.904531 0.426426 0.044043
0.955957 0.426426 0.044043
1.000000 0.426426 0.044043
0.000000 0.500000 0.044043
0.044043 0.500000 0.044043
0.095469 0.500000 0.044043
0.153223 0.500000 0.044043
0.216250 0.500000 0.044043
0.283496 0.500000 0.044043
0.353906 0.500000 0.044043
0.426426 0.500000 0.044043
0.500000 0.500000 0.044043
0.573574 0.500000 0.044043
0.646094 0.500000 0.044043
0.716504 0.500000 0.044043
0.783750 0.500000 0.044043
0.846777 0.500000 0.044043
0.904531 0.500000 0.044043
0.955957 0.500000 0.044043
1.000000 0.500000 0.044043
0.000000 0.573574 0.044043
0.044043 0.573574 0.044043
0.095469 0.573574 0.044043
0.153223 0.573574 0.044043
0.216250 0.573574 0.044043
0.283496 0.573574 0.044043
0.353906 0.573574 0.044043
0.426426 0.573574 0.044043
0.500000 0.573574 0.044043
0.573574 0.573574 0.044043
0.646094 0.573574 0.044043
0.716504 0.573574 0.044043
0.783750 0.573574 0.044043
0.846777 0.573574 0.044043
0.904531 0.573574 0.044043
0.955957 0.573574 0.044043
1.000000 0.573574 0.044043
0.000000 0.646094 0.044043
0.044043 0.646094 0.044043
0.095469 0.646094 0.044043
0.153223 0.646094 0.044043
0.216250 0.646094 0.044043
0.283496 0.646094 0.044043
0.353906 0.646094 0.044043
0.426426 0.646094 0.044043
0.500000 0.646094 0.044043
0.573574 0.646094 0.044043
0.646094 0.646094 0.044043
0.716504 0.646094 0.044043
0.783750 0.646094 0.044043
0.846777 0.646094 0.044043
0.904531 0.646094 0.044043
0.955957 0.646094 0.044043
1.000000 0.646094 0.044043
0.000000 0.716504 0.044043
0.044043 0.716504 0.044043
0.095469 0.716504 0.044043
0.153223 0.716504 0.044043
0.216250 0.716504 0.044043
0.283496 0.716504 0.044043
0.353906 0.716504 0.044043
0.426426 0.716504 0.044043
0.500000 0.716504 0.044043
0.573574 0.716504 0.044043
0.646094 0.716504 0.044043
0.716504 0.716504 0.044043
0.783750 0.716504 0.044043
0.846777 0.716504 0.044043
0.904531 0.716504 0.044043
0.955957 0.716504 0.044043
1.000000 0.716504 0.044043
0.000000 0.783750 0.044043
0.044043 0.783750 0.044043
0.095469 0.783750 0.044043
0.153223 0.783750 0.044043
0.216250 0.783750 0.044043
0.283496 0.783750 0.044043
0.353906 0.783750 0.044043
0.426426 0.783750 0.044043
0.500000 0.783750 0.044043
0.573574 0.783750 0.044043
0.646094 0.783750 0.044043
0.716504 0.783750 0.044043
0.783750 0.783750 0.044043
0.846777 0.783750 0.044043
0.904531 0.783750 0.044043
0.955957 0.783750 0.044043
1.000000 0.783750 0.044043
0.000000 0.846777 0.044043
0.044043 0.846777 0.044043
0.095469 0.846777 0.044043
0.153223 0.846777 0.044043
0.216250 0.846777 0.044043
0.283496 0.846777 0.044043
0.353906 0.846777 0.044043
0.426426 0.846777 0.044043
0.500000 0.846777 0.044043
0.573574 0.846777 0.044043
0.646094 0.846777 0.044043
0.716504 0.846777 0.044043
0.783750 0.846777 0.044043
0.846777 0.846777 0.044043
0.904531 0.846777 0.044043
0.955957 0.846777 0.044043
1.000000 0.846777 0.044043
0.000000 0.904531 0.044043
0.044043 0.904531 0.044043
0.095469 0.904531 0.044043
0.153223 0.904531 0.044043
0.216250 0.904531 0.044043
0.283496 0.904531 0.044043
0.353906 0.904531 0.044043
0.426426 0.904531 0.044043
0.500000 0.904531 0.044043
0.573574 0.904531 0.044043
0.646094 0.904531 0.044043
0.716504 0.904531 0.044043
0.783750 0.904531 0.044043
0.846777 0.904531 0.044043
0.904531 0.904531 0.044043
0.955957 0.904531 0.044043
1.000000 0.904531 0.044043
0.000000 0.955957 0.044043
0.044043 0.955957 0.044043
0.095469 0.955957 0.044043
0.153223 0.955957 0.044043
0.216250 0.955957 0.044043
0.283496 0.955957 0.044043
0.353906 0.955957 0.044043
0.426426 0.955957 0.044043
0.500000 0.955957 0.044043
0.573574 0.955957 0.044043
0.646094 0.955957 0.044043
0.716504 0.955957 0.044043
0.783750 0.955957 0.044043
0.846777 0.955957 0.044043
0.904531 0.955957 0.044043
0.955957 0.955957 0.044043
1.000000 0.955957 0.044043
0.000000 1.000000 0.044043
0.044043 1.000000 0.044043
0.095469 1.000000 0.044043
0.153223 1.000000 0.044043
0.216250 1.000000 0.044043
0.283496 1.000000 0.044043
0.353906 1.000000 0.044043
0.426426 1.000000 0.044043
0.500000 1.000000 0.044043
0.573574 1.000000 0.044043
0.646094 1.000000 0.044043
0.716504 1.000000 0.044043
0.783750 1.000000 0.044043
0.846777 1.000000 0.044043
0.904531 1.000000 0.044043
0.955957 1.000000 0.044043
1.000000 1.000000 0.044043
0.000000 0.000000 0.095469
0.044043 0.000000 0.095469
0.095469 0.000000 0.095469
0.153223 0.000000 0.095469
0.216250 0.000000 0.095469
0.283496 0.000000 0.095469
0.353906 0.000000 0.095469
0.426426 0.000000 0.095469
0.500000 0.000000 0.095469
0.573574 0.000000 0.095469
0.646094 0.000000 0.095469
0.716504 0.000000 0.095469
0.783750 0.000000 0.095469
0.846777 0.000000 0.095469
0.904531 0.000000 0.095469
0.955957 0.000000 0.095469
1.000000 0.000000 0.095469
0.000000 0.044043 0.095469
0.044043 0.044043 0.095469
0.095469 0.044043 0.095469
0.153223 0.044043 0.095469
0.216250 0.044043 0.095469
0.283496 0.044043 0.095469
0.353906 0.044043 0.095469
0.426426 0.044043 0.095469
0.500000 0.044043 0.095469
0.573574 0.044043 0.095469
0.646094 0.044043 0.095469
0.716504 0.044043 0.095469
0.783750 0.044043 0.095469
0.846777 0.044043 0.095469
0.904531 0.044043 0.095469
0.955957 0.044043 0.095469
1.000000 0.044043 0.095469
0.000000 0.095469 0.095469
0.044043 0.095469 0.095469
0.095469 0.095469 0.095469
0.153223 0.095469 0.095469
0.216250 0.095469 0.095469
0.283496 0.095469 0.095469
0.353906 0.095469 0.095469
0.426426 0.095469 0.095469
0.500000 0.095469 0.095469
0.573574 0.095469 0.095469
0.646094 0.095469 0.095469
0.716504 0.095469 0.095469
0.783750 0.095469 0.095469
0.846777 0.095469 0.095469
0.904531 0.095469 0.095469
0.955957 0.095469 0.095469
1.000000 0.095469 0.095469
0.000000 0.153223 0.095469
0.044043 0.153223 0.095469
0.095469 0.153223 0.095469
0.153223 0.153223 0.095469
0.216250 0.153223 0.095469
0.283496 0.153223 0.095469
0.353906 0.153223 0.095469
0.426426 0.153223 0.095469
0.500000 0.153223 0.095469
0.573574 0.153223 0.095469
0.646094 0.153223 0.095469
0.716504 0.153223 0.095469
0.783750 0.153223 0.095469
0.846777 0.153223 0.095469
0.904531 0.153223 0.095469
0.955957 0.153223 0.095469
1.000000 0.153223 0.095469
0.000000 0.216250 0.095469
0.044043 0.216250 0.095469
0.095469 0.216250 0.095469
0.153223 0.216250 0.095469
0.216250 0.216250 0.095469
0.283496 0.216250 0.095469
0.353906 0.216250 0.095469
0.426426 0.216250 0.095469
0.500000 0.216250 0.095469
0.573574 0.216250 0.095469
0.646094 0.216250 0.095469
0.716504 0.216250 0.095469
0.783750 0.216250 0.095469
0.846777 0.216250 0.095469
0.904531 0.216250 0.095469
0.955957 0.216250 0.095469
1.000000 0.216250 0.095469
0.000000 0.283496 0.095469
0.044043 0.283496 0.095469
0.095469 0.283496 0.095469
0.153223 0.283496 0.095469
0.216250 0.283496 0.095469
0.283496 0.283496 0.095469
0.353906 0.283496 0.095469
0.426426 0.283496 0.095469
0.500000 0.283496 0.095469
0.573574 0.283496 0.095469
0.646094 0.283496 0.095469
0.716504 0.283496 0.095469
0.783750 0.283496 0.095469
0.846777 0.283496 0.095469
0.904531 0.283496 0.095469
0.955957 0.283496 0.095469
1.000000 0.283496 0.095469
0.000000 0.353906 0.095469
0.044043 0.353906 0.095469
0.095469 0.353906 0.095469
0.153223 0.353906 0.095469
0.216250 0.353906 0.095469
0.283496 0.353906 0.095469
0.353906 0.353906 0.095469
0.426426 0.353906 0.095469
0.500000 0.353906 0.095469
0.573574 0.353906 0.095469
0.646094 0.353906 0.095469
0.716504 0.353906 0.095469
0.783750 0.353906 0.095469
0.846777 0.353906 0.095469
0.904531 0.353906 0.095469
0.955957 0.353906 0.095469
1.000000 0.353906 0.095469
0.000000 0.426426 0.095469
0.044043 0.426426 0.095469
0.095469 0.426426 0.095469
0.153223 0.426426 0.095469
0.216250 0.426426 0.095469
0.283496 0.426426 0.095469
0.353906 0.426426 0.095469
0.426426 0.426426 0.095469
0.500000 0.426426 0.095469
0.573574 0.426426 0.095469
0.646094 0.426426 0.095469
0.716504 0.426426 0.095469
0.783750 0.426426 0.095469
0.846777 0.426426 0.095469
0.904531 0.426426 0.095469
0.955957 0.426426 0.095469
1.000000 0.426426 0.095469
0.000000 0.500000 0.095469
0.044043 0.500000 0.095469
0.095469 0.500000 0.095469
0.153223 0.500000 0.095469
0.216250 0.500000 0.095469
0.283496 0.500000 0.095469
0.353906 0.500000 0.095469
0.426426 0.500000 0.095469
0.500000 0.500000 0.095469
0.573574 0.500000 0.095469
0.646094 0.500000 0.095469
0.716504 0.500000 0.095469
0.783750 0.500000 0.095469
0.846777 0.500000 0.095469
0.904531 0.500000 0.095469
0.955957 0.500000 0.095469
1.000000 0.500000 0.095469
0.000000 0.573574 0.095469
0.044043 0.573574 0.095469
0.095469 0.573574 0.095469
0.153223 0.573574 0.095469
0.216250 0.573574 0.095469
0.283496 0.573574 0.095469
0.353906 0.573574 0.095469
0.426426 0.573574 0.095469
0.500000 0.573574 0.095469
0.573574 0.573574 0.095469
0.646094 0.573574 0.095469
0.716504 0.573574 0.095469
0.783750 0.573574 0.095469
0.846777 0.573574 0.095469
0.904531 0.573574 0.095469
0.955957 0.573574 0.095469
1.000000 0.573574 0.095469
0.000000 0.646094 0.095469
0.044043 0.646094 0.095469
0.095469 0.646094 0.095469
0.153223 0.646094 0.095469
0.216250 0.646094 0.095469
0.283496 0.646094 0.095469
0.353906 0.646094 0.095469
0.426426 0.646094 0.095469
0.500000 0.646094 0.095469
0.573574 0.646094 0.095469
0.646094 0.646094 0.095469
0.716504 0.646094 0.095469
0.783750 0.646094 0.095469
0.846777 0.646094 0.095469
0.904531 0.646094 0.095469
0.955957 0.646094 0.095469
1.000000 0.646094 0.095469
0.000000 0.716504 0.095469
0.044043 0.716504 0.095469
0.095469 0.716504 0.095469
0.153223 0.716504 0.095469
0.216250 0.716504 0.095469
0.283496 0.716504 0.095469
0.353906 0.716504 0.095469
0.426426 0.716504 0.095469
0.500000 0.716504 0.095469
0.573574 0.716504 0.095469
0.646094 0.716504 0.095469
0.716504 0.716504 0.095469
0.783750 0.716504 0.095469
0.846777 0.716504 0.095469
0.904531 0.716504 0.095469
0.955957 0.716504 0.095469
1.000000 0.716504 0.095469
0.000000 0.783750 0.095469
0.044043 0.783750 0.095469
0.095469 0.783750 0.095469
0.153223 0.783750 0.095469
0.216250 0.783750 0.095469
0.283496 0.783750 0.095469
0.353906 0.783750 0.095469
0.426426 0.783750 0.095469
0.500000 0.783750 0.095469
0.573574 0.783750 0.095469
0.646094 0.783750 0.095469
0.716504 0.783750 0.095469
0.783750 0.783750 0.095469
0.846777 0.783750 0.095469
0.904531 0.783750 0.095469
0.955957 0.783750 0.095469
1.000000 0.783750 0.095469
0.000000 0.846777 0.095469
0.044043 0.846777 0.095469
0.095469 0.846777 0.095469
0.153223 0.846777 0.095469
0.216250 0.846777 0.095469
0.283496 0.846777 0.095469
0.353906 0.846777 0.095469
0.426426 0.846777 0.095469
0.500000 0.846777 0.095469
0.573574 0.846777 0.095469
0.646094 0.846777 0.095469
0.716504 0.846777 0.095469
0.783750 0.846777 0.095469
0.846777 0.846777 0.095469
0.904531 0.846777 0.095469
0.955957 0.846777 0.095469
1.000000 0.846777 0.095469
0.000000 0.904531 0.095469
0.044043 0.904531 0.095469
0.095469 0.904531 0.095469
0.153223 0.904531 0.095469
0.216250 0.904531 0.095469
0.283496 0.904531 0.095469
0.353906 0.904531 0.095469
0.426426 0.904531 0.095469
0.500000 0.904531 0.095469
0.573574 0.904531 0.095469
0.646094 0.904531 0.095469
0.716504 0.904531 0.095469
0.783750 0.904531 0.095469
0.846777 0.904531 0.095469
0.904531 0.904531 0.095469
0.955957 0.904531 0.095469
1.000000 0.904531 0.095469
0.000000 0.955957 0.095469
0.044043 0.955957 0.095469
0.095469 0.955957 0.095469
0.153223 0.955957 0.095469
0.216250 0.955957 0.095469
0.283496 0.955957 0.095469
0.353906 0.955957 0.095469
0.426426 0.955957 0.095469
0.500000 0.955957 0.095469
0.573574 0.955957 0.095469
0.646094 0.955957 0.095469
0.716504 0.955957 0.095469
0.783750 0.955957 0.095469
0.846777 0.955957 0.095469
0.904531 0.955957 0.095469
0.955957 0.955957 0.095469
1.000000 0.955957 0.095469
0.000000 1.000000 0.095469
0.044043 1.000000 0.095469
0.095469 1.000000 0.095469
0.153223 1.000000 0.095469
0.216250 1.000000 0.095469
0.283496 1.000000 0.095469
0.353906 1.000000 0.095469
0.426426 1.000000 0.095469
0.500000 1.000000 0.095469
0.573574 1.000000 0.095469
0.646094 1.000000 0.095469
0.716504 1.000000 0.095469
0.783750 1.000000 0.095469
0.846777 1.000000 0.095469
0.904531 1.000000 0.095469
0.955957 1.000000 0.095469
1.000000 1.000000 0.095469
0.000000 0.000000 0.153223
0.044043 0.000000 0.153223
0.095469 0.000000 0.153223
0.153223 0.000000 0.153223
0.216250 0.000000 0.153223
0.283496 0.000000 0.153223
0.353906 0.000000 0.153223
0.426426 0.000000 0.153223
0.500000 0.000000 0.153223
0.573574 0.000000 0.153223
0.646094 0.000000 0.153223
0.716504 0.000000 0.153223
