tests/fixtures/luts/creative/clean-contrast-17.cube
# Generated for Real Landscape P0 LUT compatibility testing.
# RGB order: red changes fastest, followed by green, then blue.
TITLE "P0 Clean Contrast"
LUT_3D_SIZE 5
DOMAIN_MIN 0.000000 0.000000 0.000000
DOMAIN_MAX 1.000000 1.000000 1.000000
0.000000 0.000000 0.000000
0.216250 0.000000 0.000000
0.500000 0.000000 0.000000
0.783750 0.000000 0.000000
1.000000 0.000000 0.000000
0.000000 0.216250 0.000000
0.216250 0.216250 0.000000
0.500000 0.216250 0.000000
0.783750 0.216250 0.000000
1.000000 0.216250 0.000000
0.000000 0.500000 0.000000
0.216250 0.500000 0.000000
0.500000 0.500000 0.000000
0.783750 0.500000 0.000000
1.000000 0.500000 0.000000
0.000000 0.783750 0.000000
0.216250 0.783750 0.000000
0.500000 0.783750 0.000000
0.783750 0.783750 0.000000
1.000000 0.783750 0.000000
0.000000 1.000000 0.000000
0.216250 1.000000 0.000000
0.500000 1.000000 0.000000
0.783750 1.000000 0.000000
1.000000 1.000000 0.000000
0.000000 0.000000 0.216250
0.216250 0.000000 0.216250
0.500000 0.000000 0.216250
0.783750 0.000000 0.216250
1.000000 0.000000 0.216250
0.000000 0.216250 0.216250
0.216250 0.216250 0.216250
0.500000 0.216250 0.216250
0.783750 0.216250 0.216250
1.000000 0.216250 0.216250
0.000000 0.500000 0.216250
0.216250 0.500000 0.216250
0.500000 0.500000 0.216250
0.783750 0.500000 0.216250
1.000000 0.500000 0.216250
0.000000 0.783750 0.216250
0.216250 0.783750 0.216250
0.500000 0.783750 0.216250
0.783750 0.783750 0.216250
1.000000 0.783750 0.216250
0.000000 1.000000 0.216250
0.216250 1.000000 0.216250
0.500000 1.000000 0.216250
0.783750 1.000000 0.216250
1.000000 1.000000 0.216250
0.000000 0.000000 0.500000
0.216250 0.000000 0.500000
0.500000 0.000000 0.500000
0.783750 0.000000 0.500000
1.000000 0.000000 0.500000
0.000000 0.216250 0.500000
0.216250 0.216250 0.500000
0.500000 0.216250 0.500000
0.783750 0.216250 0.500000
1.000000 0.216250 0.500000
0.000000 0.500000 0.500000
0.216250 0.500000 0.500000
0.500000 0.500000 0.500000
0.783750 0.500000 0.500000
1.000000 0.500000 0.500000
0.000000 0.783750 0.500000
0.216250 0.783750 0.500000
0.500000 0.783750 0.500000
0.783750 0.783750 0.500000
1.000000 0.783750 0.500000
0.000000 1.000000 0.500000
0.216250 1.000000 0.500000
0.500000 1.000000 0.500000
0.783750 1.000000 0.500000
1.000000 1.000000 0.500000
0.000000 0.000000 0.783750
0.216250 0.000000 0.783750
0.500000 0.000000 0.783750
0.783750 0.000000 0.783750
1.000000 0.000000 0.783750
0.000000 0.216250 0.783750
0.216250 0.216250 0.783750
0.500000 0.216250 0.783750
0.783750 0.216250 0.783750
1.000000 0.216250 0.783750
0.000000 0.500000 0.783750
0.216250 0.500000 0.783750
0.500000 0.500000 0.783750
0.783750 0.500000 0.783750
1.000000 0.500000 0.783750
0.000000 0.783750 0.783750
0.216250 0.783750 0.783750
0.500000 0.783750 0.783750
0.783750 0.783750 0.783750
1.000000 0.783750 0.783750
0.000000 1.000000 0.783750
0.216250 1.000000 0.783750
0.500000 1.000000 0.783750
0.783750 1.000000 0.783750
1.000000 1.000000 0.783750
0.000000 0.000000 1.000000
0.216250 0.000000 1.000000
0.500000 0.000000 1.000000
0.783750 0.000000 1.000000
1.000000 0.000000 1.000000
0.000000 0.216250 1.000000
0.216250 0.216250 1.000000
0.500000 0.216250 1.000000
0.783750 0.216250 1.000000
1.000000 0.216250 1.000000
0.000000 0.500000 1.000000
0.216250 0.500000 1.000000
0.500000 0.500000 1.000000
0.783750 0.500000 1.000000
1.000000 0.500000 1.000000
0.000000 0.783750 1.000000
0.216250 0.783750 1.000000
0.500000 0.783750 1.000000
0.783750 0.783750 1.000000
1.000000 0.783750 1.000000
0.000000 1.000000 1.000000
0.216250 1.000000 1.000000
0.500000 1.000000 1.000000
0.783750 1.000000 1.000000
1.000000 1.000000 1.000000
