tests/fixtures/luts/creative/cool-landscape-17.cube
# Generated for Real Landscape P0 LUT compatibility testing.
# RGB order: red changes fastest, followed by green, then blue.
TITLE "P0 Cool Landscape"
LUT_3D_SIZE 9
DOMAIN_MIN 0.000000 0.000000 0.000000
DOMAIN_MAX 1.000000 1.000000 1.000000
0.000000 0.000000 0.000000
0.119375 0.000000 0.000000
0.238750 0.000000 0.000000
0.358125 0.000000 0.000000
0.477500 0.000000 0.000000
0.596875 0.000000 0.000000
0.716250 0.000000 0.000000
0.835625 0.000000 0.000000
0.955000 0.000000 0.000000
0.000750 0.126875 0.001000
0.120125 0.126875 0.001000
0.239500 0.126875 0.001000
0.358875 0.126875 0.001000
0.478250 0.126875 0.001000
0.597625 0.126875 0.001000
0.717000 0.126875 0.001000
0.836375 0.126875 0.001000
0.955750 0.126875 0.001000
0.001500 0.253750 0.002000
0.120875 0.253750 0.002000
0.240250 0.253750 0.002000
0.359625 0.253750 0.002000
0.479000 0.253750 0.002000
0.598375 0.253750 0.002000
0.717750 0.253750 0.002000
0.837125 0.253750 0.002000
0.956500 0.253750 0.002000
0.002250 0.380625 0.003000
0.121625 0.380625 0.003000
0.241000 0.380625 0.003000
0.360375 0.380625 0.003000
0.479750 0.380625 0.003000
0.599125 0.380625 0.003000
0.718500 0.380625 0.003000
0.837875 0.380625 0.003000
0.957250 0.380625 0.003000
0.003000 0.507500 0.004000
0.122375 0.507500 0.004000
0.241750 0.507500 0.004000
0.361125 0.507500 0.004000
0.480500 0.507500 0.004000
0.599875 0.507500 0.004000
0.719250 0.507500 0.004000
0.838625 0.507500 0.004000
0.958000 0.507500 0.004000
0.003750 0.634375 0.005000
0.123125 0.634375 0.005000
0.242500 0.634375 0.005000
0.361875 0.634375 0.005000
0.481250 0.634375 0.005000
0.600625 0.634375 0.005000
0.720000 0.634375 0.005000
0.839375 0.634375 0.005000
0.958750 0.634375 0.005000
0.004500 0.761250 0.006000
0.123875 0.761250 0.006000
0.243250 0.761250 0.006000
0.362625 0.761250 0.006000
0.482000 0.761250 0.006000
0.601375 0.761250 0.006000
0.720750 0.761250 0.006000
0.840125 0.761250 0.006000
0.959500 0.761250 0.006000
0.005250 0.888125 0.007000
0.124625 0.888125 0.007000
0.244000 0.888125 0.007000
0.363375 0.888125 0.007000
0.482750 0.888125 0.007000
0.602125 0.888125 0.007000
0.721500 0.888125 0.007000
0.840875 0.888125 0.007000
0.960250 0.888125 0.007000
0.006000 1.000000 0.008000
0.125375 1.000000 0.008000
0.244750 1.000000 0.008000
0.364125 1.000000 0.008000
0.483500 1.000000 0.008000
0.602875 1.000000 0.008000
0.722250 1.000000 0.008000
0.841625 1.000000 0.008000
0.961000 1.000000 0.008000
0.000000 0.000750 0.130625
0.119375 0.000750 0.130625
0.238750 0.000750 0.130625
0.358125 0.000750 0.130625
0.477500 0.000750 0.130625
0.596875 0.000750 0.130625
0.716250 0.000750 0.130625
0.835625 0.000750 0.130625
0.955000 0.000750 0.130625
0.000750 0.127625 0.131625
0.120125 0.127625 0.131625
0.239500 0.127625 0.131625
0.358875 0.127625 0.131625
0.478250 0.127625 0.131625
0.597625 0.127625 0.131625
0.717000 0.127625 0.131625
0.836375 0.127625 0.131625
0.955750 0.127625 0.131625
0.001500 0.254500 0.132625
0.120875 0.254500 0.132625
0.240250 0.254500 0.132625
0.359625 0.254500 0.132625
0.479000 0.254500 0.132625
0.598375 0.254500 0.132625
0.717750 0.254500 0.132625
0.837125 0.254500 0.132625
0.956500 0.254500 0.132625
0.002250 0.381375 0.133625
0.121625 0.381375 0.133625
0.241000 0.381375 0.133625
0.360375 0.381375 0.133625
0.479750 0.381375 0.133625
0.599125 0.381375 0.133625
0.718500 0.381375 0.133625
0.837875 0.381375 0.133625
0.957250 0.381375 0.133625
0.003000 0.508250 0.134625
0.122375 0.508250 0.134625
0.241750 0.508250 0.134625
0.361125 0.508250 0.134625
0.480500 0.508250 0.134625
0.599875 0.508250 0.134625
0.719250 0.508250 0.134625
0.838625 0.508250 0.134625
0.958000 0.508250 0.134625
0.003750 0.635125 0.135625
0.123125 0.635125 0.135625
0.242500 0.635125 0.135625
0.361875 0.635125 0.135625
0.481250 0.635125 0.135625
0.600625 0.635125 0.135625
0.720000 0.635125 0.135625
0.839375 0.635125 0.135625
0.958750 0.635125 0.135625
0.004500 0.762000 0.136625
0.123875 0.762000 0.136625
0.243250 0.762000 0.136625
0.362625 0.762000 0.136625
0.482000 0.762000 0.136625
0.601375 0.762000 0.136625
0.720750 0.762000 0.136625
0.840125 0.762000 0.136625
0.959500 0.762000 0.136625
0.005250 0.888875 0.137625
0.124625 0.888875 0.137625
0.244000 0.888875 0.137625
0.363375 0.888875 0.137625
0.482750 0.888875 0.137625
0.602125 0.888875 0.137625
0.721500 0.888875 0.137625
0.840875 0.888875 0.137625
0.960250 0.888875 0.137625
0.006000 1.000000 0.138625
0.125375 1.000000 0.138625
0.244750 1.000000 0.138625
0.364125 1.000000 0.138625
0.483500 1.000000 0.138625
0.602875 1.000000 0.138625
0.722250 1.000000 0.138625
0.841625 1.000000 0.138625
0.961000 1.000000 0.138625
0.000000 0.001500 0.261250
0.119375 0.001500 0.261250
0.238750 0.001500 0.261250
0.358125 0.001500 0.261250
0.477500 0.001500 0.261250
0.596875 0.001500 0.261250
0.716250 0.001500 0.261250
0.835625 0.001500 0.261250
0.955000 0.001500 0.261250
0.000750 0.128375 0.262250
0.120125 0.128375 0.262250
0.239500 0.128375 0.262250
0.358875 0.128375 0.262250
0.478250 0.128375 0.262250
0.597625 0.128375 0.262250
0.717000 0.128375 0.262250
0.836375 0.128375 0.262250
0.955750 0.128375 0.262250
0.001500 0.255250 0.263250
0.120875 0.255250 0.263250
0.240250 0.255250 0.263250
0.359625 0.255250 0.263250
0.479000 0.255250 0.263250
0.598375 0.255250 0.263250
0.717750 0.255250 0.263250
0.837125 0.255250 0.263250
0.956500 0.255250 0.263250
0.002250 0.382125 0.264250
0.121625 0.382125 0.264250
0.241000 0.382125 0.264250
0.360375 0.382125 0.264250
0.479750 0.382125 0.264250
0.599125 0.382125 0.264250
0.718500 0.382125 0.264250
0.837875 0.382125 0.264250
0.957250 0.382125 0.264250
0.003000 0.509000 0.265250
0.122375 0.509000 0.265250
0.241750 0.509000 0.265250
0.361125 0.509000 0.265250
0.480500 0.509000 0.265250
0.599875 0.509000 0.265250
0.719250 0.509000 0.265250
0.838625 0.509000 0.265250
0.958000 0.509000 0.265250
0.003750 0.635875 0.266250
0.123125 0.635875 0.266250
0.242500 0.635875 0.266250
0.361875 0.635875 0.266250
0.481250 0.635875 0.266250
0.600625 0.635875 0.266250
0.720000 0.635875 0.266250
0.839375 0.635875 0.266250
0.958750 0.635875 0.266250
0.004500 0.762750 0.267250
0.123875 0.762750 0.267250
0.243250 0.762750 0.267250
0.362625 0.762750 0.267250
0.482000 0.762750 0.267250
0.601375 0.762750 0.267250
0.720750 0.762750 0.267250
0.840125 0.762750 0.267250
0.959500 0.762750 0.267250
0.005250 0.889625 0.268250
0.124625 0.889625 0.268250
0.244000 0.889625 0.268250
0.363375 0.889625 0.268250
0.482750 0.889625 0.268250
0.602125 0.889625 0.268250
0.721500 0.889625 0.268250
0.840875 0.889625 0.268250
0.960250 0.889625 0.268250
0.006000 1.000000 0.269250
0.125375 1.000000 0.269250
0.244750 1.000000 0.269250
0.364125 1.000000 0.269250
0.483500 1.000000 0.269250
0.602875 1.000000 0.269250
0.722250 1.000000 0.269250
0.841625 1.000000 0.269250
0.961000 1.000000 0.269250
0.000000 0.002250 0.391875
0.119375 0.002250 0.391875
0.238750 0.002250 0.391875
0.358125 0.002250 0.391875
0.477500 0.002250 0.391875
0.596875 0.002250 0.391875
0.716250 0.002250 0.391875
0.835625 0.002250 0.391875
0.955000 0.002250 0.391875
0.000750 0.129125 0.392875
0.120125 0.129125 0.392875
0.239500 0.129125 0.392875
0.358875 0.129125 0.392875
0.478250 0.129125 0.392875
0.597625 0.129125 0.392875
0.717000 0.129125 0.392875
0.836375 0.129125 0.392875
0.955750 0.129125 0.392875
0.001500 0.256000 0.393875
0.120875 0.256000 0.393875
0.240250 0.256000 0.393875
0.359625 0.256000 0.393875
0.479000 0.256000 0.393875
0.598375 0.256000 0.393875
0.717750 0.256000 0.393875
0.837125 0.256000 0.393875
0.956500 0.256000 0.393875
0.002250 0.382875 0.394875
0.121625 0.382875 0.394875
0.241000 0.382875 0.394875
0.360375 0.382875 0.394875
0.479750 0.382875 0.394875
0.599125 0.382875 0.394875
0.718500 0.382875 0.394875
0.837875 0.382875 0.394875
0.957250 0.382875 0.394875
0.003000 0.509750 0.395875
0.122375 0.509750 0.395875
0.241750 0.509750 0.395875
0.361125 0.509750 0.395875
0.480500 0.509750 0.395875
0.599875 0.509750 0.395875
0.719250 0.509750 0.395875
0.838625 0.509750 0.395875
0.958000 0.509750 0.395875
0.003750 0.636625 0.396875
0.123125 0.636625 0.396875
0.242500 0.636625 0.396875
0.361875 0.636625 0.396875
0.481250 0.636625 0.396875
0.600625 0.636625 0.396875
0.720000 0.636625 0.396875
0.839375 0.636625 0.396875
0.958750 0.636625 0.396875
0.004500 0.763500 0.397875
0.123875 0.763500 0.397875
0.243250 0.763500 0.397875
0.362625 0.763500 0.397875
0.482000 0.763500 0.397875
0.601375 0.763500 0.397875
0.720750 0.763500 0.397875
0.840125 0.763500 0.397875
0.959500 0.763500 0.397875
0.005250 0.890375 0.398875
0.124625 0.890375 0.398875
0.244000 0.890375 0.398875
0.363375 0.890375 0.398875
0.482750 0.890375 0.398875
0.602125 0.890375 0.398875
0.721500 0.890375 0.398875
0.840875 0.890375 0.398875
0.960250 0.890375 0.398875
0.006000 1.000000 0.399875
0.125375 1.000000 0.399875
0.244750 1.000000 0.399875
0.364125 1.000000 0.399875
0.483500 1.000000 0.399875
0.602875 1.000000 0.399875
0.722250 1.000000 0.399875
0.841625 1.000000 0.399875
0.961000 1.000000 0.399875
0.000000 0.003000 0.522500
0.119375 0.003000 0.522500
0.238750 0.003000 0.522500
0.358125 0.003000 0.522500
0.477500 0.003000 0.522500
0.596875 0.003000 0.522500
0.716250 0.003000 0.522500
0.835625 0.003000 0.522500
0.955000 0.003000 0.522500
0.000750 0.129875 0.523500
0.120125 0.129875 0.523500
0.239500 0.129875 0.523500
0.358875 0.129875 0.523500
0.478250 0.129875 0.523500
0.597625 0.129875 0.523500
0.717000 0.129875 0.523500
0.836375 0.129875 0.523500
0.955750 0.129875 0.523500
0.001500 0.256750 0.524500
0.120875 0.256750 0.524500
0.240250 0.256750 0.524500
0.359625 0.256750 0.524500
0.479000 0.256750 0.524500
0.598375 0.256750 0.524500
0.717750 0.256750 0.524500
0.837125 0.256750 0.524500
0.956500 0.256750 0.524500
0.002250 0.383625 0.525500
0.121625 0.383625 0.525500
0.241000 0.383625 0.525500
0.360375 0.383625 0.525500
0.479750 0.383625 0.525500
0.599125 0.383625 0.525500
0.718500 0.383625 0.525500
0.837875 0.383625 0.525500
0.957250 0.383625 0.525500
0.003000 0.510500 0.526500
0.122375 0.510500 0.526500
0.241750 0.510500 0.526500
0.361125 0.510500 0.526500
0.480500 0.510500 0.526500
0.599875 0.510500 0.526500
0.719250 0.510500 0.526500
0.838625 0.510500 0.526500
0.958000 0.510500 0.526500
0.003750 0.637375 0.527500
0.123125 0.637375 0.527500
0.242500 0.637375 0.527500
0.361875 0.637375 0.527500
0.481250 0.637375 0.527500
0.600625 0.637375 0.527500
0.720000 0.637375 0.527500
0.839375 0.637375 0.527500
0.958750 0.637375 0.527500
0.004500 0.764250 0.528500
0.123875 0.764250 0.528500
0.243250 0.764250 0.528500
0.362625 0.764250 0.528500
0.482000 0.764250 0.528500
0.601375 0.764250 0.528500
0.720750 0.764250 0.528500
0.840125 0.764250 0.528500
0.959500 0.764250 0.528500
0.005250 0.891125 0.529500
0.124625 0.891125 0.529500
0.244000 0.891125 0.529500
0.363375 0.891125 0.529500
0.482750 0.891125 0.529500
0.602125 0.891125 0.529500
0.721500 0.891125 0.529500
0.840875 0.891125 0.529500
0.960250 0.891125 0.529500
0.006000 1.000000 0.530500
0.125375 1.000000 0.530500
0.244750 1.000000 0.530500
0.364125 1.000000 0.530500
0.483500 1.000000 0.530500
0.602875 1.000000 0.530500
0.722250 1.000000 0.530500
0.841625 1.000000 0.530500
0.961000 1.000000 0.530500
0.000000 0.003750 0.653125
0.119375 0.003750 0.653125
0.238750 0.003750 0.653125
0.358125 0.003750 0.653125
0.477500 0.003750 0.653125
0.596875 0.003750 0.653125
0.716250 0.003750 0.653125
0.835625 0.003750 0.653125
0.955000 0.003750 0.653125
0.000750 0.130625 0.654125
0.120125 0.130625 0.654125
0.239500 0.130625 0.654125
0.358875 0.130625 0.654125
0.478250 0.130625 0.654125
0.597625 0.130625 0.654125
0.717000 0.130625 0.654125
0.836375 0.130625 0.654125
0.955750 0.130625 0.654125
0.001500 0.257500 0.655125
0.120875 0.257500 0.655125
0.240250 0.257500 0.655125
0.359625 0.257500 0.655125
0.479000 0.257500 0.655125
0.598375 0.257500 0.655125
0.717750 0.257500 0.655125
0.837125 0.257500 0.655125
0.956500 0.257500 0.655125
0.002250 0.384375 0.656125
0.121625 0.384375 0.656125
0.241000 0.384375 0.656125
0.360375 0.384375 0.656125
0.479750 0.384375 0.656125
0.599125 0.384375 0.656125
0.718500 0.384375 0.656125
0.837875 0.384375 0.656125
0.957250 0.384375 0.656125
0.003000 0.511250 0.657125
0.122375 0.511250 0.657125
0.241750 0.511250 0.657125
0.361125 0.511250 0.657125
0.480500 0.511250 0.657125
0.599875 0.511250 0.657125
0.719250 0.511250 0.657125
0.838625 0.511250 0.657125
0.958000 0.511250 0.657125
0.003750 0.638125 0.658125
0.123125 0.638125 0.658125
0.242500 0.638125 0.658125
0.361875 0.638125 0.658125
0.481250 0.638125 0.658125
0.600625 0.638125 0.658125
0.720000 0.638125 0.658125
0.839375 0.638125 0.658125
0.958750 0.638125 0.658125
0.004500 0.765000 0.659125
0.123875 0.765000 0.659125
0.243250 0.765000 0.659125
0.362625 0.765000 0.659125
0.482000 0.765000 0.659125
0.601375 0.765000 0.659125
0.720750 0.765000 0.659125
0.840125 0.765000 0.659125
0.959500 0.765000 0.659125
0.005250 0.891875 0.660125
0.124625 0.891875 0.660125
0.244000 0.891875 0.660125
0.363375 0.891875 0.660125
0.482750 0.891875 0.660125
0.602125 0.891875 0.660125
0.721500 0.891875 0.660125
0.840875 0.891875 0.660125
0.960250 0.891875 0.660125
0.006000 1.000000 0.661125
0.125375 1.000000 0.661125
0.244750 1.000000 0.661125
0.364125 1.000000 0.661125
0.483500 1.000000 0.661125
0.602875 1.000000 0.661125
0.722250 1.000000 0.661125
0.841625 1.000000 0.661125
0.961000 1.000000 0.661125
0.000000 0.004500 0.783750
0.119375 0.004500 0.783750
0.238750 0.004500 0.783750
0.358125 0.004500 0.783750
0.477500 0.004500 0.783750
0.596875 0.004500 0.783750
0.716250 0.004500 0.783750
0.835625 0.004500 0.783750
0.955000 0.004500 0.783750
0.000750 0.131375 0.784750
0.120125 0.131375 0.784750
0.239500 0.131375 0.784750
0.358875 0.131375 0.784750
0.478250 0.131375 0.784750
0.597625 0.131375 0.784750
0.717000 0.131375 0.784750
0.836375 0.131375 0.784750
0.955750 0.131375 0.784750
0.001500 0.258250 0.785750
0.120875 0.258250 0.785750
0.240250 0.258250 0.785750
0.359625 0.258250 0.785750
0.479000 0.258250 0.785750
0.598375 0.258250 0.785750
0.717750 0.258250 0.785750
0.837125 0.258250 0.785750
0.956500 0.258250 0.785750
0.002250 0.385125 0.786750
0.121625 0.385125 0.786750
0.241000 0.385125 0.786750
0.360375 0.385125 0.786750
0.479750 0.385125 0.786750
0.599125 0.385125 0.786750
0.718500 0.385125 0.786750
0.837875 0.385125 0.786750
0.957250 0.385125 0.786750
0.003000 0.512000 0.787750
0.122375 0.512000 0.787750
0.241750 0.512000 0.787750
0.361125 0.512000 0.787750
0.480500 0.512000 0.787750
0.599875 0.512000 0.787750
0.719250 0.512000 0.787750
0.838625 0.512000 0.787750
0.958000 0.512000 0.787750
0.003750 0.638875 0.788750
0.123125 0.638875 0.788750
0.242500 0.638875 0.788750
0.361875 0.638875 0.788750
0.481250 0.638875 0.788750
0.600625 0.638875 0.788750
0.720000 0.638875 0.788750
0.839375 0.638875 0.788750
0.958750 0.638875 0.788750
0.004500 0.765750 0.789750
0.123875 0.765750 0.789750
0.243250 0.765750 0.789750
0.362625 0.765750 0.789750
0.482000 0.765750 0.789750
0.601375 0.765750 0.789750
0.720750 0.765750 0.789750
0.840125 0.765750 0.789750
0.959500 0.765750 0.789750
0.005250 0.892625 0.790750
0.124625 0.892625 0.790750
0.244000 0.892625 0.790750
0.363375 0.892625 0.790750
0.482750 0.892625 0.790750
0.602125 0.892625 0.790750
0.721500 0.892625 0.790750
0.840875 0.892625 0.790750
0.960250 0.892625 0.790750
0.006000 1.000000 0.791750
0.125375 1.000000 0.791750
0.244750 1.000000 0.791750
0.364125 1.000000 0.791750
0.483500 1.000000 0.791750
0.602875 1.000000 0.791750
0.722250 1.000000 0.791750
0.841625 1.000000 0.791750
0.961000 1.000000 0.791750
0.000000 0.005250 0.914375
0.119375 0.005250 0.914375
0.238750 0.005250 0.914375
0.358125 0.005250 0.914375
0.477500 0.005250 0.914375
0.596875 0.005250 0.914375
0.716250 0.005250 0.914375
0.835625 0.005250 0.914375
0.955000 0.005250 0.914375
0.000750 0.132125 0.915375
0.120125 0.132125 0.915375
0.239500 0.132125 0.915375
0.358875 0.132125 0.915375
0.478250 0.132125 0.915375
0.597625 0.132125 0.915375
0.717000 0.132125 0.915375
0.836375 0.132125 0.915375
0.955750 0.132125 0.915375
0.001500 0.259000 0.916375
0.120875 0.259000 0.916375
0.240250 0.259000 0.916375
0.359625 0.259000 0.916375
0.479000 0.259000 0.916375
0.598375 0.259000 0.916375
0.717750 0.259000 0.916375
0.837125 0.259000 0.916375
0.956500 0.259000 0.916375
0.002250 0.385875 0.917375
0.121625 0.385875 0.917375
0.241000 0.385875 0.917375
0.360375 0.385875 0.917375
0.479750 0.385875 0.917375
0.599125 0.385875 0.917375
0.718500 0.385875 0.917375
0.837875 0.385875 0.917375
0.957250 0.385875 0.917375
0.003000 0.512750 0.918375
0.122375 0.512750 0.918375
0.241750 0.512750 0.918375
0.361125 0.512750 0.918375
0.480500 0.512750 0.918375
0.599875 0.512750 0.918375
0.719250 0.512750 0.918375
0.838625 0.512750 0.918375
0.958000 0.512750 0.918375
0.003750 0.639625 0.919375
0.123125 0.639625 0.919375
0.242500 0.639625 0.919375
0.361875 0.639625 0.919375
0.481250 0.639625 0.919375
0.600625 0.639625 0.919375
0.720000 0.639625 0.919375
0.839375 0.639625 0.919375
0.958750 0.639625 0.919375
0.004500 0.766500 0.920375
0.123875 0.766500 0.920375
0.243250 0.766500 0.920375
0.362625 0.766500 0.920375
0.482000 0.766500 0.920375
0.601375 0.766500 0.920375
0.720750 0.766500 0.920375
0.840125 0.766500 0.920375
0.959500 0.766500 0.920375
0.005250 0.893375 0.921375
0.124625 0.893375 0.921375
0.244000 0.893375 0.921375
0.363375 0.893375 0.921375
0.482750 0.893375 0.921375
0.602125 0.893375 0.921375
0.721500 0.893375 0.921375
0.840875 0.893375 0.921375
0.960250 0.893375 0.921375
0.006000 1.000000 0.922375
0.125375 1.000000 0.922375
0.244750 1.000000 0.922375
0.364125 1.000000 0.922375
0.483500 1.000000 0.922375
0.602875 1.000000 0.922375
0.722250 1.000000 0.922375
0.841625 1.000000 0.922375
0.961000 1.000000 0.922375
0.000000 0.006000 1.000000
0.119375 0.006000 1.000000
0.238750 0.006000 1.000000
0.358125 0.006000 1.000000
0.477500 0.006000 1.000000
0.596875 0.006000 1.000000
0.716250 0.006000 1.000000
0.835625 0.006000 1.000000
0.955000 0.006000 1.000000
0.000750 0.132875 1.000000
0.120125 0.132875 1.000000
0.239500 0.132875 1.000000
0.358875 0.132875 1.000000
0.478250 0.132875 1.000000
0.597625 0.132875 1.000000
0.717000 0.132875 1.000000
0.836375 0.132875 1.000000
0.955750 0.132875 1.000000
0.001500 0.259750 1.000000
0.120875 0.259750 1.000000
0.240250 0.259750 1.000000
0.359625 0.259750 1.000000
0.479000 0.259750 1.000000
0.598375 0.259750 1.000000
0.717750 0.259750 1.000000
0.837125 0.259750 1.000000
0.956500 0.259750 1.000000
0.002250 0.386625 1.000000
0.121625 0.386625 1.000000
0.241000 0.386625 1.000000
0.360375 0.386625 1.000000
0.479750 0.386625 1.000000
0.599125 0.386625 1.000000
0.718500 0.386625 1.000000
0.837875 0.386625 1.000000
0.957250 0.386625 1.000000
0.003000 0.513500 1.000000
0.122375 0.513500 1.000000
0.241750 0.513500 1.000000
0.361125 0.513500 1.000000
0.480500 0.513500 1.000000
0.599875 0.513500 1.000000
0.719250 0.513500 1.000000
0.838625 0.513500 1.000000
0.958000 0.513500 1.000000
0.003750 0.640375 1.000000
0.123125 0.640375 1.000000
0.242500 0.640375 1.000000
0.361875 0.640375 1.000000
0.481250 0.640375 1.000000
0.600625 0.640375 1.000000
0.720000 0.640375 1.000000
0.839375 0.640375 1.000000
0.958750 0.640375 1.000000
0.004500 0.767250 1.000000
0.123875 0.767250 1.000000
0.243250 0.767250 1.000000
0.362625 0.767250 1.000000
0.482000 0.767250 1.000000
0.601375 0.767250 1.000000
0.720750 0.767250 1.000000
0.840125 0.767250 1.000000
0.959500 0.767250 1.000000
0.005250 0.894125 1.000000
0.124625 0.894125 1.000000
0.244000 0.894125 1.000000
0.363375 0.894125 1.000000
0.482750 0.894125 1.000000
0.602125 0.894125 1.000000
0.721500 0.894125 1.000000
0.840875 0.894125 1.000000
0.960250 0.894125 1.000000
0.006000 1.000000 1.000000
0.125375 1.000000 1.000000
0.244750 1.000000 1.000000
0.364125 1.000000 1.000000
0.483500 1.000000 1.000000
0.602875 1.000000 1.000000
0.722250 1.000000 1.000000
0.841625 1.000000 1.000000
0.961000 1.000000 1.000000
