tests/fixtures/luts/creative/cool-landscape-17.cube
# Generated for Real Landscape P0 LUT compatibility testing.
# RGB order: red changes fastest, followed by green, then blue.
TITLE "P0 Cool Landscape"
LUT_3D_SIZE 5
DOMAIN_MIN 0.000000 0.000000 0.000000
DOMAIN_MAX 1.000000 1.000000 1.000000
0.000000 0.000000 0.000000
0.238750 0.000000 0.000000
0.477500 0.000000 0.000000
0.716250 0.000000 0.000000
0.955000 0.000000 0.000000
0.001500 0.253750 0.002000
0.240250 0.253750 0.002000
0.479000 0.253750 0.002000
0.717750 0.253750 0.002000
0.956500 0.253750 0.002000
0.003000 0.507500 0.004000
0.241750 0.507500 0.004000
0.480500 0.507500 0.004000
0.719250 0.507500 0.004000
0.958000 0.507500 0.004000
0.004500 0.761250 0.006000
0.243250 0.761250 0.006000
0.482000 0.761250 0.006000
0.720750 0.761250 0.006000
0.959500 0.761250 0.006000
0.006000 1.000000 0.008000
0.244750 1.000000 0.008000
0.483500 1.000000 0.008000
0.722250 1.000000 0.008000
0.961000 1.000000 0.008000
0.000000 0.001500 0.261250
0.238750 0.001500 0.261250
0.477500 0.001500 0.261250
0.716250 0.001500 0.261250
0.955000 0.001500 0.261250
0.001500 0.255250 0.263250
0.240250 0.255250 0.263250
0.479000 0.255250 0.263250
0.717750 0.255250 0.263250
0.956500 0.255250 0.263250
0.003000 0.509000 0.265250
0.241750 0.509000 0.265250
0.480500 0.509000 0.265250
0.719250 0.509000 0.265250
0.958000 0.509000 0.265250
0.004500 0.762750 0.267250
0.243250 0.762750 0.267250
0.482000 0.762750 0.267250
0.720750 0.762750 0.267250
0.959500 0.762750 0.267250
0.006000 1.000000 0.269250
0.244750 1.000000 0.269250
0.483500 1.000000 0.269250
0.722250 1.000000 0.269250
0.961000 1.000000 0.269250
0.000000 0.003000 0.522500
0.238750 0.003000 0.522500
0.477500 0.003000 0.522500
0.716250 0.003000 0.522500
0.955000 0.003000 0.522500
0.001500 0.256750 0.524500
0.240250 0.256750 0.524500
0.479000 0.256750 0.524500
0.717750 0.256750 0.524500
0.956500 0.256750 0.524500
0.003000 0.510500 0.526500
0.241750 0.510500 0.526500
0.480500 0.510500 0.526500
0.719250 0.510500 0.526500
0.958000 0.510500 0.526500
0.004500 0.764250 0.528500
0.243250 0.764250 0.528500
0.482000 0.764250 0.528500
0.720750 0.764250 0.528500
0.959500 0.764250 0.528500
0.006000 1.000000 0.530500
0.244750 1.000000 0.530500
0.483500 1.000000 0.530500
0.722250 1.000000 0.530500
0.961000 1.000000 0.530500
0.000000 0.004500 0.783750
0.238750 0.004500 0.783750
0.477500 0.004500 0.783750
0.716250 0.004500 0.783750
0.955000 0.004500 0.783750
0.001500 0.258250 0.785750
0.240250 0.258250 0.785750
0.479000 0.258250 0.785750
0.717750 0.258250 0.785750
0.956500 0.258250 0.785750
0.003000 0.512000 0.787750
0.241750 0.512000 0.787750
0.480500 0.512000 0.787750
0.719250 0.512000 0.787750
0.958000 0.512000 0.787750
0.004500 0.765750 0.789750
0.243250 0.765750 0.789750
0.482000 0.765750 0.789750
0.720750 0.765750 0.789750
0.959500 0.765750 0.789750
0.006000 1.000000 0.791750
0.244750 1.000000 0.791750
0.483500 1.000000 0.791750
0.722250 1.000000 0.791750
0.961000 1.000000 0.791750
0.000000 0.006000 1.000000
0.238750 0.006000 1.000000
0.477500 0.006000 1.000000
0.716250 0.006000 1.000000
0.955000 0.006000 1.000000
0.001500 0.259750 1.000000
0.240250 0.259750 1.000000
0.479000 0.259750 1.000000
0.717750 0.259750 1.000000
0.956500 0.259750 1.000000
0.003000 0.513500 1.000000
0.241750 0.513500 1.000000
0.480500 0.513500 1.000000
0.719250 0.513500 1.000000
0.958000 0.513500 1.000000
0.004500 0.767250 1.000000
0.243250 0.767250 1.000000
0.482000 0.767250 1.000000
0.720750 0.767250 1.000000
0.959500 0.767250 1.000000
0.006000 1.000000 1.000000
0.244750 1.000000 1.000000
0.483500 1.000000 1.000000
0.722250 1.000000 1.000000
0.961000 1.000000 1.000000
