tests/fixtures/luts/creative/cool-landscape-17.cube
# Generated for Real Landscape P0 LUT compatibility testing.
# RGB order: red changes fastest, followed by green, then blue.
TITLE "P0 Cool Landscape"
LUT_3D_SIZE 17
DOMAIN_MIN 0.000000 0.000000 0.000000
DOMAIN_MAX 1.000000 1.000000 1.000000
0.000000 0.000000 0.000000
0.059687 0.000000 0.000000
0.119375 0.000000 0.000000
0.179062 0.000000 0.000000
0.238750 0.000000 0.000000
0.298437 0.000000 0.000000
0.358125 0.000000 0.000000
0.417812 0.000000 0.000000
0.477500 0.000000 0.000000
0.537187 0.000000 0.000000
0.596875 0.000000 0.000000
0.656562 0.000000 0.000000
0.716250 0.000000 0.000000
0.775937 0.000000 0.000000
0.835625 0.000000 0.000000
0.895312 0.000000 0.000000
0.955000 0.000000 0.000000
0.000375 0.063437 0.000500
0.060062 0.063437 0.000500
0.119750 0.063437 0.000500
0.179437 0.063437 0.000500
0.239125 0.063437 0.000500
0.298812 0.063437 0.000500
0.358500 0.063437 0.000500
0.418187 0.063437 0.000500
0.477875 0.063437 0.000500
0.537562 0.063437 0.000500
0.597250 0.063437 0.000500
0.656937 0.063437 0.000500
0.716625 0.063437 0.000500
0.776312 0.063437 0.000500
0.836000 0.063437 0.000500
0.895687 0.063437 0.000500
0.955375 0.063437 0.000500
0.000750 0.126875 0.001000
0.060437 0.126875 0.001000
0.120125 0.126875 0.001000
0.179812 0.126875 0.001000
0.239500 0.126875 0.001000
0.299187 0.126875 0.001000
0.358875 0.126875 0.001000
0.418562 0.126875 0.001000
0.478250 0.126875 0.001000
0.537937 0.126875 0.001000
0.597625 0.126875 0.001000
0.657312 0.126875 0.001000
0.717000 0.126875 0.001000
0.776687 0.126875 0.001000
0.836375 0.126875 0.001000
0.896062 0.126875 0.001000
0.955750 0.126875 0.001000
0.001125 0.190312 0.001500
0.060812 0.190312 0.001500
0.120500 0.190312 0.001500
0.180187 0.190312 0.001500
0.239875 0.190312 0.001500
0.299562 0.190312 0.001500
0.359250 0.190312 0.001500
0.418937 0.190312 0.001500
0.478625 0.190312 0.001500
0.538312 0.190312 0.001500
0.598000 0.190312 0.001500
0.657687 0.190312 0.001500
0.717375 0.190312 0.001500
0.777062 0.190312 0.001500
0.836750 0.190312 0.001500
0.896437 0.190312 0.001500
0.956125 0.190312 0.001500
0.001500 0.253750 0.002000
0.061187 0.253750 0.002000
0.120875 0.253750 0.002000
0.180562 0.253750 0.002000
0.240250 0.253750 0.002000
0.299937 0.253750 0.002000
0.359625 0.253750 0.002000
0.419312 0.253750 0.002000
0.479000 0.253750 0.002000
0.538687 0.253750 0.002000
0.598375 0.253750 0.002000
0.658062 0.253750 0.002000
0.717750 0.253750 0.002000
0.777437 0.253750 0.002000
0.837125 0.253750 0.002000
0.896812 0.253750 0.002000
0.956500 0.253750 0.002000
0.001875 0.317187 0.002500
0.061562 0.317187 0.002500
0.121250 0.317187 0.002500
0.180937 0.317187 0.002500
0.240625 0.317187 0.002500
0.300312 0.317187 0.002500
0.360000 0.317187 0.002500
0.419687 0.317187 0.002500
0.479375 0.317187 0.002500
0.539062 0.317187 0.002500
0.598750 0.317187 0.002500
0.658437 0.317187 0.002500
0.718125 0.317187 0.002500
0.777812 0.317187 0.002500
0.837500 0.317187 0.002500
0.897187 0.317187 0.002500
0.956875 0.317187 0.002500
0.002250 0.380625 0.003000
0.061937 0.380625 0.003000
0.121625 0.380625 0.003000
0.181312 0.380625 0.003000
0.241000 0.380625 0.003000
0.300687 0.380625 0.003000
0.360375 0.380625 0.003000
0.420062 0.380625 0.003000
0.479750 0.380625 0.003000
0.539437 0.380625 0.003000
0.599125 0.380625 0.003000
0.658812 0.380625 0.003000
0.718500 0.380625 0.003000
0.778187 0.380625 0.003000
0.837875 0.380625 0.003000
0.897562 0.380625 0.003000
0.957250 0.380625 0.003000
0.002625 0.444062 0.003500
0.062312 0.444062 0.003500
0.122000 0.444062 0.003500
0.181687 0.444062 0.003500
0.241375 0.444062 0.003500
0.301062 0.444062 0.003500
0.360750 0.444062 0.003500
0.420437 0.444062 0.003500
0.480125 0.444062 0.003500
0.539812 0.444062 0.003500
0.599500 0.444062 0.003500
0.659187 0.444062 0.003500
0.718875 0.444062 0.003500
0.778562 0.444062 0.003500
0.838250 0.444062 0.003500
0.897937 0.444062 0.003500
0.957625 0.444062 0.003500
0.003000 0.507500 0.004000
0.062687 0.507500 0.004000
0.122375 0.507500 0.004000
0.182062 0.507500 0.004000
0.241750 0.507500 0.004000
0.301437 0.507500 0.004000
0.361125 0.507500 0.004000
0.420812 0.507500 0.004000
0.480500 0.507500 0.004000
0.540187 0.507500 0.004000
0.599875 0.507500 0.004000
0.659562 0.507500 0.004000
0.719250 0.507500 0.004000
0.778937 0.507500 0.004000
0.838625 0.507500 0.004000
0.898312 0.507500 0.004000
0.958000 0.507500 0.004000
0.003375 0.570937 0.004500
0.063062 0.570937 0.004500
0.122750 0.570937 0.004500
0.182437 0.570937 0.004500
0.242125 0.570937 0.004500
0.301812 0.570937 0.004500
0.361500 0.570937 0.004500
0.421187 0.570937 0.004500
0.480875 0.570937 0.004500
0.540562 0.570937 0.004500
0.600250 0.570937 0.004500
0.659937 0.570937 0.004500
0.719625 0.570937 0.004500
0.779312 0.570937 0.004500
0.839000 0.570937 0.004500
0.898687 0.570937 0.004500
0.958375 0.570937 0.004500
0.003750 0.634375 0.005000
0.063437 0.634375 0.005000
0.123125 0.634375 0.005000
0.182812 0.634375 0.005000
0.242500 0.634375 0.005000
0.302187 0.634375 0.005000
0.361875 0.634375 0.005000
0.421562 0.634375 0.005000
0.481250 0.634375 0.005000
0.540937 0.634375 0.005000
0.600625 0.634375 0.005000
0.660312 0.634375 0.005000
0.720000 0.634375 0.005000
0.779687 0.634375 0.005000
0.839375 0.634375 0.005000
0.899062 0.634375 0.005000
0.958750 0.634375 0.005000
0.004125 0.697812 0.005500
0.063812 0.697812 0.005500
0.123500 0.697812 0.005500
0.183187 0.697812 0.005500
0.242875 0.697812 0.005500
0.302562 0.697812 0.005500
0.362250 0.697812 0.005500
0.421937 0.697812 0.005500
0.481625 0.697812 0.005500
0.541312 0.697812 0.005500
0.601000 0.697812 0.005500
0.660687 0.697812 0.005500
0.720375 0.697812 0.005500
0.780062 0.697812 0.005500
0.839750 0.697812 0.005500
0.899438 0.697812 0.005500
0.959125 0.697812 0.005500
0.004500 0.761250 0.006000
0.064187 0.761250 0.006000
0.123875 0.761250 0.006000
0.183562 0.761250 0.006000
0.243250 0.761250 0.006000
0.302937 0.761250 0.006000
0.362625 0.761250 0.006000
0.422312 0.761250 0.006000
0.482000 0.761250 0.006000
0.541687 0.761250 0.006000
0.601375 0.761250 0.006000
0.661062 0.761250 0.006000
0.720750 0.761250 0.006000
0.780437 0.761250 0.006000
0.840125 0.761250 0.006000
0.899812 0.761250 0.006000
0.959500 0.761250 0.006000
0.004875 0.824687 0.006500
0.064562 0.824687 0.006500
0.124250 0.824687 0.006500
0.183937 0.824687 0.006500
0.243625 0.824687 0.006500
0.303312 0.824687 0.006500
0.363000 0.824687 0.006500
0.422687 0.824687 0.006500
0.482375 0.824687 0.006500
0.542062 0.824687 0.006500
0.601750 0.824687 0.006500
0.661437 0.824687 0.006500
0.721125 0.824687 0.006500
0.780812 0.824687 0.006500
0.840500 0.824687 0.006500
0.900187 0.824687 0.006500
0.959875 0.824687 0.006500
0.005250 0.888125 0.007000
0.064937 0.888125 0.007000
0.124625 0.888125 0.007000
0.184312 0.888125 0.007000
0.244000 0.888125 0.007000
0.303687 0.888125 0.007000
0.363375 0.888125 0.007000
0.423062 0.888125 0.007000
0.482750 0.888125 0.007000
0.542437 0.888125 0.007000
0.602125 0.888125 0.007000
0.661812 0.888125 0.007000
0.721500 0.888125 0.007000
0.781187 0.888125 0.007000
0.840875 0.888125 0.007000
0.900562 0.888125 0.007000
0.960250 0.888125 0.007000
0.005625 0.951562 0.007500
0.065312 0.951562 0.007500
0.125000 0.951562 0.007500
0.184687 0.951562 0.007500
0.244375 0.951562 0.007500
0.304062 0.951562 0.007500
0.363750 0.951562 0.007500
0.423437 0.951562 0.007500
0.483125 0.951562 0.007500
0.542812 0.951562 0.007500
0.602500 0.951562 0.007500
0.662187 0.951562 0.007500
0.721875 0.951562 0.007500
0.781562 0.951562 0.007500
0.841250 0.951562 0.007500
0.900937 0.951562 0.007500
0.960625 0.951562 0.007500
0.006000 1.000000 0.008000
0.065687 1.000000 0.008000
0.125375 1.000000 0.008000
0.185062 1.000000 0.008000
0.244750 1.000000 0.008000
0.304437 1.000000 0.008000
0.364125 1.000000 0.008000
0.423812 1.000000 0.008000
0.483500 1.000000 0.008000
0.543187 1.000000 0.008000
0.602875 1.000000 0.008000
0.662562 1.000000 0.008000
0.722250 1.000000 0.008000
0.781937 1.000000 0.008000
0.841625 1.000000 0.008000
0.901312 1.000000 0.008000
0.961000 1.000000 0.008000
0.000000 0.000375 0.065312
0.059687 0.000375 0.065312
0.119375 0.000375 0.065312
0.179062 0.000375 0.065312
0.238750 0.000375 0.065312
0.298437 0.000375 0.065312
0.358125 0.000375 0.065312
0.417812 0.000375 0.065312
0.477500 0.000375 0.065312
0.537187 0.000375 0.065312
0.596875 0.000375 0.065312
0.656562 0.000375 0.065312
0.716250 0.000375 0.065312
0.775937 0.000375 0.065312
0.835625 0.000375 0.065312
0.895312 0.000375 0.065312
0.955000 0.000375 0.065312
0.000375 0.063812 0.065812
0.060062 0.063812 0.065812
0.119750 0.063812 0.065812
0.179437 0.063812 0.065812
0.239125 0.063812 0.065812
0.298812 0.063812 0.065812
0.358500 0.063812 0.065812
0.418187 0.063812 0.065812
0.477875 0.063812 0.065812
0.537562 0.063812 0.065812
0.597250 0.063812 0.065812
0.656937 0.063812 0.065812
0.716625 0.063812 0.065812
0.776312 0.063812 0.065812
0.836000 0.063812 0.065812
0.895687 0.063812 0.065812
0.955375 0.063812 0.065812
0.000750 0.127250 0.066312
0.060437 0.127250 0.066312
0.120125 0.127250 0.066312
0.179812 0.127250 0.066312
0.239500 0.127250 0.066312
0.299187 0.127250 0.066312
0.358875 0.127250 0.066312
0.418562 0.127250 0.066312
0.478250 0.127250 0.066312
0.537937 0.127250 0.066312
0.597625 0.127250 0.066312
0.657312 0.127250 0.066312
0.717000 0.127250 0.066312
0.776687 0.127250 0.066312
0.836375 0.127250 0.066312
0.896062 0.127250 0.066312
0.955750 0.127250 0.066312
0.001125 0.190687 0.066812
0.060812 0.190687 0.066812
0.120500 0.190687 0.066812
0.180187 0.190687 0.066812
0.239875 0.190687 0.066812
0.299562 0.190687 0.066812
0.359250 0.190687 0.066812
0.418937 0.190687 0.066812
0.478625 0.190687 0.066812
0.538312 0.190687 0.066812
0.598000 0.190687 0.066812
0.657687 0.190687 0.066812
0.717375 0.190687 0.066812
0.777062 0.190687 0.066812
0.836750 0.190687 0.066812
0.896437 0.190687 0.066812
0.956125 0.190687 0.066812
0.001500 0.254125 0.067312
0.061187 0.254125 0.067312
0.120875 0.254125 0.067312
0.180562 0.254125 0.067312
0.240250 0.254125 0.067312
0.299937 0.254125 0.067312
0.359625 0.254125 0.067312
0.419312 0.254125 0.067312
0.479000 0.254125 0.067312
0.538687 0.254125 0.067312
0.598375 0.254125 0.067312
0.658062 0.254125 0.067312
0.717750 0.254125 0.067312
0.777437 0.254125 0.067312
0.837125 0.254125 0.067312
0.896812 0.254125 0.067312
0.956500 0.254125 0.067312
0.001875 0.317562 0.067812
0.061562 0.317562 0.067812
0.121250 0.317562 0.067812
0.180937 0.317562 0.067812
0.240625 0.317562 0.067812
0.300312 0.317562 0.067812
0.360000 0.317562 0.067812
0.419687 0.317562 0.067812
0.479375 0.317562 0.067812
0.539062 0.317562 0.067812
0.598750 0.317562 0.067812
0.658437 0.317562 0.067812
0.718125 0.317562 0.067812
0.777812 0.317562 0.067812
0.837500 0.317562 0.067812
0.897187 0.317562 0.067812
0.956875 0.317562 0.067812
0.002250 0.381000 0.068312
0.061937 0.381000 0.068312
0.121625 0.381000 0.068312
0.181312 0.381000 0.068312
0.241000 0.381000 0.068312
0.300687 0.381000 0.068312
0.360375 0.381000 0.068312
0.420062 0.381000 0.068312
0.479750 0.381000 0.068312
0.539437 0.381000 0.068312
0.599125 0.381000 0.068312
0.658812 0.381000 0.068312
0.718500 0.381000 0.068312
0.778187 0.381000 0.068312
0.837875 0.381000 0.068312
0.897562 0.381000 0.068312
0.957250 0.381000 0.068312
0.002625 0.444437 0.068812
0.062312 0.444437 0.068812
0.122000 0.444437 0.068812
0.181687 0.444437 0.068812
0.241375 0.444437 0.068812
0.301062 0.444437 0.068812
0.360750 0.444437 0.068812
0.420437 0.444437 0.068812
0.480125 0.444437 0.068812
0.539812 0.444437 0.068812
0.599500 0.444437 0.068812
0.659187 0.444437 0.068812
0.718875 0.444437 0.068812
0.778562 0.444437 0.068812
0.838250 0.444437 0.068812
0.897937 0.444437 0.068812
0.957625 0.444437 0.068812
0.003000 0.507875 0.069312
0.062687 0.507875 0.069312
0.122375 0.507875 0.069312
0.182062 0.507875 0.069312
0.241750 0.507875 0.069312
0.301437 0.507875 0.069312
0.361125 0.507875 0.069312
0.420812 0.507875 0.069312
0.480500 0.507875 0.069312
0.540187 0.507875 0.069312
0.599875 0.507875 0.069312
0.659562 0.507875 0.069312
0.719250 0.507875 0.069312
0.778937 0.507875 0.069312
0.838625 0.507875 0.069312
0.898312 0.507875 0.069312
0.958000 0.507875 0.069312
0.003375 0.571313 0.069812
0.063062 0.571313 0.069812
0.122750 0.571313 0.069812
0.182437 0.571313 0.069812
0.242125 0.571313 0.069812
0.301812 0.571313 0.069812
0.361500 0.571313 0.069812
0.421187 0.571313 0.069812
0.480875 0.571313 0.069812
0.540562 0.571313 0.069812
0.600250 0.571313 0.069812
0.659937 0.571313 0.069812
0.719625 0.571313 0.069812
0.779312 0.571313 0.069812
0.839000 0.571313 0.069812
0.898687 0.571313 0.069812
0.958375 0.571313 0.069812
0.003750 0.634750 0.070313
0.063437 0.634750 0.070313
0.123125 0.634750 0.070313
0.182812 0.634750 0.070313
0.242500 0.634750 0.070313
0.302187 0.634750 0.070313
0.361875 0.634750 0.070313
0.421562 0.634750 0.070313
0.481250 0.634750 0.070313
0.540937 0.634750 0.070313
0.600625 0.634750 0.070313
0.660312 0.634750 0.070313
0.720000 0.634750 0.070313
0.779687 0.634750 0.070313
0.839375 0.634750 0.070313
0.899062 0.634750 0.070313
0.958750 0.634750 0.070313
0.004125 0.698187 0.070813
0.063812 0.698187 0.070813
0.123500 0.698187 0.070813
0.183187 0.698187 0.070813
0.242875 0.698187 0.070813
0.302562 0.698187 0.070813
0.362250 0.698187 0.070813
0.421937 0.698187 0.070813
0.481625 0.698187 0.070813
0.541312 0.698187 0.070813
0.601000 0.698187 0.070813
0.660687 0.698187 0.070813
0.720375 0.698187 0.070813
0.780062 0.698187 0.070813
0.839750 0.698187 0.070813
0.899438 0.698187 0.070813
0.959125 0.698187 0.070813
0.004500 0.761625 0.071313
0.064187 0.761625 0.071313
0.123875 0.761625 0.071313
0.183562 0.761625 0.071313
0.243250 0.761625 0.071313
0.302937 0.761625 0.071313
0.362625 0.761625 0.071313
0.422312 0.761625 0.071313
0.482000 0.761625 0.071313
0.541687 0.761625 0.071313
0.601375 0.761625 0.071313
0.661062 0.761625 0.071313
0.720750 0.761625 0.071313
0.780437 0.761625 0.071313
0.840125 0.761625 0.071313
0.899812 0.761625 0.071313
0.959500 0.761625 0.071313
0.004875 0.825062 0.071813
0.064562 0.825062 0.071813
0.124250 0.825062 0.071813
0.183937 0.825062 0.071813
0.243625 0.825062 0.071813
0.303312 0.825062 0.071813
0.363000 0.825062 0.071813
0.422687 0.825062 0.071813
0.482375 0.825062 0.071813
0.542062 0.825062 0.071813
0.601750 0.825062 0.071813
0.661437 0.825062 0.071813
0.721125 0.825062 0.071813
0.780812 0.825062 0.071813
0.840500 0.825062 0.071813
0.900187 0.825062 0.071813
0.959875 0.825062 0.071813
0.005250 0.888500 0.072313
0.064937 0.888500 0.072313
0.124625 0.888500 0.072313
0.184312 0.888500 0.072313
0.244000 0.888500 0.072313
0.303687 0.888500 0.072313
0.363375 0.888500 0.072313
0.423062 0.888500 0.072313
0.482750 0.888500 0.072313
0.542437 0.888500 0.072313
0.602125 0.888500 0.072313
0.661812 0.888500 0.072313
0.721500 0.888500 0.072313
0.781187 0.888500 0.072313
0.840875 0.888500 0.072313
0.900562 0.888500 0.072313
0.960250 0.888500 0.072313
0.005625 0.951937 0.072813
0.065312 0.951937 0.072813
0.125000 0.951937 0.072813
0.184687 0.951937 0.072813
0.244375 0.951937 0.072813
0.304062 0.951937 0.072813
0.363750 0.951937 0.072813
0.423437 0.951937 0.072813
0.483125 0.951937 0.072813
0.542812 0.951937 0.072813
0.602500 0.951937 0.072813
0.662187 0.951937 0.072813
0.721875 0.951937 0.072813
0.781562 0.951937 0.072813
0.841250 0.951937 0.072813
0.900937 0.951937 0.072813
0.960625 0.951937 0.072813
0.006000 1.000000 0.073313
0.065687 1.000000 0.073313
0.125375 1.000000 0.073313
0.185062 1.000000 0.073313
0.244750 1.000000 0.073313
0.304437 1.000000 0.073313
0.364125 1.000000 0.073313
0.423812 1.000000 0.073313
0.483500 1.000000 0.073313
0.543187 1.000000 0.073313
0.602875 1.000000 0.073313
0.662562 1.000000 0.073313
0.722250 1.000000 0.073313
0.781937 1.000000 0.073313
0.841625 1.000000 0.073313
0.901312 1.000000 0.073313
0.961000 1.000000 0.073313
0.000000 0.000750 0.130625
0.059687 0.000750 0.130625
0.119375 0.000750 0.130625
0.179062 0.000750 0.130625
0.238750 0.000750 0.130625
0.298437 0.000750 0.130625
0.358125 0.000750 0.130625
0.417812 0.000750 0.130625
0.477500 0.000750 0.130625
0.537187 0.000750 0.130625
0.596875 0.000750 0.130625
0.656562 0.000750 0.130625
0.716250 0.000750 0.130625
0.775937 0.000750 0.130625
0.835625 0.000750 0.130625
0.895312 0.000750 0.130625
0.955000 0.000750 0.130625
0.000375 0.064187 0.131125
0.060062 0.064187 0.131125
0.119750 0.064187 0.131125
0.179437 0.064187 0.131125
0.239125 0.064187 0.131125
0.298812 0.064187 0.131125
0.358500 0.064187 0.131125
0.418187 0.064187 0.131125
0.477875 0.064187 0.131125
0.537562 0.064187 0.131125
0.597250 0.064187 0.131125
0.656937 0.064187 0.131125
0.716625 0.064187 0.131125
0.776312 0.064187 0.131125
0.836000 0.064187 0.131125
0.895687 0.064187 0.131125
0.955375 0.064187 0.131125
0.000750 0.127625 0.131625
0.060437 0.127625 0.131625
0.120125 0.127625 0.131625
0.179812 0.127625 0.131625
0.239500 0.127625 0.131625
0.299187 0.127625 0.131625
0.358875 0.127625 0.131625
0.418562 0.127625 0.131625
0.478250 0.127625 0.131625
0.537937 0.127625 0.131625
0.597625 0.127625 0.131625
0.657312 0.127625 0.131625
0.717000 0.127625 0.131625
0.776687 0.127625 0.131625
0.836375 0.127625 0.131625
0.896062 0.127625 0.131625
0.955750 0.127625 0.131625
0.001125 0.191062 0.132125
0.060812 0.191062 0.132125
0.120500 0.191062 0.132125
0.180187 0.191062 0.132125
0.239875 0.191062 0.132125
0.299562 0.191062 0.132125
0.359250 0.191062 0.132125
0.418937 0.191062 0.132125
0.478625 0.191062 0.132125
0.538312 0.191062 0.132125
0.598000 0.191062 0.132125
0.657687 0.191062 0.132125
0.717375 0.191062 0.132125
0.777062 0.191062 0.132125
0.836750 0.191062 0.132125
0.896437 0.191062 0.132125
0.956125 0.191062 0.132125
0.001500 0.254500 0.132625
0.061187 0.254500 0.132625
0.120875 0.254500 0.132625
0.180562 0.254500 0.132625
0.240250 0.254500 0.132625
0.299937 0.254500 0.132625
0.359625 0.254500 0.132625
0.419312 0.254500 0.132625
0.479000 0.254500 0.132625
0.538687 0.254500 0.132625
0.598375 0.254500 0.132625
0.658062 0.254500 0.132625
0.717750 0.254500 0.132625
0.777437 0.254500 0.132625
0.837125 0.254500 0.132625
0.896812 0.254500 0.132625
0.956500 0.254500 0.132625
0.001875 0.317937 0.133125
0.061562 0.317937 0.133125
0.121250 0.317937 0.133125
0.180937 0.317937 0.133125
0.240625 0.317937 0.133125
0.300312 0.317937 0.133125
0.360000 0.317937 0.133125
0.419687 0.317937 0.133125
0.479375 0.317937 0.133125
0.539062 0.317937 0.133125
0.598750 0.317937 0.133125
0.658437 0.317937 0.133125
0.718125 0.317937 0.133125
0.777812 0.317937 0.133125
0.837500 0.317937 0.133125
0.897187 0.317937 0.133125
0.956875 0.317937 0.133125
0.002250 0.381375 0.133625
0.061937 0.381375 0.133625
0.121625 0.381375 0.133625
0.181312 0.381375 0.133625
0.241000 0.381375 0.133625
0.300687 0.381375 0.133625
0.360375 0.381375 0.133625
0.420062 0.381375 0.133625
0.479750 0.381375 0.133625
0.539437 0.381375 0.133625
0.599125 0.381375 0.133625
0.658812 0.381375 0.133625
0.718500 0.381375 0.133625
0.778187 0.381375 0.133625
0.837875 0.381375 0.133625
0.897562 0.381375 0.133625
0.957250 0.381375 0.133625
0.002625 0.444812 0.134125
0.062312 0.444812 0.134125
0.122000 0.444812 0.134125
0.181687 0.444812 0.134125
0.241375 0.444812 0.134125
0.301062 0.444812 0.134125
0.360750 0.444812 0.134125
0.420437 0.444812 0.134125
0.480125 0.444812 0.134125
0.539812 0.444812 0.134125
0.599500 0.444812 0.134125
0.659187 0.444812 0.134125
0.718875 0.444812 0.134125
0.778562 0.444812 0.134125
0.838250 0.444812 0.134125
0.897937 0.444812 0.134125
0.957625 0.444812 0.134125
0.003000 0.508250 0.134625
0.062687 0.508250 0.134625
0.122375 0.508250 0.134625
0.182062 0.508250 0.134625
0.241750 0.508250 0.134625
0.301437 0.508250 0.134625
0.361125 0.508250 0.134625
0.420812 0.508250 0.134625
0.480500 0.508250 0.134625
0.540187 0.508250 0.134625
0.599875 0.508250 0.134625
0.659562 0.508250 0.134625
0.719250 0.508250 0.134625
0.778937 0.508250 0.134625
0.838625 0.508250 0.134625
0.898312 0.508250 0.134625
0.958000 0.508250 0.134625
0.003375 0.571688 0.135125
0.063062 0.571688 0.135125
0.122750 0.571688 0.135125
0.182437 0.571688 0.135125
0.242125 0.571688 0.135125
0.301812 0.571688 0.135125
0.361500 0.571688 0.135125
0.421187 0.571688 0.135125
0.480875 0.571688 0.135125
0.540562 0.571688 0.135125
0.600250 0.571688 0.135125
0.659937 0.571688 0.135125
0.719625 0.571688 0.135125
0.779312 0.571688 0.135125
0.839000 0.571688 0.135125
0.898687 0.571688 0.135125
0.958375 0.571688 0.135125
0.003750 0.635125 0.135625
0.063437 0.635125 0.135625
0.123125 0.635125 0.135625
0.182812 0.635125 0.135625
0.242500 0.635125 0.135625
0.302187 0.635125 0.135625
0.361875 0.635125 0.135625
0.421562 0.635125 0.135625
0.481250 0.635125 0.135625
0.540937 0.635125 0.135625
0.600625 0.635125 0.135625
0.660312 0.635125 0.135625
0.720000 0.635125 0.135625
0.779687 0.635125 0.135625
0.839375 0.635125 0.135625
0.899062 0.635125 0.135625
0.958750 0.635125 0.135625
0.004125 0.698562 0.136125
0.063812 0.698562 0.136125
0.123500 0.698562 0.136125
0.183187 0.698562 0.136125
0.242875 0.698562 0.136125
0.302562 0.698562 0.136125
0.362250 0.698562 0.136125
0.421937 0.698562 0.136125
0.481625 0.698562 0.136125
0.541312 0.698562 0.136125
0.601000 0.698562 0.136125
0.660687 0.698562 0.136125
0.720375 0.698562 0.136125
0.780062 0.698562 0.136125
0.839750 0.698562 0.136125
0.899438 0.698562 0.136125
0.959125 0.698562 0.136125
0.004500 0.762000 0.136625
0.064187 0.762000 0.136625
0.123875 0.762000 0.136625
0.183562 0.762000 0.136625
0.243250 0.762000 0.136625
0.302937 0.762000 0.136625
0.362625 0.762000 0.136625
0.422312 0.762000 0.136625
0.482000 0.762000 0.136625
0.541687 0.762000 0.136625
0.601375 0.762000 0.136625
0.661062 0.762000 0.136625
0.720750 0.762000 0.136625
0.780437 0.762000 0.136625
0.840125 0.762000 0.136625
0.899812 0.762000 0.136625
0.959500 0.762000 0.136625
0.004875 0.825437 0.137125
0.064562 0.825437 0.137125
0.124250 0.825437 0.137125
0.183937 0.825437 0.137125
0.243625 0.825437 0.137125
0.303312 0.825437 0.137125
0.363000 0.825437 0.137125
0.422687 0.825437 0.137125
0.482375 0.825437 0.137125
0.542062 0.825437 0.137125
0.601750 0.825437 0.137125
0.661437 0.825437 0.137125
0.721125 0.825437 0.137125
0.780812 0.825437 0.137125
0.840500 0.825437 0.137125
0.900187 0.825437 0.137125
0.959875 0.825437 0.137125
0.005250 0.888875 0.137625
0.064937 0.888875 0.137625
0.124625 0.888875 0.137625
0.184312 0.888875 0.137625
0.244000 0.888875 0.137625
0.303687 0.888875 0.137625
0.363375 0.888875 0.137625
0.423062 0.888875 0.137625
0.482750 0.888875 0.137625
0.542437 0.888875 0.137625
0.602125 0.888875 0.137625
0.661812 0.888875 0.137625
0.721500 0.888875 0.137625
0.781187 0.888875 0.137625
0.840875 0.888875 0.137625
0.900562 0.888875 0.137625
0.960250 0.888875 0.137625
0.005625 0.952312 0.138125
0.065312 0.952312 0.138125
0.125000 0.952312 0.138125
0.184687 0.952312 0.138125
0.244375 0.952312 0.138125
0.304062 0.952312 0.138125
0.363750 0.952312 0.138125
0.423437 0.952312 0.138125
0.483125 0.952312 0.138125
0.542812 0.952312 0.138125
0.602500 0.952312 0.138125
0.662187 0.952312 0.138125
0.721875 0.952312 0.138125
0.781562 0.952312 0.138125
0.841250 0.952312 0.138125
0.900937 0.952312 0.138125
0.960625 0.952312 0.138125
0.006000 1.000000 0.138625
0.065687 1.000000 0.138625
0.125375 1.000000 0.138625
0.185062 1.000000 0.138625
0.244750 1.000000 0.138625
0.304437 1.000000 0.138625
0.364125 1.000000 0.138625
0.423812 1.000000 0.138625
0.483500 1.000000 0.138625
0.543187 1.000000 0.138625
0.602875 1.000000 0.138625
0.662562 1.000000 0.138625
0.722250 1.000000 0.138625
0.781937 1.000000 0.138625
0.841625 1.000000 0.138625
0.901312 1.000000 0.138625
0.961000 1.000000 0.138625
0.000000 0.001125 0.195937
0.059687 0.001125 0.195937
0.119375 0.001125 0.195937
0.179062 0.001125 0.195937
0.238750 0.001125 0.195937
0.298437 0.001125 0.195937
0.358125 0.001125 0.195937
0.417812 0.001125 0.195937
0.477500 0.001125 0.195937
0.537187 0.001125 0.195937
0.596875 0.001125 0.195937
0.656562 0.001125 0.195937
