tests/fixtures/luts/creative/warm-portrait-17.cube
# Generated for Real Landscape P0 LUT compatibility testing.
# RGB order: red changes fastest, followed by green, then blue.
TITLE "P0 Warm Portrait"
LUT_3D_SIZE 5
DOMAIN_MIN 0.000000 0.000000 0.000000
DOMAIN_MAX 1.000000 1.000000 1.000000
0.000000 0.000000 0.000000
0.256250 0.001000 0.000000
0.512500 0.002000 0.000000
0.768750 0.003000 0.000000
1.000000 0.004000 0.000000
0.003000 0.251250 0.003000
0.259250 0.252250 0.003000
0.515500 0.253250 0.003000
0.771750 0.254250 0.003000
1.000000 0.255250 0.003000
0.006000 0.502500 0.006000
0.262250 0.503500 0.006000
0.518500 0.504500 0.006000
0.774750 0.505500 0.006000
1.000000 0.506500 0.006000
0.009000 0.753750 0.009000
0.265250 0.754750 0.009000
0.521500 0.755750 0.009000
0.777750 0.756750 0.009000
1.000000 0.757750 0.009000
0.012000 1.000000 0.012000
0.268250 1.000000 0.012000
0.524500 1.000000 0.012000
0.780750 1.000000 0.012000
1.000000 1.000000 0.012000
0.000000 0.000000 0.235000
0.256250 0.001000 0.235000
0.512500 0.002000 0.235000
0.768750 0.003000 0.235000
1.000000 0.004000 0.235000
0.003000 0.251250 0.238000
0.259250 0.252250 0.238000
0.515500 0.253250 0.238000
0.771750 0.254250 0.238000
1.000000 0.255250 0.238000
0.006000 0.502500 0.241000
0.262250 0.503500 0.241000
0.518500 0.504500 0.241000
0.774750 0.505500 0.241000
1.000000 0.506500 0.241000
0.009000 0.753750 0.244000
0.265250 0.754750 0.244000
0.521500 0.755750 0.244000
0.777750 0.756750 0.244000
1.000000 0.757750 0.244000
0.012000 1.000000 0.247000
0.268250 1.000000 0.247000
0.524500 1.000000 0.247000
0.780750 1.000000 0.247000
1.000000 1.000000 0.247000
0.000000 0.000000 0.470000
0.256250 0.001000 0.470000
0.512500 0.002000 0.470000
0.768750 0.003000 0.470000
1.000000 0.004000 0.470000
0.003000 0.251250 0.473000
0.259250 0.252250 0.473000
0.515500 0.253250 0.473000
0.771750 0.254250 0.473000
1.000000 0.255250 0.473000
0.006000 0.502500 0.476000
0.262250 0.503500 0.476000
0.518500 0.504500 0.476000
0.774750 0.505500 0.476000
1.000000 0.506500 0.476000
0.009000 0.753750 0.479000
0.265250 0.754750 0.479000
0.521500 0.755750 0.479000
0.777750 0.756750 0.479000
1.000000 0.757750 0.479000
0.012000 1.000000 0.482000
0.268250 1.000000 0.482000
0.524500 1.000000 0.482000
0.780750 1.000000 0.482000
1.000000 1.000000 0.482000
0.000000 0.000000 0.705000
0.256250 0.001000 0.705000
0.512500 0.002000 0.705000
0.768750 0.003000 0.705000
1.000000 0.004000 0.705000
0.003000 0.251250 0.708000
0.259250 0.252250 0.708000
0.515500 0.253250 0.708000
0.771750 0.254250 0.708000
1.000000 0.255250 0.708000
0.006000 0.502500 0.711000
0.262250 0.503500 0.711000
0.518500 0.504500 0.711000
0.774750 0.505500 0.711000
1.000000 0.506500 0.711000
0.009000 0.753750 0.714000
0.265250 0.754750 0.714000
0.521500 0.755750 0.714000
0.777750 0.756750 0.714000
1.000000 0.757750 0.714000
0.012000 1.000000 0.717000
0.268250 1.000000 0.717000
0.524500 1.000000 0.717000
0.780750 1.000000 0.717000
1.000000 1.000000 0.717000
0.000000 0.000000 0.940000
0.256250 0.001000 0.940000
0.512500 0.002000 0.940000
0.768750 0.003000 0.940000
1.000000 0.004000 0.940000
0.003000 0.251250 0.943000
0.259250 0.252250 0.943000
0.515500 0.253250 0.943000
0.771750 0.254250 0.943000
1.000000 0.255250 0.943000
0.006000 0.502500 0.946000
0.262250 0.503500 0.946000
0.518500 0.504500 0.946000
0.774750 0.505500 0.946000
1.000000 0.506500 0.946000
0.009000 0.753750 0.949000
0.265250 0.754750 0.949000
0.521500 0.755750 0.949000
0.777750 0.756750 0.949000
1.000000 0.757750 0.949000
0.012000 1.000000 0.952000
0.268250 1.000000 0.952000
0.524500 1.000000 0.952000
0.780750 1.000000 0.952000
1.000000 1.000000 0.952000
