tests/fixtures/luts/creative/warm-portrait-17.cube
# Generated for Real Landscape P0 LUT compatibility testing.
# RGB order: red changes fastest, followed by green, then blue.
TITLE "P0 Warm Portrait"
LUT_3D_SIZE 17
DOMAIN_MIN 0.000000 0.000000 0.000000
DOMAIN_MAX 1.000000 1.000000 1.000000
0.000000 0.000000 0.000000
0.064062 0.000250 0.000000
0.128125 0.000500 0.000000
0.192187 0.000750 0.000000
0.256250 0.001000 0.000000
0.320313 0.001250 0.000000
0.384375 0.001500 0.000000
0.448437 0.001750 0.000000
0.512500 0.002000 0.000000
0.576562 0.002250 0.000000
0.640625 0.002500 0.000000
0.704687 0.002750 0.000000
0.768750 0.003000 0.000000
0.832812 0.003250 0.000000
0.896875 0.003500 0.000000
0.960937 0.003750 0.000000
1.000000 0.004000 0.000000
0.000750 0.062812 0.000750
0.064812 0.063062 0.000750
0.128875 0.063312 0.000750
0.192937 0.063562 0.000750
0.257000 0.063812 0.000750
0.321062 0.064062 0.000750
0.385125 0.064312 0.000750
0.449187 0.064562 0.000750
0.513250 0.064812 0.000750
0.577313 0.065062 0.000750
0.641375 0.065312 0.000750
0.705437 0.065562 0.000750
0.769500 0.065812 0.000750
0.833562 0.066062 0.000750
0.897625 0.066312 0.000750
0.961687 0.066562 0.000750
1.000000 0.066812 0.000750
0.001500 0.125625 0.001500
0.065562 0.125875 0.001500
0.129625 0.126125 0.001500
0.193687 0.126375 0.001500
0.257750 0.126625 0.001500
0.321813 0.126875 0.001500
0.385875 0.127125 0.001500
0.449937 0.127375 0.001500
0.514000 0.127625 0.001500
0.578062 0.127875 0.001500
0.642125 0.128125 0.001500
0.706187 0.128375 0.001500
0.770250 0.128625 0.001500
0.834312 0.128875 0.001500
0.898375 0.129125 0.001500
0.962437 0.129375 0.001500
1.000000 0.129625 0.001500
0.002250 0.188437 0.002250
0.066312 0.188687 0.002250
0.130375 0.188937 0.002250
0.194437 0.189187 0.002250
0.258500 0.189437 0.002250
0.322562 0.189687 0.002250
0.386625 0.189937 0.002250
0.450687 0.190187 0.002250
0.514750 0.190437 0.002250
0.578812 0.190687 0.002250
0.642875 0.190937 0.002250
0.706937 0.191187 0.002250
0.771000 0.191437 0.002250
0.835062 0.191687 0.002250
0.899125 0.191937 0.002250
0.963187 0.192187 0.002250
1.000000 0.192437 0.002250
0.003000 0.251250 0.003000
0.067062 0.251500 0.003000
0.131125 0.251750 0.003000
0.195187 0.252000 0.003000
0.259250 0.252250 0.003000
0.323313 0.252500 0.003000
0.387375 0.252750 0.003000
0.451437 0.253000 0.003000
0.515500 0.253250 0.003000
0.579562 0.253500 0.003000
0.643625 0.253750 0.003000
0.707687 0.254000 0.003000
0.771750 0.254250 0.003000
0.835812 0.254500 0.003000
0.899875 0.254750 0.003000
0.963937 0.255000 0.003000
1.000000 0.255250 0.003000
0.003750 0.314062 0.003750
0.067812 0.314312 0.003750
0.131875 0.314562 0.003750
0.195937 0.314812 0.003750
0.260000 0.315062 0.003750
0.324062 0.315312 0.003750
0.388125 0.315562 0.003750
0.452187 0.315812 0.003750
0.516250 0.316062 0.003750
0.580313 0.316312 0.003750
0.644375 0.316562 0.003750
0.708437 0.316812 0.003750
0.772500 0.317062 0.003750
0.836562 0.317312 0.003750
0.900625 0.317562 0.003750
0.964687 0.317812 0.003750
1.000000 0.318062 0.003750
0.004500 0.376875 0.004500
0.068562 0.377125 0.004500
0.132625 0.377375 0.004500
0.196687 0.377625 0.004500
0.260750 0.377875 0.004500
0.324813 0.378125 0.004500
0.388875 0.378375 0.004500
0.452937 0.378625 0.004500
0.517000 0.378875 0.004500
0.581062 0.379125 0.004500
0.645125 0.379375 0.004500
0.709187 0.379625 0.004500
0.773250 0.379875 0.004500
0.837312 0.380125 0.004500
0.901375 0.380375 0.004500
0.965437 0.380625 0.004500
1.000000 0.380875 0.004500
0.005250 0.439687 0.005250
0.069312 0.439937 0.005250
0.133375 0.440187 0.005250
0.197437 0.440437 0.005250
0.261500 0.440687 0.005250
0.325562 0.440937 0.005250
0.389625 0.441187 0.005250
0.453687 0.441437 0.005250
0.517750 0.441687 0.005250
0.581812 0.441937 0.005250
0.645875 0.442187 0.005250
0.709937 0.442437 0.005250
0.774000 0.442687 0.005250
0.838062 0.442937 0.005250
0.902125 0.443187 0.005250
0.966187 0.443437 0.005250
1.000000 0.443687 0.005250
0.006000 0.502500 0.006000
0.070062 0.502750 0.006000
0.134125 0.503000 0.006000
0.198187 0.503250 0.006000
0.262250 0.503500 0.006000
0.326313 0.503750 0.006000
0.390375 0.504000 0.006000
0.454437 0.504250 0.006000
0.518500 0.504500 0.006000
0.582562 0.504750 0.006000
0.646625 0.505000 0.006000
0.710687 0.505250 0.006000
0.774750 0.505500 0.006000
0.838812 0.505750 0.006000
0.902875 0.506000 0.006000
0.966937 0.506250 0.006000
1.000000 0.506500 0.006000
0.006750 0.565312 0.006750
0.070813 0.565562 0.006750
0.134875 0.565812 0.006750
0.198937 0.566062 0.006750
0.263000 0.566312 0.006750
0.327062 0.566562 0.006750
0.391125 0.566812 0.006750
0.455187 0.567062 0.006750
0.519250 0.567312 0.006750
0.583313 0.567562 0.006750
0.647375 0.567812 0.006750
0.711437 0.568062 0.006750
0.775500 0.568312 0.006750
0.839562 0.568562 0.006750
0.903625 0.568812 0.006750
0.967687 0.569062 0.006750
1.000000 0.569312 0.006750
0.007500 0.628125 0.007500
0.071563 0.628375 0.007500
0.135625 0.628625 0.007500
0.199687 0.628875 0.007500
0.263750 0.629125 0.007500
0.327813 0.629375 0.007500
0.391875 0.629625 0.007500
0.455937 0.629875 0.007500
0.520000 0.630125 0.007500
0.584062 0.630375 0.007500
0.648125 0.630625 0.007500
0.712187 0.630875 0.007500
0.776250 0.631125 0.007500
0.840312 0.631375 0.007500
0.904375 0.631625 0.007500
0.968437 0.631875 0.007500
1.000000 0.632125 0.007500
0.008250 0.690937 0.008250
0.072313 0.691187 0.008250
0.136375 0.691437 0.008250
0.200437 0.691688 0.008250
0.264500 0.691937 0.008250
0.328562 0.692187 0.008250
0.392625 0.692437 0.008250
0.456687 0.692688 0.008250
0.520750 0.692937 0.008250
0.584812 0.693187 0.008250
0.648875 0.693437 0.008250
0.712937 0.693688 0.008250
0.777000 0.693937 0.008250
0.841062 0.694187 0.008250
0.905125 0.694437 0.008250
0.969187 0.694688 0.008250
1.000000 0.694937 0.008250
0.009000 0.753750 0.009000
0.073063 0.754000 0.009000
0.137125 0.754250 0.009000
0.201187 0.754500 0.009000
0.265250 0.754750 0.009000
0.329313 0.755000 0.009000
0.393375 0.755250 0.009000
0.457437 0.755500 0.009000
0.521500 0.755750 0.009000
0.585562 0.756000 0.009000
0.649625 0.756250 0.009000
0.713687 0.756500 0.009000
0.777750 0.756750 0.009000
0.841812 0.757000 0.009000
0.905875 0.757250 0.009000
0.969937 0.757500 0.009000
1.000000 0.757750 0.009000
0.009750 0.816562 0.009750
0.073812 0.816812 0.009750
0.137875 0.817062 0.009750
0.201937 0.817312 0.009750
0.266000 0.817562 0.009750
0.330062 0.817812 0.009750
0.394125 0.818062 0.009750
0.458187 0.818312 0.009750
0.522250 0.818562 0.009750
0.586313 0.818812 0.009750
0.650375 0.819062 0.009750
0.714437 0.819312 0.009750
0.778500 0.819562 0.009750
0.842562 0.819812 0.009750
0.906625 0.820062 0.009750
0.970687 0.820312 0.009750
1.000000 0.820562 0.009750
0.010500 0.879375 0.010500
0.074562 0.879625 0.010500
0.138625 0.879875 0.010500
0.202687 0.880125 0.010500
0.266750 0.880375 0.010500
0.330813 0.880625 0.010500
0.394875 0.880875 0.010500
0.458937 0.881125 0.010500
0.523000 0.881375 0.010500
0.587062 0.881625 0.010500
0.651125 0.881875 0.010500
0.715187 0.882125 0.010500
0.779250 0.882375 0.010500
0.843312 0.882625 0.010500
0.907375 0.882875 0.010500
0.971437 0.883125 0.010500
1.000000 0.883375 0.010500
0.011250 0.942187 0.011250
0.075312 0.942437 0.011250
0.139375 0.942687 0.011250
0.203437 0.942937 0.011250
0.267500 0.943187 0.011250
0.331562 0.943437 0.011250
0.395625 0.943687 0.011250
0.459687 0.943937 0.011250
0.523750 0.944187 0.011250
0.587812 0.944437 0.011250
0.651875 0.944687 0.011250
0.715937 0.944937 0.011250
0.780000 0.945187 0.011250
0.844062 0.945437 0.011250
0.908125 0.945687 0.011250
0.972187 0.945937 0.011250
1.000000 0.946187 0.011250
0.012000 1.000000 0.012000
0.076062 1.000000 0.012000
0.140125 1.000000 0.012000
0.204187 1.000000 0.012000
0.268250 1.000000 0.012000
0.332313 1.000000 0.012000
0.396375 1.000000 0.012000
0.460437 1.000000 0.012000
0.524500 1.000000 0.012000
0.588562 1.000000 0.012000
0.652625 1.000000 0.012000
0.716687 1.000000 0.012000
0.780750 1.000000 0.012000
0.844812 1.000000 0.012000
0.908875 1.000000 0.012000
0.972937 1.000000 0.012000
1.000000 1.000000 0.012000
0.000000 0.000000 0.058750
0.064062 0.000250 0.058750
0.128125 0.000500 0.058750
0.192187 0.000750 0.058750
0.256250 0.001000 0.058750
0.320313 0.001250 0.058750
0.384375 0.001500 0.058750
0.448437 0.001750 0.058750
0.512500 0.002000 0.058750
0.576562 0.002250 0.058750
0.640625 0.002500 0.058750
0.704687 0.002750 0.058750
0.768750 0.003000 0.058750
0.832812 0.003250 0.058750
0.896875 0.003500 0.058750
0.960937 0.003750 0.058750
1.000000 0.004000 0.058750
0.000750 0.062812 0.059500
0.064812 0.063062 0.059500
0.128875 0.063312 0.059500
0.192937 0.063562 0.059500
0.257000 0.063812 0.059500
0.321062 0.064062 0.059500
0.385125 0.064312 0.059500
0.449187 0.064562 0.059500
0.513250 0.064812 0.059500
0.577313 0.065062 0.059500
0.641375 0.065312 0.059500
0.705437 0.065562 0.059500
0.769500 0.065812 0.059500
0.833562 0.066062 0.059500
0.897625 0.066312 0.059500
0.961687 0.066562 0.059500
1.000000 0.066812 0.059500
0.001500 0.125625 0.060250
0.065562 0.125875 0.060250
0.129625 0.126125 0.060250
0.193687 0.126375 0.060250
0.257750 0.126625 0.060250
0.321813 0.126875 0.060250
0.385875 0.127125 0.060250
0.449937 0.127375 0.060250
0.514000 0.127625 0.060250
0.578062 0.127875 0.060250
0.642125 0.128125 0.060250
0.706187 0.128375 0.060250
0.770250 0.128625 0.060250
0.834312 0.128875 0.060250
0.898375 0.129125 0.060250
0.962437 0.129375 0.060250
1.000000 0.129625 0.060250
0.002250 0.188437 0.061000
0.066312 0.188687 0.061000
0.130375 0.188937 0.061000
0.194437 0.189187 0.061000
0.258500 0.189437 0.061000
0.322562 0.189687 0.061000
0.386625 0.189937 0.061000
0.450687 0.190187 0.061000
0.514750 0.190437 0.061000
0.578812 0.190687 0.061000
0.642875 0.190937 0.061000
0.706937 0.191187 0.061000
0.771000 0.191437 0.061000
0.835062 0.191687 0.061000
0.899125 0.191937 0.061000
0.963187 0.192187 0.061000
1.000000 0.192437 0.061000
0.003000 0.251250 0.061750
0.067062 0.251500 0.061750
0.131125 0.251750 0.061750
0.195187 0.252000 0.061750
0.259250 0.252250 0.061750
0.323313 0.252500 0.061750
0.387375 0.252750 0.061750
0.451437 0.253000 0.061750
0.515500 0.253250 0.061750
0.579562 0.253500 0.061750
0.643625 0.253750 0.061750
0.707687 0.254000 0.061750
0.771750 0.254250 0.061750
0.835812 0.254500 0.061750
0.899875 0.254750 0.061750
0.963937 0.255000 0.061750
1.000000 0.255250 0.061750
0.003750 0.314062 0.062500
0.067812 0.314312 0.062500
0.131875 0.314562 0.062500
0.195937 0.314812 0.062500
0.260000 0.315062 0.062500
0.324062 0.315312 0.062500
0.388125 0.315562 0.062500
0.452187 0.315812 0.062500
0.516250 0.316062 0.062500
0.580313 0.316312 0.062500
0.644375 0.316562 0.062500
0.708437 0.316812 0.062500
0.772500 0.317062 0.062500
0.836562 0.317312 0.062500
0.900625 0.317562 0.062500
0.964687 0.317812 0.062500
1.000000 0.318062 0.062500
0.004500 0.376875 0.063250
0.068562 0.377125 0.063250
0.132625 0.377375 0.063250
0.196687 0.377625 0.063250
0.260750 0.377875 0.063250
0.324813 0.378125 0.063250
0.388875 0.378375 0.063250
0.452937 0.378625 0.063250
0.517000 0.378875 0.063250
0.581062 0.379125 0.063250
0.645125 0.379375 0.063250
0.709187 0.379625 0.063250
0.773250 0.379875 0.063250
0.837312 0.380125 0.063250
0.901375 0.380375 0.063250
0.965437 0.380625 0.063250
1.000000 0.380875 0.063250
0.005250 0.439687 0.064000
0.069312 0.439937 0.064000
0.133375 0.440187 0.064000
0.197437 0.440437 0.064000
0.261500 0.440687 0.064000
0.325562 0.440937 0.064000
0.389625 0.441187 0.064000
0.453687 0.441437 0.064000
0.517750 0.441687 0.064000
0.581812 0.441937 0.064000
0.645875 0.442187 0.064000
0.709937 0.442437 0.064000
0.774000 0.442687 0.064000
0.838062 0.442937 0.064000
0.902125 0.443187 0.064000
0.966187 0.443437 0.064000
1.000000 0.443687 0.064000
0.006000 0.502500 0.064750
0.070062 0.502750 0.064750
0.134125 0.503000 0.064750
0.198187 0.503250 0.064750
0.262250 0.503500 0.064750
0.326313 0.503750 0.064750
0.390375 0.504000 0.064750
0.454437 0.504250 0.064750
0.518500 0.504500 0.064750
0.582562 0.504750 0.064750
0.646625 0.505000 0.064750
0.710687 0.505250 0.064750
0.774750 0.505500 0.064750
0.838812 0.505750 0.064750
0.902875 0.506000 0.064750
0.966937 0.506250 0.064750
1.000000 0.506500 0.064750
0.006750 0.565312 0.065500
0.070813 0.565562 0.065500
0.134875 0.565812 0.065500
0.198937 0.566062 0.065500
0.263000 0.566312 0.065500
0.327062 0.566562 0.065500
0.391125 0.566812 0.065500
0.455187 0.567062 0.065500
0.519250 0.567312 0.065500
0.583313 0.567562 0.065500
0.647375 0.567812 0.065500
0.711437 0.568062 0.065500
0.775500 0.568312 0.065500
0.839562 0.568562 0.065500
0.903625 0.568812 0.065500
0.967687 0.569062 0.065500
1.000000 0.569312 0.065500
0.007500 0.628125 0.066250
0.071563 0.628375 0.066250
0.135625 0.628625 0.066250
0.199687 0.628875 0.066250
0.263750 0.629125 0.066250
0.327813 0.629375 0.066250
0.391875 0.629625 0.066250
0.455937 0.629875 0.066250
0.520000 0.630125 0.066250
0.584062 0.630375 0.066250
0.648125 0.630625 0.066250
0.712187 0.630875 0.066250
0.776250 0.631125 0.066250
0.840312 0.631375 0.066250
0.904375 0.631625 0.066250
0.968437 0.631875 0.066250
1.000000 0.632125 0.066250
0.008250 0.690937 0.067000
0.072313 0.691187 0.067000
0.136375 0.691437 0.067000
0.200437 0.691688 0.067000
0.264500 0.691937 0.067000
0.328562 0.692187 0.067000
0.392625 0.692437 0.067000
0.456687 0.692688 0.067000
0.520750 0.692937 0.067000
0.584812 0.693187 0.067000
0.648875 0.693437 0.067000
0.712937 0.693688 0.067000
0.777000 0.693937 0.067000
0.841062 0.694187 0.067000
0.905125 0.694437 0.067000
0.969187 0.694688 0.067000
1.000000 0.694937 0.067000
0.009000 0.753750 0.067750
0.073063 0.754000 0.067750
0.137125 0.754250 0.067750
0.201187 0.754500 0.067750
0.265250 0.754750 0.067750
0.329313 0.755000 0.067750
0.393375 0.755250 0.067750
0.457437 0.755500 0.067750
0.521500 0.755750 0.067750
0.585562 0.756000 0.067750
0.649625 0.756250 0.067750
0.713687 0.756500 0.067750
0.777750 0.756750 0.067750
0.841812 0.757000 0.067750
0.905875 0.757250 0.067750
0.969937 0.757500 0.067750
1.000000 0.757750 0.067750
0.009750 0.816562 0.068500
0.073812 0.816812 0.068500
0.137875 0.817062 0.068500
0.201937 0.817312 0.068500
0.266000 0.817562 0.068500
0.330062 0.817812 0.068500
0.394125 0.818062 0.068500
0.458187 0.818312 0.068500
0.522250 0.818562 0.068500
0.586313 0.818812 0.068500
0.650375 0.819062 0.068500
0.714437 0.819312 0.068500
0.778500 0.819562 0.068500
0.842562 0.819812 0.068500
0.906625 0.820062 0.068500
0.970687 0.820312 0.068500
1.000000 0.820562 0.068500
0.010500 0.879375 0.069250
0.074562 0.879625 0.069250
0.138625 0.879875 0.069250
0.202687 0.880125 0.069250
0.266750 0.880375 0.069250
0.330813 0.880625 0.069250
0.394875 0.880875 0.069250
0.458937 0.881125 0.069250
0.523000 0.881375 0.069250
0.587062 0.881625 0.069250
0.651125 0.881875 0.069250
0.715187 0.882125 0.069250
0.779250 0.882375 0.069250
0.843312 0.882625 0.069250
0.907375 0.882875 0.069250
0.971437 0.883125 0.069250
1.000000 0.883375 0.069250
0.011250 0.942187 0.070000
0.075312 0.942437 0.070000
0.139375 0.942687 0.070000
0.203437 0.942937 0.070000
0.267500 0.943187 0.070000
0.331562 0.943437 0.070000
0.395625 0.943687 0.070000
0.459687 0.943937 0.070000
0.523750 0.944187 0.070000
0.587812 0.944437 0.070000
0.651875 0.944687 0.070000
0.715937 0.944937 0.070000
0.780000 0.945187 0.070000
0.844062 0.945437 0.070000
0.908125 0.945687 0.070000
0.972187 0.945937 0.070000
1.000000 0.946187 0.070000
0.012000 1.000000 0.070750
0.076062 1.000000 0.070750
0.140125 1.000000 0.070750
0.204187 1.000000 0.070750
0.268250 1.000000 0.070750
0.332313 1.000000 0.070750
0.396375 1.000000 0.070750
0.460437 1.000000 0.070750
0.524500 1.000000 0.070750
0.588562 1.000000 0.070750
0.652625 1.000000 0.070750
0.716687 1.000000 0.070750
0.780750 1.000000 0.070750
0.844812 1.000000 0.070750
0.908875 1.000000 0.070750
0.972937 1.000000 0.070750
1.000000 1.000000 0.070750
0.000000 0.000000 0.117500
0.064062 0.000250 0.117500
0.128125 0.000500 0.117500
0.192187 0.000750 0.117500
0.256250 0.001000 0.117500
0.320313 0.001250 0.117500
0.384375 0.001500 0.117500
0.448437 0.001750 0.117500
0.512500 0.002000 0.117500
0.576562 0.002250 0.117500
0.640625 0.002500 0.117500
0.704687 0.002750 0.117500
0.768750 0.003000 0.117500
0.832812 0.003250 0.117500
0.896875 0.003500 0.117500
0.960937 0.003750 0.117500
1.000000 0.004000 0.117500
0.000750 0.062812 0.118250
0.064812 0.063062 0.118250
0.128875 0.063312 0.118250
0.192937 0.063562 0.118250
0.257000 0.063812 0.118250
0.321062 0.064062 0.118250
0.385125 0.064312 0.118250
0.449187 0.064562 0.118250
0.513250 0.064812 0.118250
0.577313 0.065062 0.118250
0.641375 0.065312 0.118250
0.705437 0.065562 0.118250
0.769500 0.065812 0.118250
0.833562 0.066062 0.118250
0.897625 0.066312 0.118250
0.961687 0.066562 0.118250
1.000000 0.066812 0.118250
0.001500 0.125625 0.119000
0.065562 0.125875 0.119000
0.129625 0.126125 0.119000
0.193687 0.126375 0.119000
0.257750 0.126625 0.119000
0.321813 0.126875 0.119000
0.385875 0.127125 0.119000
0.449937 0.127375 0.119000
0.514000 0.127625 0.119000
0.578062 0.127875 0.119000
0.642125 0.128125 0.119000
0.706187 0.128375 0.119000
0.770250 0.128625 0.119000
0.834312 0.128875 0.119000
0.898375 0.129125 0.119000
0.962437 0.129375 0.119000
1.000000 0.129625 0.119000
0.002250 0.188437 0.119750
0.066312 0.188687 0.119750
0.130375 0.188937 0.119750
0.194437 0.189187 0.119750
0.258500 0.189437 0.119750
0.322562 0.189687 0.119750
0.386625 0.189937 0.119750
0.450687 0.190187 0.119750
0.514750 0.190437 0.119750
0.578812 0.190687 0.119750
0.642875 0.190937 0.119750
0.706937 0.191187 0.119750
0.771000 0.191437 0.119750
0.835062 0.191687 0.119750
0.899125 0.191937 0.119750
0.963187 0.192187 0.119750
1.000000 0.192437 0.119750
0.003000 0.251250 0.120500
0.067062 0.251500 0.120500
0.131125 0.251750 0.120500
0.195187 0.252000 0.120500
0.259250 0.252250 0.120500
0.323313 0.252500 0.120500
0.387375 0.252750 0.120500
0.451437 0.253000 0.120500
0.515500 0.253250 0.120500
0.579562 0.253500 0.120500
0.643625 0.253750 0.120500
0.707687 0.254000 0.120500
0.771750 0.254250 0.120500
0.835812 0.254500 0.120500
0.899875 0.254750 0.120500
0.963937 0.255000 0.120500
1.000000 0.255250 0.120500
0.003750 0.314062 0.121250
0.067812 0.314312 0.121250
0.131875 0.314562 0.121250
0.195937 0.314812 0.121250
0.260000 0.315062 0.121250
0.324062 0.315312 0.121250
0.388125 0.315562 0.121250
0.452187 0.315812 0.121250
0.516250 0.316062 0.121250
0.580313 0.316312 0.121250
0.644375 0.316562 0.121250
0.708437 0.316812 0.121250
0.772500 0.317062 0.121250
0.836562 0.317312 0.121250
0.900625 0.317562 0.121250
0.964687 0.317812 0.121250
1.000000 0.318062 0.121250
0.004500 0.376875 0.122000
0.068562 0.377125 0.122000
0.132625 0.377375 0.122000
0.196687 0.377625 0.122000
0.260750 0.377875 0.122000
0.324813 0.378125 0.122000
0.388875 0.378375 0.122000
0.452937 0.378625 0.122000
0.517000 0.378875 0.122000
0.581062 0.379125 0.122000
0.645125 0.379375 0.122000
0.709187 0.379625 0.122000
0.773250 0.379875 0.122000
0.837312 0.380125 0.122000
0.901375 0.380375 0.122000
0.965437 0.380625 0.122000
1.000000 0.380875 0.122000
0.005250 0.439687 0.122750
0.069312 0.439937 0.122750
0.133375 0.440187 0.122750
0.197437 0.440437 0.122750
0.261500 0.440687 0.122750
0.325562 0.440937 0.122750
0.389625 0.441187 0.122750
0.453687 0.441437 0.122750
0.517750 0.441687 0.122750
0.581812 0.441937 0.122750
0.645875 0.442187 0.122750
0.709937 0.442437 0.122750
0.774000 0.442687 0.122750
0.838062 0.442937 0.122750
0.902125 0.443187 0.122750
0.966187 0.443437 0.122750
1.000000 0.443687 0.122750
0.006000 0.502500 0.123500
0.070062 0.502750 0.123500
0.134125 0.503000 0.123500
0.198187 0.503250 0.123500
0.262250 0.503500 0.123500
0.326313 0.503750 0.123500
0.390375 0.504000 0.123500
0.454437 0.504250 0.123500
0.518500 0.504500 0.123500
0.582562 0.504750 0.123500
0.646625 0.505000 0.123500
0.710687 0.505250 0.123500
0.774750 0.505500 0.123500
0.838812 0.505750 0.123500
0.902875 0.506000 0.123500
0.966937 0.506250 0.123500
1.000000 0.506500 0.123500
0.006750 0.565312 0.124250
0.070813 0.565562 0.124250
0.134875 0.565812 0.124250
0.198937 0.566062 0.124250
0.263000 0.566312 0.124250
0.327062 0.566562 0.124250
0.391125 0.566812 0.124250
0.455187 0.567062 0.124250
0.519250 0.567312 0.124250
0.583313 0.567562 0.124250
0.647375 0.567812 0.124250
0.711437 0.568062 0.124250
0.775500 0.568312 0.124250
0.839562 0.568562 0.124250
0.903625 0.568812 0.124250
0.967687 0.569062 0.124250
1.000000 0.569312 0.124250
0.007500 0.628125 0.125000
0.071563 0.628375 0.125000
0.135625 0.628625 0.125000
0.199687 0.628875 0.125000
0.263750 0.629125 0.125000
0.327813 0.629375 0.125000
0.391875 0.629625 0.125000
0.455937 0.629875 0.125000
0.520000 0.630125 0.125000
0.584062 0.630375 0.125000
0.648125 0.630625 0.125000
0.712187 0.630875 0.125000
0.776250 0.631125 0.125000
0.840312 0.631375 0.125000
0.904375 0.631625 0.125000
0.968437 0.631875 0.125000
1.000000 0.632125 0.125000
0.008250 0.690937 0.125750
0.072313 0.691187 0.125750
0.136375 0.691437 0.125750
0.200437 0.691688 0.125750
0.264500 0.691937 0.125750
0.328562 0.692187 0.125750
0.392625 0.692437 0.125750
0.456687 0.692688 0.125750
0.520750 0.692937 0.125750
0.584812 0.693187 0.125750
0.648875 0.693437 0.125750
0.712937 0.693688 0.125750
0.777000 0.693937 0.125750
0.841062 0.694187 0.125750
0.905125 0.694437 0.125750
0.969187 0.694688 0.125750
1.000000 0.694937 0.125750
0.009000 0.753750 0.126500
0.073063 0.754000 0.126500
0.137125 0.754250 0.126500
0.201187 0.754500 0.126500
0.265250 0.754750 0.126500
0.329313 0.755000 0.126500
0.393375 0.755250 0.126500
0.457437 0.755500 0.126500
0.521500 0.755750 0.126500
0.585562 0.756000 0.126500
0.649625 0.756250 0.126500
0.713687 0.756500 0.126500
0.777750 0.756750 0.126500
0.841812 0.757000 0.126500
0.905875 0.757250 0.126500
0.969937 0.757500 0.126500
1.000000 0.757750 0.126500
0.009750 0.816562 0.127250
0.073812 0.816812 0.127250
0.137875 0.817062 0.127250
0.201937 0.817312 0.127250
0.266000 0.817562 0.127250
0.330062 0.817812 0.127250
0.394125 0.818062 0.127250
0.458187 0.818312 0.127250
0.522250 0.818562 0.127250
0.586313 0.818812 0.127250
0.650375 0.819062 0.127250
0.714437 0.819312 0.127250
0.778500 0.819562 0.127250
0.842562 0.819812 0.127250
0.906625 0.820062 0.127250
0.970687 0.820312 0.127250
1.000000 0.820562 0.127250
0.010500 0.879375 0.128000
0.074562 0.879625 0.128000
0.138625 0.879875 0.128000
0.202687 0.880125 0.128000
0.266750 0.880375 0.128000
0.330813 0.880625 0.128000
0.394875 0.880875 0.128000
0.458937 0.881125 0.128000
0.523000 0.881375 0.128000
0.587062 0.881625 0.128000
0.651125 0.881875 0.128000
0.715187 0.882125 0.128000
0.779250 0.882375 0.128000
0.843312 0.882625 0.128000
0.907375 0.882875 0.128000
0.971437 0.883125 0.128000
1.000000 0.883375 0.128000
0.011250 0.942187 0.128750
0.075312 0.942437 0.128750
0.139375 0.942687 0.128750
0.203437 0.942937 0.128750
0.267500 0.943187 0.128750
0.331562 0.943437 0.128750
0.395625 0.943687 0.128750
0.459687 0.943937 0.128750
0.523750 0.944187 0.128750
0.587812 0.944437 0.128750
0.651875 0.944687 0.128750
0.715937 0.944937 0.128750
0.780000 0.945187 0.128750
0.844062 0.945437 0.128750
0.908125 0.945687 0.128750
0.972187 0.945937 0.128750
1.000000 0.946187 0.128750
0.012000 1.000000 0.129500
0.076062 1.000000 0.129500
0.140125 1.000000 0.129500
0.204187 1.000000 0.129500
0.268250 1.000000 0.129500
0.332313 1.000000 0.129500
0.396375 1.000000 0.129500
0.460437 1.000000 0.129500
0.524500 1.000000 0.129500
0.588562 1.000000 0.129500
0.652625 1.000000 0.129500
0.716687 1.000000 0.129500
0.780750 1.000000 0.129500
0.844812 1.000000 0.129500
0.908875 1.000000 0.129500
0.972937 1.000000 0.129500
1.000000 1.000000 0.129500
0.000000 0.000000 0.176250
0.064062 0.000250 0.176250
0.128125 0.000500 0.176250
0.192187 0.000750 0.176250
0.256250 0.001000 0.176250
0.320313 0.001250 0.176250
0.384375 0.001500 0.176250
0.448437 0.001750 0.176250
0.512500 0.002000 0.176250
0.576562 0.002250 0.176250
0.640625 0.002500 0.176250
0.704687 0.002750 0.176250
