tests/fixtures/luts/creative/warm-portrait-17.cube
# Generated for Real Landscape P0 LUT compatibility testing.
# RGB order: red changes fastest, followed by green, then blue.
TITLE "P0 Warm Portrait"
LUT_3D_SIZE 9
DOMAIN_MIN 0.000000 0.000000 0.000000
DOMAIN_MAX 1.000000 1.000000 1.000000
0.000000 0.000000 0.000000
0.128125 0.000500 0.000000
0.256250 0.001000 0.000000
0.384375 0.001500 0.000000
0.512500 0.002000 0.000000
0.640625 0.002500 0.000000
0.768750 0.003000 0.000000
0.896875 0.003500 0.000000
1.000000 0.004000 0.000000
0.001500 0.125625 0.001500
0.129625 0.126125 0.001500
0.257750 0.126625 0.001500
0.385875 0.127125 0.001500
0.514000 0.127625 0.001500
0.642125 0.128125 0.001500
0.770250 0.128625 0.001500
0.898375 0.129125 0.001500
1.000000 0.129625 0.001500
0.003000 0.251250 0.003000
0.131125 0.251750 0.003000
0.259250 0.252250 0.003000
0.387375 0.252750 0.003000
0.515500 0.253250 0.003000
0.643625 0.253750 0.003000
0.771750 0.254250 0.003000
0.899875 0.254750 0.003000
1.000000 0.255250 0.003000
0.004500 0.376875 0.004500
0.132625 0.377375 0.004500
0.260750 0.377875 0.004500
0.388875 0.378375 0.004500
0.517000 0.378875 0.004500
0.645125 0.379375 0.004500
0.773250 0.379875 0.004500
0.901375 0.380375 0.004500
1.000000 0.380875 0.004500
0.006000 0.502500 0.006000
0.134125 0.503000 0.006000
0.262250 0.503500 0.006000
0.390375 0.504000 0.006000
0.518500 0.504500 0.006000
0.646625 0.505000 0.006000
0.774750 0.505500 0.006000
0.902875 0.506000 0.006000
1.000000 0.506500 0.006000
0.007500 0.628125 0.007500
0.135625 0.628625 0.007500
0.263750 0.629125 0.007500
0.391875 0.629625 0.007500
0.520000 0.630125 0.007500
0.648125 0.630625 0.007500
0.776250 0.631125 0.007500
0.904375 0.631625 0.007500
1.000000 0.632125 0.007500
0.009000 0.753750 0.009000
0.137125 0.754250 0.009000
0.265250 0.754750 0.009000
0.393375 0.755250 0.009000
0.521500 0.755750 0.009000
0.649625 0.756250 0.009000
0.777750 0.756750 0.009000
0.905875 0.757250 0.009000
1.000000 0.757750 0.009000
0.010500 0.879375 0.010500
0.138625 0.879875 0.010500
0.266750 0.880375 0.010500
0.394875 0.880875 0.010500
0.523000 0.881375 0.010500
0.651125 0.881875 0.010500
0.779250 0.882375 0.010500
0.907375 0.882875 0.010500
1.000000 0.883375 0.010500
0.012000 1.000000 0.012000
0.140125 1.000000 0.012000
0.268250 1.000000 0.012000
0.396375 1.000000 0.012000
0.524500 1.000000 0.012000
0.652625 1.000000 0.012000
0.780750 1.000000 0.012000
0.908875 1.000000 0.012000
1.000000 1.000000 0.012000
0.000000 0.000000 0.117500
0.128125 0.000500 0.117500
0.256250 0.001000 0.117500
0.384375 0.001500 0.117500
0.512500 0.002000 0.117500
0.640625 0.002500 0.117500
0.768750 0.003000 0.117500
0.896875 0.003500 0.117500
1.000000 0.004000 0.117500
0.001500 0.125625 0.119000
0.129625 0.126125 0.119000
0.257750 0.126625 0.119000
0.385875 0.127125 0.119000
0.514000 0.127625 0.119000
0.642125 0.128125 0.119000
0.770250 0.128625 0.119000
0.898375 0.129125 0.119000
1.000000 0.129625 0.119000
0.003000 0.251250 0.120500
0.131125 0.251750 0.120500
0.259250 0.252250 0.120500
0.387375 0.252750 0.120500
0.515500 0.253250 0.120500
0.643625 0.253750 0.120500
0.771750 0.254250 0.120500
0.899875 0.254750 0.120500
1.000000 0.255250 0.120500
0.004500 0.376875 0.122000
0.132625 0.377375 0.122000
0.260750 0.377875 0.122000
0.388875 0.378375 0.122000
0.517000 0.378875 0.122000
0.645125 0.379375 0.122000
0.773250 0.379875 0.122000
0.901375 0.380375 0.122000
1.000000 0.380875 0.122000
0.006000 0.502500 0.123500
0.134125 0.503000 0.123500
0.262250 0.503500 0.123500
0.390375 0.504000 0.123500
0.518500 0.504500 0.123500
0.646625 0.505000 0.123500
0.774750 0.505500 0.123500
0.902875 0.506000 0.123500
1.000000 0.506500 0.123500
0.007500 0.628125 0.125000
0.135625 0.628625 0.125000
0.263750 0.629125 0.125000
0.391875 0.629625 0.125000
0.520000 0.630125 0.125000
0.648125 0.630625 0.125000
0.776250 0.631125 0.125000
0.904375 0.631625 0.125000
1.000000 0.632125 0.125000
0.009000 0.753750 0.126500
0.137125 0.754250 0.126500
0.265250 0.754750 0.126500
0.393375 0.755250 0.126500
0.521500 0.755750 0.126500
0.649625 0.756250 0.126500
0.777750 0.756750 0.126500
0.905875 0.757250 0.126500
1.000000 0.757750 0.126500
0.010500 0.879375 0.128000
0.138625 0.879875 0.128000
0.266750 0.880375 0.128000
0.394875 0.880875 0.128000
0.523000 0.881375 0.128000
0.651125 0.881875 0.128000
0.779250 0.882375 0.128000
0.907375 0.882875 0.128000
1.000000 0.883375 0.128000
0.012000 1.000000 0.129500
0.140125 1.000000 0.129500
0.268250 1.000000 0.129500
0.396375 1.000000 0.129500
0.524500 1.000000 0.129500
0.652625 1.000000 0.129500
0.780750 1.000000 0.129500
0.908875 1.000000 0.129500
1.000000 1.000000 0.129500
0.000000 0.000000 0.235000
0.128125 0.000500 0.235000
0.256250 0.001000 0.235000
0.384375 0.001500 0.235000
0.512500 0.002000 0.235000
0.640625 0.002500 0.235000
0.768750 0.003000 0.235000
0.896875 0.003500 0.235000
1.000000 0.004000 0.235000
0.001500 0.125625 0.236500
0.129625 0.126125 0.236500
0.257750 0.126625 0.236500
0.385875 0.127125 0.236500
0.514000 0.127625 0.236500
0.642125 0.128125 0.236500
0.770250 0.128625 0.236500
0.898375 0.129125 0.236500
1.000000 0.129625 0.236500
0.003000 0.251250 0.238000
0.131125 0.251750 0.238000
0.259250 0.252250 0.238000
0.387375 0.252750 0.238000
0.515500 0.253250 0.238000
0.643625 0.253750 0.238000
0.771750 0.254250 0.238000
0.899875 0.254750 0.238000
1.000000 0.255250 0.238000
0.004500 0.376875 0.239500
0.132625 0.377375 0.239500
0.260750 0.377875 0.239500
0.388875 0.378375 0.239500
0.517000 0.378875 0.239500
0.645125 0.379375 0.239500
0.773250 0.379875 0.239500
0.901375 0.380375 0.239500
1.000000 0.380875 0.239500
0.006000 0.502500 0.241000
0.134125 0.503000 0.241000
0.262250 0.503500 0.241000
0.390375 0.504000 0.241000
0.518500 0.504500 0.241000
0.646625 0.505000 0.241000
0.774750 0.505500 0.241000
0.902875 0.506000 0.241000
1.000000 0.506500 0.241000
0.007500 0.628125 0.242500
0.135625 0.628625 0.242500
0.263750 0.629125 0.242500
0.391875 0.629625 0.242500
0.520000 0.630125 0.242500
0.648125 0.630625 0.242500
0.776250 0.631125 0.242500
0.904375 0.631625 0.242500
1.000000 0.632125 0.242500
0.009000 0.753750 0.244000
0.137125 0.754250 0.244000
0.265250 0.754750 0.244000
0.393375 0.755250 0.244000
0.521500 0.755750 0.244000
0.649625 0.756250 0.244000
0.777750 0.756750 0.244000
0.905875 0.757250 0.244000
1.000000 0.757750 0.244000
0.010500 0.879375 0.245500
0.138625 0.879875 0.245500
0.266750 0.880375 0.245500
0.394875 0.880875 0.245500
0.523000 0.881375 0.245500
0.651125 0.881875 0.245500
0.779250 0.882375 0.245500
0.907375 0.882875 0.245500
1.000000 0.883375 0.245500
0.012000 1.000000 0.247000
0.140125 1.000000 0.247000
0.268250 1.000000 0.247000
0.396375 1.000000 0.247000
0.524500 1.000000 0.247000
0.652625 1.000000 0.247000
0.780750 1.000000 0.247000
0.908875 1.000000 0.247000
1.000000 1.000000 0.247000
0.000000 0.000000 0.352500
0.128125 0.000500 0.352500
0.256250 0.001000 0.352500
0.384375 0.001500 0.352500
0.512500 0.002000 0.352500
0.640625 0.002500 0.352500
0.768750 0.003000 0.352500
0.896875 0.003500 0.352500
1.000000 0.004000 0.352500
0.001500 0.125625 0.354000
0.129625 0.126125 0.354000
0.257750 0.126625 0.354000
0.385875 0.127125 0.354000
0.514000 0.127625 0.354000
0.642125 0.128125 0.354000
0.770250 0.128625 0.354000
0.898375 0.129125 0.354000
1.000000 0.129625 0.354000
0.003000 0.251250 0.355500
0.131125 0.251750 0.355500
0.259250 0.252250 0.355500
0.387375 0.252750 0.355500
0.515500 0.253250 0.355500
0.643625 0.253750 0.355500
0.771750 0.254250 0.355500
0.899875 0.254750 0.355500
1.000000 0.255250 0.355500
0.004500 0.376875 0.357000
0.132625 0.377375 0.357000
0.260750 0.377875 0.357000
0.388875 0.378375 0.357000
0.517000 0.378875 0.357000
0.645125 0.379375 0.357000
0.773250 0.379875 0.357000
0.901375 0.380375 0.357000
1.000000 0.380875 0.357000
0.006000 0.502500 0.358500
0.134125 0.503000 0.358500
0.262250 0.503500 0.358500
0.390375 0.504000 0.358500
0.518500 0.504500 0.358500
0.646625 0.505000 0.358500
0.774750 0.505500 0.358500
0.902875 0.506000 0.358500
1.000000 0.506500 0.358500
0.007500 0.628125 0.360000
0.135625 0.628625 0.360000
0.263750 0.629125 0.360000
0.391875 0.629625 0.360000
0.520000 0.630125 0.360000
0.648125 0.630625 0.360000
0.776250 0.631125 0.360000
0.904375 0.631625 0.360000
1.000000 0.632125 0.360000
0.009000 0.753750 0.361500
0.137125 0.754250 0.361500
0.265250 0.754750 0.361500
0.393375 0.755250 0.361500
0.521500 0.755750 0.361500
0.649625 0.756250 0.361500
0.777750 0.756750 0.361500
0.905875 0.757250 0.361500
1.000000 0.757750 0.361500
0.010500 0.879375 0.363000
0.138625 0.879875 0.363000
0.266750 0.880375 0.363000
0.394875 0.880875 0.363000
0.523000 0.881375 0.363000
0.651125 0.881875 0.363000
0.779250 0.882375 0.363000
0.907375 0.882875 0.363000
1.000000 0.883375 0.363000
0.012000 1.000000 0.364500
0.140125 1.000000 0.364500
0.268250 1.000000 0.364500
0.396375 1.000000 0.364500
0.524500 1.000000 0.364500
0.652625 1.000000 0.364500
0.780750 1.000000 0.364500
0.908875 1.000000 0.364500
1.000000 1.000000 0.364500
0.000000 0.000000 0.470000
0.128125 0.000500 0.470000
0.256250 0.001000 0.470000
0.384375 0.001500 0.470000
0.512500 0.002000 0.470000
0.640625 0.002500 0.470000
0.768750 0.003000 0.470000
0.896875 0.003500 0.470000
1.000000 0.004000 0.470000
0.001500 0.125625 0.471500
0.129625 0.126125 0.471500
0.257750 0.126625 0.471500
0.385875 0.127125 0.471500
0.514000 0.127625 0.471500
0.642125 0.128125 0.471500
0.770250 0.128625 0.471500
0.898375 0.129125 0.471500
1.000000 0.129625 0.471500
0.003000 0.251250 0.473000
0.131125 0.251750 0.473000
0.259250 0.252250 0.473000
0.387375 0.252750 0.473000
0.515500 0.253250 0.473000
0.643625 0.253750 0.473000
0.771750 0.254250 0.473000
0.899875 0.254750 0.473000
1.000000 0.255250 0.473000
0.004500 0.376875 0.474500
0.132625 0.377375 0.474500
0.260750 0.377875 0.474500
0.388875 0.378375 0.474500
0.517000 0.378875 0.474500
0.645125 0.379375 0.474500
0.773250 0.379875 0.474500
0.901375 0.380375 0.474500
1.000000 0.380875 0.474500
0.006000 0.502500 0.476000
0.134125 0.503000 0.476000
0.262250 0.503500 0.476000
0.390375 0.504000 0.476000
0.518500 0.504500 0.476000
0.646625 0.505000 0.476000
0.774750 0.505500 0.476000
0.902875 0.506000 0.476000
1.000000 0.506500 0.476000
0.007500 0.628125 0.477500
0.135625 0.628625 0.477500
0.263750 0.629125 0.477500
0.391875 0.629625 0.477500
0.520000 0.630125 0.477500
0.648125 0.630625 0.477500
0.776250 0.631125 0.477500
0.904375 0.631625 0.477500
1.000000 0.632125 0.477500
0.009000 0.753750 0.479000
0.137125 0.754250 0.479000
0.265250 0.754750 0.479000
0.393375 0.755250 0.479000
0.521500 0.755750 0.479000
0.649625 0.756250 0.479000
0.777750 0.756750 0.479000
0.905875 0.757250 0.479000
1.000000 0.757750 0.479000
0.010500 0.879375 0.480500
0.138625 0.879875 0.480500
0.266750 0.880375 0.480500
0.394875 0.880875 0.480500
0.523000 0.881375 0.480500
0.651125 0.881875 0.480500
0.779250 0.882375 0.480500
0.907375 0.882875 0.480500
1.000000 0.883375 0.480500
0.012000 1.000000 0.482000
0.140125 1.000000 0.482000
0.268250 1.000000 0.482000
0.396375 1.000000 0.482000
0.524500 1.000000 0.482000
0.652625 1.000000 0.482000
0.780750 1.000000 0.482000
0.908875 1.000000 0.482000
1.000000 1.000000 0.482000
0.000000 0.000000 0.587500
0.128125 0.000500 0.587500
0.256250 0.001000 0.587500
0.384375 0.001500 0.587500
0.512500 0.002000 0.587500
0.640625 0.002500 0.587500
0.768750 0.003000 0.587500
0.896875 0.003500 0.587500
1.000000 0.004000 0.587500
0.001500 0.125625 0.589000
0.129625 0.126125 0.589000
0.257750 0.126625 0.589000
0.385875 0.127125 0.589000
0.514000 0.127625 0.589000
0.642125 0.128125 0.589000
0.770250 0.128625 0.589000
0.898375 0.129125 0.589000
1.000000 0.129625 0.589000
0.003000 0.251250 0.590500
0.131125 0.251750 0.590500
0.259250 0.252250 0.590500
0.387375 0.252750 0.590500
0.515500 0.253250 0.590500
0.643625 0.253750 0.590500
0.771750 0.254250 0.590500
0.899875 0.254750 0.590500
1.000000 0.255250 0.590500
0.004500 0.376875 0.592000
0.132625 0.377375 0.592000
0.260750 0.377875 0.592000
0.388875 0.378375 0.592000
0.517000 0.378875 0.592000
0.645125 0.379375 0.592000
0.773250 0.379875 0.592000
0.901375 0.380375 0.592000
1.000000 0.380875 0.592000
0.006000 0.502500 0.593500
0.134125 0.503000 0.593500
0.262250 0.503500 0.593500
0.390375 0.504000 0.593500
0.518500 0.504500 0.593500
0.646625 0.505000 0.593500
0.774750 0.505500 0.593500
0.902875 0.506000 0.593500
1.000000 0.506500 0.593500
0.007500 0.628125 0.595000
0.135625 0.628625 0.595000
0.263750 0.629125 0.595000
0.391875 0.629625 0.595000
0.520000 0.630125 0.595000
0.648125 0.630625 0.595000
0.776250 0.631125 0.595000
0.904375 0.631625 0.595000
1.000000 0.632125 0.595000
0.009000 0.753750 0.596500
0.137125 0.754250 0.596500
0.265250 0.754750 0.596500
0.393375 0.755250 0.596500
0.521500 0.755750 0.596500
0.649625 0.756250 0.596500
0.777750 0.756750 0.596500
0.905875 0.757250 0.596500
1.000000 0.757750 0.596500
0.010500 0.879375 0.598000
0.138625 0.879875 0.598000
0.266750 0.880375 0.598000
0.394875 0.880875 0.598000
0.523000 0.881375 0.598000
0.651125 0.881875 0.598000
0.779250 0.882375 0.598000
0.907375 0.882875 0.598000
1.000000 0.883375 0.598000
0.012000 1.000000 0.599500
0.140125 1.000000 0.599500
0.268250 1.000000 0.599500
0.396375 1.000000 0.599500
0.524500 1.000000 0.599500
0.652625 1.000000 0.599500
0.780750 1.000000 0.599500
0.908875 1.000000 0.599500
1.000000 1.000000 0.599500
0.000000 0.000000 0.705000
0.128125 0.000500 0.705000
0.256250 0.001000 0.705000
0.384375 0.001500 0.705000
0.512500 0.002000 0.705000
0.640625 0.002500 0.705000
0.768750 0.003000 0.705000
0.896875 0.003500 0.705000
1.000000 0.004000 0.705000
0.001500 0.125625 0.706500
0.129625 0.126125 0.706500
0.257750 0.126625 0.706500
0.385875 0.127125 0.706500
0.514000 0.127625 0.706500
0.642125 0.128125 0.706500
0.770250 0.128625 0.706500
0.898375 0.129125 0.706500
1.000000 0.129625 0.706500
0.003000 0.251250 0.708000
0.131125 0.251750 0.708000
0.259250 0.252250 0.708000
0.387375 0.252750 0.708000
0.515500 0.253250 0.708000
0.643625 0.253750 0.708000
0.771750 0.254250 0.708000
0.899875 0.254750 0.708000
1.000000 0.255250 0.708000
0.004500 0.376875 0.709500
0.132625 0.377375 0.709500
0.260750 0.377875 0.709500
0.388875 0.378375 0.709500
0.517000 0.378875 0.709500
0.645125 0.379375 0.709500
0.773250 0.379875 0.709500
0.901375 0.380375 0.709500
1.000000 0.380875 0.709500
0.006000 0.502500 0.711000
0.134125 0.503000 0.711000
0.262250 0.503500 0.711000
0.390375 0.504000 0.711000
0.518500 0.504500 0.711000
0.646625 0.505000 0.711000
0.774750 0.505500 0.711000
0.902875 0.506000 0.711000
1.000000 0.506500 0.711000
0.007500 0.628125 0.712500
0.135625 0.628625 0.712500
0.263750 0.629125 0.712500
0.391875 0.629625 0.712500
0.520000 0.630125 0.712500
0.648125 0.630625 0.712500
0.776250 0.631125 0.712500
0.904375 0.631625 0.712500
1.000000 0.632125 0.712500
0.009000 0.753750 0.714000
0.137125 0.754250 0.714000
0.265250 0.754750 0.714000
0.393375 0.755250 0.714000
0.521500 0.755750 0.714000
0.649625 0.756250 0.714000
0.777750 0.756750 0.714000
0.905875 0.757250 0.714000
1.000000 0.757750 0.714000
0.010500 0.879375 0.715500
0.138625 0.879875 0.715500
0.266750 0.880375 0.715500
0.394875 0.880875 0.715500
0.523000 0.881375 0.715500
0.651125 0.881875 0.715500
0.779250 0.882375 0.715500
0.907375 0.882875 0.715500
1.000000 0.883375 0.715500
0.012000 1.000000 0.717000
0.140125 1.000000 0.717000
0.268250 1.000000 0.717000
0.396375 1.000000 0.717000
0.524500 1.000000 0.717000
0.652625 1.000000 0.717000
0.780750 1.000000 0.717000
0.908875 1.000000 0.717000
1.000000 1.000000 0.717000
0.000000 0.000000 0.822500
0.128125 0.000500 0.822500
0.256250 0.001000 0.822500
0.384375 0.001500 0.822500
0.512500 0.002000 0.822500
0.640625 0.002500 0.822500
0.768750 0.003000 0.822500
0.896875 0.003500 0.822500
1.000000 0.004000 0.822500
0.001500 0.125625 0.824000
0.129625 0.126125 0.824000
0.257750 0.126625 0.824000
0.385875 0.127125 0.824000
0.514000 0.127625 0.824000
0.642125 0.128125 0.824000
0.770250 0.128625 0.824000
0.898375 0.129125 0.824000
1.000000 0.129625 0.824000
0.003000 0.251250 0.825500
0.131125 0.251750 0.825500
0.259250 0.252250 0.825500
0.387375 0.252750 0.825500
0.515500 0.253250 0.825500
0.643625 0.253750 0.825500
0.771750 0.254250 0.825500
0.899875 0.254750 0.825500
1.000000 0.255250 0.825500
0.004500 0.376875 0.827000
0.132625 0.377375 0.827000
0.260750 0.377875 0.827000
0.388875 0.378375 0.827000
0.517000 0.378875 0.827000
0.645125 0.379375 0.827000
0.773250 0.379875 0.827000
0.901375 0.380375 0.827000
1.000000 0.380875 0.827000
0.006000 0.502500 0.828500
0.134125 0.503000 0.828500
0.262250 0.503500 0.828500
0.390375 0.504000 0.828500
0.518500 0.504500 0.828500
0.646625 0.505000 0.828500
0.774750 0.505500 0.828500
0.902875 0.506000 0.828500
1.000000 0.506500 0.828500
0.007500 0.628125 0.830000
0.135625 0.628625 0.830000
0.263750 0.629125 0.830000
0.391875 0.629625 0.830000
0.520000 0.630125 0.830000
0.648125 0.630625 0.830000
0.776250 0.631125 0.830000
0.904375 0.631625 0.830000
1.000000 0.632125 0.830000
0.009000 0.753750 0.831500
0.137125 0.754250 0.831500
0.265250 0.754750 0.831500
0.393375 0.755250 0.831500
0.521500 0.755750 0.831500
0.649625 0.756250 0.831500
0.777750 0.756750 0.831500
0.905875 0.757250 0.831500
1.000000 0.757750 0.831500
0.010500 0.879375 0.833000
0.138625 0.879875 0.833000
0.266750 0.880375 0.833000
0.394875 0.880875 0.833000
0.523000 0.881375 0.833000
0.651125 0.881875 0.833000
0.779250 0.882375 0.833000
0.907375 0.882875 0.833000
1.000000 0.883375 0.833000
0.012000 1.000000 0.834500
0.140125 1.000000 0.834500
0.268250 1.000000 0.834500
0.396375 1.000000 0.834500
0.524500 1.000000 0.834500
0.652625 1.000000 0.834500
0.780750 1.000000 0.834500
0.908875 1.000000 0.834500
1.000000 1.000000 0.834500
0.000000 0.000000 0.940000
0.128125 0.000500 0.940000
0.256250 0.001000 0.940000
0.384375 0.001500 0.940000
0.512500 0.002000 0.940000
0.640625 0.002500 0.940000
0.768750 0.003000 0.940000
0.896875 0.003500 0.940000
1.000000 0.004000 0.940000
0.001500 0.125625 0.941500
0.129625 0.126125 0.941500
0.257750 0.126625 0.941500
0.385875 0.127125 0.941500
0.514000 0.127625 0.941500
0.642125 0.128125 0.941500
0.770250 0.128625 0.941500
0.898375 0.129125 0.941500
1.000000 0.129625 0.941500
0.003000 0.251250 0.943000
0.131125 0.251750 0.943000
0.259250 0.252250 0.943000
0.387375 0.252750 0.943000
0.515500 0.253250 0.943000
0.643625 0.253750 0.943000
0.771750 0.254250 0.943000
0.899875 0.254750 0.943000
1.000000 0.255250 0.943000
0.004500 0.376875 0.944500
0.132625 0.377375 0.944500
0.260750 0.377875 0.944500
0.388875 0.378375 0.944500
0.517000 0.378875 0.944500
0.645125 0.379375 0.944500
0.773250 0.379875 0.944500
0.901375 0.380375 0.944500
1.000000 0.380875 0.944500
0.006000 0.502500 0.946000
0.134125 0.503000 0.946000
0.262250 0.503500 0.946000
0.390375 0.504000 0.946000
0.518500 0.504500 0.946000
0.646625 0.505000 0.946000
0.774750 0.505500 0.946000
0.902875 0.506000 0.946000
1.000000 0.506500 0.946000
0.007500 0.628125 0.947500
0.135625 0.628625 0.947500
0.263750 0.629125 0.947500
0.391875 0.629625 0.947500
0.520000 0.630125 0.947500
0.648125 0.630625 0.947500
0.776250 0.631125 0.947500
0.904375 0.631625 0.947500
1.000000 0.632125 0.947500
0.009000 0.753750 0.949000
0.137125 0.754250 0.949000
0.265250 0.754750 0.949000
0.393375 0.755250 0.949000
0.521500 0.755750 0.949000
0.649625 0.756250 0.949000
0.777750 0.756750 0.949000
0.905875 0.757250 0.949000
1.000000 0.757750 0.949000
0.010500 0.879375 0.950500
0.138625 0.879875 0.950500
0.266750 0.880375 0.950500
0.394875 0.880875 0.950500
0.523000 0.881375 0.950500
0.651125 0.881875 0.950500
0.779250 0.882375 0.950500
0.907375 0.882875 0.950500
1.000000 0.883375 0.950500
0.012000 1.000000 0.952000
0.140125 1.000000 0.952000
0.268250 1.000000 0.952000
0.396375 1.000000 0.952000
0.524500 1.000000 0.952000
0.652625 1.000000 0.952000
0.780750 1.000000 0.952000
0.908875 1.000000 0.952000
1.000000 1.000000 0.952000
