assets/color-grade/p2-builtin-filters/clear-landscape.cube
# Real Landscape P2 self-developed content. Do not label as an official or original brand LUT.
# License: project-owned content, redistribution permitted with this notice.
TITLE "清澈风景"
# Internal ID: clear-landscape
LUT_3D_SIZE 17
DOMAIN_MIN 0.0 0.0 0.0
DOMAIN_MAX 1.0 1.0 1.0
0.0000000 0.0000000 0.0040000
0.0609375 0.0000000 0.0040000
0.1218750 0.0000000 0.0040000
0.1828125 0.0000000 0.0040000
0.2437500 0.0000000 0.0040000
0.3046875 0.0000000 0.0040000
0.3656250 0.0000000 0.0040000
0.4265625 0.0000000 0.0040000
0.4875000 0.0000000 0.0040000
0.5484375 0.0000000 0.0040000
0.6093750 0.0000000 0.0040000
0.6703125 0.0000000 0.0040000
0.7312500 0.0000000 0.0040000
0.7921875 0.0000000 0.0040000
0.8531250 0.0000000 0.0040000
0.9140625 0.0000000 0.0040000
0.9750000 0.0000000 0.0040000
0.0005000 0.0653125 0.0045000
0.0614375 0.0653125 0.0045000
0.1223750 0.0653125 0.0045000
0.1833125 0.0653125 0.0045000
0.2442500 0.0653125 0.0045000
0.3051875 0.0653125 0.0045000
0.3661250 0.0653125 0.0045000
0.4270625 0.0653125 0.0045000
0.4880000 0.0653125 0.0045000
0.5489375 0.0653125 0.0045000
0.6098750 0.0653125 0.0045000
0.6708125 0.0653125 0.0045000
0.7317500 0.0653125 0.0045000
0.7926875 0.0653125 0.0045000
0.8536250 0.0653125 0.0045000
0.9145625 0.0653125 0.0045000
0.9755000 0.0653125 0.0045000
0.0010000 0.1306250 0.0050000
0.0619375 0.1306250 0.0050000
0.1228750 0.1306250 0.0050000
0.1838125 0.1306250 0.0050000
0.2447500 0.1306250 0.0050000
0.3056875 0.1306250 0.0050000
0.3666250 0.1306250 0.0050000
0.4275625 0.1306250 0.0050000
0.4885000 0.1306250 0.0050000
0.5494375 0.1306250 0.0050000
0.6103750 0.1306250 0.0050000
0.6713125 0.1306250 0.0050000
0.7322500 0.1306250 0.0050000
0.7931875 0.1306250 0.0050000
0.8541250 0.1306250 0.0050000
0.9150625 0.1306250 0.0050000
0.9760000 0.1306250 0.0050000
0.0015000 0.1959375 0.0055000
0.0624375 0.1959375 0.0055000
0.1233750 0.1959375 0.0055000
0.1843125 0.1959375 0.0055000
0.2452500 0.1959375 0.0055000
0.3061875 0.1959375 0.0055000
0.3671250 0.1959375 0.0055000
0.4280625 0.1959375 0.0055000
0.4890000 0.1959375 0.0055000
0.5499375 0.1959375 0.0055000
0.6108750 0.1959375 0.0055000
0.6718125 0.1959375 0.0055000
0.7327500 0.1959375 0.0055000
0.7936875 0.1959375 0.0055000
0.8546250 0.1959375 0.0055000
0.9155625 0.1959375 0.0055000
0.9765000 0.1959375 0.0055000
0.0020000 0.2612500 0.0060000
0.0629375 0.2612500 0.0060000
0.1238750 0.2612500 0.0060000
0.1848125 0.2612500 0.0060000
0.2457500 0.2612500 0.0060000
0.3066875 0.2612500 0.0060000
0.3676250 0.2612500 0.0060000
0.4285625 0.2612500 0.0060000
0.4895000 0.2612500 0.0060000
0.5504375 0.2612500 0.0060000
0.6113750 0.2612500 0.0060000
0.6723125 0.2612500 0.0060000
0.7332500 0.2612500 0.0060000
0.7941875 0.2612500 0.0060000
0.8551250 0.2612500 0.0060000
0.9160625 0.2612500 0.0060000
0.9770000 0.2612500 0.0060000
0.0025000 0.3265625 0.0065000
0.0634375 0.3265625 0.0065000
0.1243750 0.3265625 0.0065000
0.1853125 0.3265625 0.0065000
0.2462500 0.3265625 0.0065000
0.3071875 0.3265625 0.0065000
0.3681250 0.3265625 0.0065000
0.4290625 0.3265625 0.0065000
0.4900000 0.3265625 0.0065000
0.5509375 0.3265625 0.0065000
0.6118750 0.3265625 0.0065000
0.6728125 0.3265625 0.0065000
0.7337500 0.3265625 0.0065000
0.7946875 0.3265625 0.0065000
0.8556250 0.3265625 0.0065000
0.9165625 0.3265625 0.0065000
0.9775000 0.3265625 0.0065000
0.0030000 0.3918750 0.0070000
0.0639375 0.3918750 0.0070000
0.1248750 0.3918750 0.0070000
0.1858125 0.3918750 0.0070000
0.2467500 0.3918750 0.0070000
0.3076875 0.3918750 0.0070000
0.3686250 0.3918750 0.0070000
0.4295625 0.3918750 0.0070000
0.4905000 0.3918750 0.0070000
0.5514375 0.3918750 0.0070000
0.6123750 0.3918750 0.0070000
0.6733125 0.3918750 0.0070000
0.7342500 0.3918750 0.0070000
0.7951875 0.3918750 0.0070000
0.8561250 0.3918750 0.0070000
0.9170625 0.3918750 0.0070000
0.9780000 0.3918750 0.0070000
0.0035000 0.4571875 0.0075000
0.0644375 0.4571875 0.0075000
0.1253750 0.4571875 0.0075000
0.1863125 0.4571875 0.0075000
0.2472500 0.4571875 0.0075000
0.3081875 0.4571875 0.0075000
0.3691250 0.4571875 0.0075000
0.4300625 0.4571875 0.0075000
0.4910000 0.4571875 0.0075000
0.5519375 0.4571875 0.0075000
0.6128750 0.4571875 0.0075000
0.6738125 0.4571875 0.0075000
0.7347500 0.4571875 0.0075000
0.7956875 0.4571875 0.0075000
0.8566250 0.4571875 0.0075000
0.9175625 0.4571875 0.0075000
0.9785000 0.4571875 0.0075000
0.0040000 0.5225000 0.0080000
0.0649375 0.5225000 0.0080000
0.1258750 0.5225000 0.0080000
0.1868125 0.5225000 0.0080000
0.2477500 0.5225000 0.0080000
0.3086875 0.5225000 0.0080000
0.3696250 0.5225000 0.0080000
0.4305625 0.5225000 0.0080000
0.4915000 0.5225000 0.0080000
0.5524375 0.5225000 0.0080000
0.6133750 0.5225000 0.0080000
0.6743125 0.5225000 0.0080000
0.7352500 0.5225000 0.0080000
0.7961875 0.5225000 0.0080000
0.8571250 0.5225000 0.0080000
0.9180625 0.5225000 0.0080000
0.9790000 0.5225000 0.0080000
0.0045000 0.5878125 0.0085000
0.0654375 0.5878125 0.0085000
0.1263750 0.5878125 0.0085000
0.1873125 0.5878125 0.0085000
0.2482500 0.5878125 0.0085000
0.3091875 0.5878125 0.0085000
0.3701250 0.5878125 0.0085000
0.4310625 0.5878125 0.0085000
0.4920000 0.5878125 0.0085000
0.5529375 0.5878125 0.0085000
0.6138750 0.5878125 0.0085000
0.6748125 0.5878125 0.0085000
0.7357500 0.5878125 0.0085000
0.7966875 0.5878125 0.0085000
0.8576250 0.5878125 0.0085000
0.9185625 0.5878125 0.0085000
0.9795000 0.5878125 0.0085000
0.0050000 0.6531250 0.0090000
0.0659375 0.6531250 0.0090000
0.1268750 0.6531250 0.0090000
0.1878125 0.6531250 0.0090000
0.2487500 0.6531250 0.0090000
0.3096875 0.6531250 0.0090000
0.3706250 0.6531250 0.0090000
0.4315625 0.6531250 0.0090000
0.4925000 0.6531250 0.0090000
0.5534375 0.6531250 0.0090000
0.6143750 0.6531250 0.0090000
0.6753125 0.6531250 0.0090000
0.7362500 0.6531250 0.0090000
0.7971875 0.6531250 0.0090000
0.8581250 0.6531250 0.0090000
0.9190625 0.6531250 0.0090000
0.9800000 0.6531250 0.0090000
0.0055000 0.7184375 0.0095000
0.0664375 0.7184375 0.0095000
0.1273750 0.7184375 0.0095000
0.1883125 0.7184375 0.0095000
0.2492500 0.7184375 0.0095000
0.3101875 0.7184375 0.0095000
0.3711250 0.7184375 0.0095000
0.4320625 0.7184375 0.0095000
0.4930000 0.7184375 0.0095000
0.5539375 0.7184375 0.0095000
0.6148750 0.7184375 0.0095000
0.6758125 0.7184375 0.0095000
0.7367500 0.7184375 0.0095000
0.7976875 0.7184375 0.0095000
0.8586250 0.7184375 0.0095000
0.9195625 0.7184375 0.0095000
0.9805000 0.7184375 0.0095000
0.0060000 0.7837500 0.0100000
0.0669375 0.7837500 0.0100000
0.1278750 0.7837500 0.0100000
0.1888125 0.7837500 0.0100000
0.2497500 0.7837500 0.0100000
0.3106875 0.7837500 0.0100000
0.3716250 0.7837500 0.0100000
0.4325625 0.7837500 0.0100000
0.4935000 0.7837500 0.0100000
0.5544375 0.7837500 0.0100000
0.6153750 0.7837500 0.0100000
0.6763125 0.7837500 0.0100000
0.7372500 0.7837500 0.0100000
0.7981875 0.7837500 0.0100000
0.8591250 0.7837500 0.0100000
0.9200625 0.7837500 0.0100000
0.9810000 0.7837500 0.0100000
0.0065000 0.8490625 0.0105000
0.0674375 0.8490625 0.0105000
0.1283750 0.8490625 0.0105000
0.1893125 0.8490625 0.0105000
0.2502500 0.8490625 0.0105000
0.3111875 0.8490625 0.0105000
0.3721250 0.8490625 0.0105000
0.4330625 0.8490625 0.0105000
0.4940000 0.8490625 0.0105000
0.5549375 0.8490625 0.0105000
0.6158750 0.8490625 0.0105000
0.6768125 0.8490625 0.0105000
0.7377500 0.8490625 0.0105000
0.7986875 0.8490625 0.0105000
0.8596250 0.8490625 0.0105000
0.9205625 0.8490625 0.0105000
0.9815000 0.8490625 0.0105000
0.0070000 0.9143750 0.0110000
0.0679375 0.9143750 0.0110000
0.1288750 0.9143750 0.0110000
0.1898125 0.9143750 0.0110000
0.2507500 0.9143750 0.0110000
0.3116875 0.9143750 0.0110000
0.3726250 0.9143750 0.0110000
0.4335625 0.9143750 0.0110000
0.4945000 0.9143750 0.0110000
0.5554375 0.9143750 0.0110000
0.6163750 0.9143750 0.0110000
0.6773125 0.9143750 0.0110000
0.7382500 0.9143750 0.0110000
0.7991875 0.9143750 0.0110000
0.8601250 0.9143750 0.0110000
0.9210625 0.9143750 0.0110000
0.9820000 0.9143750 0.0110000
0.0075000 0.9796875 0.0115000
0.0684375 0.9796875 0.0115000
0.1293750 0.9796875 0.0115000
0.1903125 0.9796875 0.0115000
0.2512500 0.9796875 0.0115000
0.3121875 0.9796875 0.0115000
0.3731250 0.9796875 0.0115000
0.4340625 0.9796875 0.0115000
0.4950000 0.9796875 0.0115000
0.5559375 0.9796875 0.0115000
0.6168750 0.9796875 0.0115000
0.6778125 0.9796875 0.0115000
0.7387500 0.9796875 0.0115000
0.7996875 0.9796875 0.0115000
0.8606250 0.9796875 0.0115000
0.9215625 0.9796875 0.0115000
0.9825000 0.9796875 0.0115000
0.0080000 1.0000000 0.0120000
0.0689375 1.0000000 0.0120000
0.1298750 1.0000000 0.0120000
0.1908125 1.0000000 0.0120000
0.2517500 1.0000000 0.0120000
0.3126875 1.0000000 0.0120000
0.3736250 1.0000000 0.0120000
0.4345625 1.0000000 0.0120000
0.4955000 1.0000000 0.0120000
0.5564375 1.0000000 0.0120000
0.6173750 1.0000000 0.0120000
0.6783125 1.0000000 0.0120000
0.7392500 1.0000000 0.0120000
0.8001875 1.0000000 0.0120000
0.8611250 1.0000000 0.0120000
0.9220625 1.0000000 0.0120000
0.9830000 1.0000000 0.0120000
0.0000000 0.0007500 0.0690000
0.0609375 0.0007500 0.0690000
0.1218750 0.0007500 0.0690000
0.1828125 0.0007500 0.0690000
0.2437500 0.0007500 0.0690000
0.3046875 0.0007500 0.0690000
0.3656250 0.0007500 0.0690000
0.4265625 0.0007500 0.0690000
0.4875000 0.0007500 0.0690000
0.5484375 0.0007500 0.0690000
0.6093750 0.0007500 0.0690000
0.6703125 0.0007500 0.0690000
0.7312500 0.0007500 0.0690000
0.7921875 0.0007500 0.0690000
0.8531250 0.0007500 0.0690000
0.9140625 0.0007500 0.0690000
0.9750000 0.0007500 0.0690000
0.0005000 0.0660625 0.0695000
0.0614375 0.0660625 0.0695000
0.1223750 0.0660625 0.0695000
0.1833125 0.0660625 0.0695000
0.2442500 0.0660625 0.0695000
0.3051875 0.0660625 0.0695000
0.3661250 0.0660625 0.0695000
0.4270625 0.0660625 0.0695000
0.4880000 0.0660625 0.0695000
0.5489375 0.0660625 0.0695000
0.6098750 0.0660625 0.0695000
0.6708125 0.0660625 0.0695000
0.7317500 0.0660625 0.0695000
0.7926875 0.0660625 0.0695000
0.8536250 0.0660625 0.0695000
0.9145625 0.0660625 0.0695000
0.9755000 0.0660625 0.0695000
0.0010000 0.1313750 0.0700000
0.0619375 0.1313750 0.0700000
0.1228750 0.1313750 0.0700000
0.1838125 0.1313750 0.0700000
0.2447500 0.1313750 0.0700000
0.3056875 0.1313750 0.0700000
0.3666250 0.1313750 0.0700000
0.4275625 0.1313750 0.0700000
0.4885000 0.1313750 0.0700000
0.5494375 0.1313750 0.0700000
0.6103750 0.1313750 0.0700000
0.6713125 0.1313750 0.0700000
0.7322500 0.1313750 0.0700000
0.7931875 0.1313750 0.0700000
0.8541250 0.1313750 0.0700000
0.9150625 0.1313750 0.0700000
0.9760000 0.1313750 0.0700000
0.0015000 0.1966875 0.0705000
0.0624375 0.1966875 0.0705000
0.1233750 0.1966875 0.0705000
0.1843125 0.1966875 0.0705000
0.2452500 0.1966875 0.0705000
0.3061875 0.1966875 0.0705000
0.3671250 0.1966875 0.0705000
0.4280625 0.1966875 0.0705000
0.4890000 0.1966875 0.0705000
0.5499375 0.1966875 0.0705000
0.6108750 0.1966875 0.0705000
0.6718125 0.1966875 0.0705000
0.7327500 0.1966875 0.0705000
0.7936875 0.1966875 0.0705000
0.8546250 0.1966875 0.0705000
0.9155625 0.1966875 0.0705000
0.9765000 0.1966875 0.0705000
0.0020000 0.2620000 0.0710000
0.0629375 0.2620000 0.0710000
0.1238750 0.2620000 0.0710000
0.1848125 0.2620000 0.0710000
0.2457500 0.2620000 0.0710000
0.3066875 0.2620000 0.0710000
0.3676250 0.2620000 0.0710000
0.4285625 0.2620000 0.0710000
0.4895000 0.2620000 0.0710000
0.5504375 0.2620000 0.0710000
0.6113750 0.2620000 0.0710000
0.6723125 0.2620000 0.0710000
0.7332500 0.2620000 0.0710000
0.7941875 0.2620000 0.0710000
0.8551250 0.2620000 0.0710000
0.9160625 0.2620000 0.0710000
0.9770000 0.2620000 0.0710000
0.0025000 0.3273125 0.0715000
0.0634375 0.3273125 0.0715000
0.1243750 0.3273125 0.0715000
0.1853125 0.3273125 0.0715000
0.2462500 0.3273125 0.0715000
0.3071875 0.3273125 0.0715000
0.3681250 0.3273125 0.0715000
0.4290625 0.3273125 0.0715000
0.4900000 0.3273125 0.0715000
0.5509375 0.3273125 0.0715000
0.6118750 0.3273125 0.0715000
0.6728125 0.3273125 0.0715000
0.7337500 0.3273125 0.0715000
0.7946875 0.3273125 0.0715000
0.8556250 0.3273125 0.0715000
0.9165625 0.3273125 0.0715000
0.9775000 0.3273125 0.0715000
0.0030000 0.3926250 0.0720000
0.0639375 0.3926250 0.0720000
0.1248750 0.3926250 0.0720000
0.1858125 0.3926250 0.0720000
0.2467500 0.3926250 0.0720000
0.3076875 0.3926250 0.0720000
0.3686250 0.3926250 0.0720000
0.4295625 0.3926250 0.0720000
0.4905000 0.3926250 0.0720000
0.5514375 0.3926250 0.0720000
0.6123750 0.3926250 0.0720000
0.6733125 0.3926250 0.0720000
0.7342500 0.3926250 0.0720000
0.7951875 0.3926250 0.0720000
0.8561250 0.3926250 0.0720000
0.9170625 0.3926250 0.0720000
0.9780000 0.3926250 0.0720000
0.0035000 0.4579375 0.0725000
0.0644375 0.4579375 0.0725000
0.1253750 0.4579375 0.0725000
0.1863125 0.4579375 0.0725000
0.2472500 0.4579375 0.0725000
0.3081875 0.4579375 0.0725000
0.3691250 0.4579375 0.0725000
0.4300625 0.4579375 0.0725000
0.4910000 0.4579375 0.0725000
0.5519375 0.4579375 0.0725000
0.6128750 0.4579375 0.0725000
0.6738125 0.4579375 0.0725000
0.7347500 0.4579375 0.0725000
0.7956875 0.4579375 0.0725000
0.8566250 0.4579375 0.0725000
0.9175625 0.4579375 0.0725000
0.9785000 0.4579375 0.0725000
0.0040000 0.5232500 0.0730000
0.0649375 0.5232500 0.0730000
0.1258750 0.5232500 0.0730000
0.1868125 0.5232500 0.0730000
0.2477500 0.5232500 0.0730000
0.3086875 0.5232500 0.0730000
0.3696250 0.5232500 0.0730000
0.4305625 0.5232500 0.0730000
0.4915000 0.5232500 0.0730000
0.5524375 0.5232500 0.0730000
0.6133750 0.5232500 0.0730000
0.6743125 0.5232500 0.0730000
0.7352500 0.5232500 0.0730000
0.7961875 0.5232500 0.0730000
0.8571250 0.5232500 0.0730000
0.9180625 0.5232500 0.0730000
0.9790000 0.5232500 0.0730000
0.0045000 0.5885625 0.0735000
0.0654375 0.5885625 0.0735000
0.1263750 0.5885625 0.0735000
0.1873125 0.5885625 0.0735000
0.2482500 0.5885625 0.0735000
0.3091875 0.5885625 0.0735000
0.3701250 0.5885625 0.0735000
0.4310625 0.5885625 0.0735000
0.4920000 0.5885625 0.0735000
0.5529375 0.5885625 0.0735000
0.6138750 0.5885625 0.0735000
0.6748125 0.5885625 0.0735000
0.7357500 0.5885625 0.0735000
0.7966875 0.5885625 0.0735000
0.8576250 0.5885625 0.0735000
0.9185625 0.5885625 0.0735000
0.9795000 0.5885625 0.0735000
0.0050000 0.6538750 0.0740000
0.0659375 0.6538750 0.0740000
0.1268750 0.6538750 0.0740000
0.1878125 0.6538750 0.0740000
0.2487500 0.6538750 0.0740000
0.3096875 0.6538750 0.0740000
0.3706250 0.6538750 0.0740000
0.4315625 0.6538750 0.0740000
0.4925000 0.6538750 0.0740000
0.5534375 0.6538750 0.0740000
0.6143750 0.6538750 0.0740000
0.6753125 0.6538750 0.0740000
0.7362500 0.6538750 0.0740000
0.7971875 0.6538750 0.0740000
0.8581250 0.6538750 0.0740000
0.9190625 0.6538750 0.0740000
0.9800000 0.6538750 0.0740000
0.0055000 0.7191875 0.0745000
0.0664375 0.7191875 0.0745000
0.1273750 0.7191875 0.0745000
0.1883125 0.7191875 0.0745000
0.2492500 0.7191875 0.0745000
0.3101875 0.7191875 0.0745000
0.3711250 0.7191875 0.0745000
0.4320625 0.7191875 0.0745000
0.4930000 0.7191875 0.0745000
0.5539375 0.7191875 0.0745000
0.6148750 0.7191875 0.0745000
0.6758125 0.7191875 0.0745000
0.7367500 0.7191875 0.0745000
0.7976875 0.7191875 0.0745000
0.8586250 0.7191875 0.0745000
0.9195625 0.7191875 0.0745000
0.9805000 0.7191875 0.0745000
0.0060000 0.7845000 0.0750000
0.0669375 0.7845000 0.0750000
0.1278750 0.7845000 0.0750000
0.1888125 0.7845000 0.0750000
0.2497500 0.7845000 0.0750000
0.3106875 0.7845000 0.0750000
0.3716250 0.7845000 0.0750000
0.4325625 0.7845000 0.0750000
0.4935000 0.7845000 0.0750000
0.5544375 0.7845000 0.0750000
0.6153750 0.7845000 0.0750000
0.6763125 0.7845000 0.0750000
0.7372500 0.7845000 0.0750000
0.7981875 0.7845000 0.0750000
0.8591250 0.7845000 0.0750000
0.9200625 0.7845000 0.0750000
0.9810000 0.7845000 0.0750000
0.0065000 0.8498125 0.0755000
0.0674375 0.8498125 0.0755000
0.1283750 0.8498125 0.0755000
0.1893125 0.8498125 0.0755000
0.2502500 0.8498125 0.0755000
0.3111875 0.8498125 0.0755000
0.3721250 0.8498125 0.0755000
0.4330625 0.8498125 0.0755000
0.4940000 0.8498125 0.0755000
0.5549375 0.8498125 0.0755000
0.6158750 0.8498125 0.0755000
0.6768125 0.8498125 0.0755000
0.7377500 0.8498125 0.0755000
0.7986875 0.8498125 0.0755000
0.8596250 0.8498125 0.0755000
0.9205625 0.8498125 0.0755000
0.9815000 0.8498125 0.0755000
0.0070000 0.9151250 0.0760000
0.0679375 0.9151250 0.0760000
0.1288750 0.9151250 0.0760000
0.1898125 0.9151250 0.0760000
0.2507500 0.9151250 0.0760000
0.3116875 0.9151250 0.0760000
0.3726250 0.9151250 0.0760000
0.4335625 0.9151250 0.0760000
0.4945000 0.9151250 0.0760000
0.5554375 0.9151250 0.0760000
0.6163750 0.9151250 0.0760000
0.6773125 0.9151250 0.0760000
0.7382500 0.9151250 0.0760000
0.7991875 0.9151250 0.0760000
0.8601250 0.9151250 0.0760000
0.9210625 0.9151250 0.0760000
0.9820000 0.9151250 0.0760000
0.0075000 0.9804375 0.0765000
0.0684375 0.9804375 0.0765000
0.1293750 0.9804375 0.0765000
0.1903125 0.9804375 0.0765000
0.2512500 0.9804375 0.0765000
0.3121875 0.9804375 0.0765000
0.3731250 0.9804375 0.0765000
0.4340625 0.9804375 0.0765000
0.4950000 0.9804375 0.0765000
0.5559375 0.9804375 0.0765000
0.6168750 0.9804375 0.0765000
0.6778125 0.9804375 0.0765000
0.7387500 0.9804375 0.0765000
0.7996875 0.9804375 0.0765000
0.8606250 0.9804375 0.0765000
0.9215625 0.9804375 0.0765000
0.9825000 0.9804375 0.0765000
0.0080000 1.0000000 0.0770000
0.0689375 1.0000000 0.0770000
0.1298750 1.0000000 0.0770000
0.1908125 1.0000000 0.0770000
0.2517500 1.0000000 0.0770000
0.3126875 1.0000000 0.0770000
0.3736250 1.0000000 0.0770000
0.4345625 1.0000000 0.0770000
0.4955000 1.0000000 0.0770000
0.5564375 1.0000000 0.0770000
0.6173750 1.0000000 0.0770000
0.6783125 1.0000000 0.0770000
0.7392500 1.0000000 0.0770000
0.8001875 1.0000000 0.0770000
0.8611250 1.0000000 0.0770000
0.9220625 1.0000000 0.0770000
0.9830000 1.0000000 0.0770000
0.0000000 0.0015000 0.1340000
0.0609375 0.0015000 0.1340000
0.1218750 0.0015000 0.1340000
0.1828125 0.0015000 0.1340000
0.2437500 0.0015000 0.1340000
0.3046875 0.0015000 0.1340000
0.3656250 0.0015000 0.1340000
0.4265625 0.0015000 0.1340000
0.4875000 0.0015000 0.1340000
0.5484375 0.0015000 0.1340000
0.6093750 0.0015000 0.1340000
0.6703125 0.0015000 0.1340000
0.7312500 0.0015000 0.1340000
0.7921875 0.0015000 0.1340000
0.8531250 0.0015000 0.1340000
0.9140625 0.0015000 0.1340000
0.9750000 0.0015000 0.1340000
0.0005000 0.0668125 0.1345000
0.0614375 0.0668125 0.1345000
0.1223750 0.0668125 0.1345000
0.1833125 0.0668125 0.1345000
0.2442500 0.0668125 0.1345000
0.3051875 0.0668125 0.1345000
0.3661250 0.0668125 0.1345000
0.4270625 0.0668125 0.1345000
0.4880000 0.0668125 0.1345000
0.5489375 0.0668125 0.1345000
0.6098750 0.0668125 0.1345000
0.6708125 0.0668125 0.1345000
0.7317500 0.0668125 0.1345000
0.7926875 0.0668125 0.1345000
0.8536250 0.0668125 0.1345000
0.9145625 0.0668125 0.1345000
0.9755000 0.0668125 0.1345000
0.0010000 0.1321250 0.1350000
0.0619375 0.1321250 0.1350000
0.1228750 0.1321250 0.1350000
0.1838125 0.1321250 0.1350000
0.2447500 0.1321250 0.1350000
0.3056875 0.1321250 0.1350000
0.3666250 0.1321250 0.1350000
0.4275625 0.1321250 0.1350000
0.4885000 0.1321250 0.1350000
0.5494375 0.1321250 0.1350000
0.6103750 0.1321250 0.1350000
0.6713125 0.1321250 0.1350000
0.7322500 0.1321250 0.1350000
0.7931875 0.1321250 0.1350000
0.8541250 0.1321250 0.1350000
0.9150625 0.1321250 0.1350000
0.9760000 0.1321250 0.1350000
0.0015000 0.1974375 0.1355000
0.0624375 0.1974375 0.1355000
0.1233750 0.1974375 0.1355000
0.1843125 0.1974375 0.1355000
0.2452500 0.1974375 0.1355000
0.3061875 0.1974375 0.1355000
0.3671250 0.1974375 0.1355000
0.4280625 0.1974375 0.1355000
0.4890000 0.1974375 0.1355000
0.5499375 0.1974375 0.1355000
0.6108750 0.1974375 0.1355000
0.6718125 0.1974375 0.1355000
0.7327500 0.1974375 0.1355000
0.7936875 0.1974375 0.1355000
0.8546250 0.1974375 0.1355000
0.9155625 0.1974375 0.1355000
0.9765000 0.1974375 0.1355000
0.0020000 0.2627500 0.1360000
0.0629375 0.2627500 0.1360000
0.1238750 0.2627500 0.1360000
0.1848125 0.2627500 0.1360000
0.2457500 0.2627500 0.1360000
0.3066875 0.2627500 0.1360000
0.3676250 0.2627500 0.1360000
0.4285625 0.2627500 0.1360000
0.4895000 0.2627500 0.1360000
0.5504375 0.2627500 0.1360000
0.6113750 0.2627500 0.1360000
0.6723125 0.2627500 0.1360000
0.7332500 0.2627500 0.1360000
0.7941875 0.2627500 0.1360000
0.8551250 0.2627500 0.1360000
0.9160625 0.2627500 0.1360000
0.9770000 0.2627500 0.1360000
0.0025000 0.3280625 0.1365000
0.0634375 0.3280625 0.1365000
0.1243750 0.3280625 0.1365000
0.1853125 0.3280625 0.1365000
0.2462500 0.3280625 0.1365000
0.3071875 0.3280625 0.1365000
0.3681250 0.3280625 0.1365000
0.4290625 0.3280625 0.1365000
0.4900000 0.3280625 0.1365000
0.5509375 0.3280625 0.1365000
0.6118750 0.3280625 0.1365000
0.6728125 0.3280625 0.1365000
0.7337500 0.3280625 0.1365000
0.7946875 0.3280625 0.1365000
0.8556250 0.3280625 0.1365000
0.9165625 0.3280625 0.1365000
0.9775000 0.3280625 0.1365000
0.0030000 0.3933750 0.1370000
0.0639375 0.3933750 0.1370000
0.1248750 0.3933750 0.1370000
0.1858125 0.3933750 0.1370000
0.2467500 0.3933750 0.1370000
0.3076875 0.3933750 0.1370000
0.3686250 0.3933750 0.1370000
0.4295625 0.3933750 0.1370000
0.4905000 0.3933750 0.1370000
0.5514375 0.3933750 0.1370000
0.6123750 0.3933750 0.1370000
0.6733125 0.3933750 0.1370000
0.7342500 0.3933750 0.1370000
0.7951875 0.3933750 0.1370000
0.8561250 0.3933750 0.1370000
0.9170625 0.3933750 0.1370000
0.9780000 0.3933750 0.1370000
0.0035000 0.4586875 0.1375000
0.0644375 0.4586875 0.1375000
0.1253750 0.4586875 0.1375000
0.1863125 0.4586875 0.1375000
0.2472500 0.4586875 0.1375000
0.3081875 0.4586875 0.1375000
0.3691250 0.4586875 0.1375000
0.4300625 0.4586875 0.1375000
0.4910000 0.4586875 0.1375000
0.5519375 0.4586875 0.1375000
0.6128750 0.4586875 0.1375000
0.6738125 0.4586875 0.1375000
0.7347500 0.4586875 0.1375000
0.7956875 0.4586875 0.1375000
0.8566250 0.4586875 0.1375000
0.9175625 0.4586875 0.1375000
0.9785000 0.4586875 0.1375000
0.0040000 0.5240000 0.1380000
0.0649375 0.5240000 0.1380000
0.1258750 0.5240000 0.1380000
0.1868125 0.5240000 0.1380000
0.2477500 0.5240000 0.1380000
0.3086875 0.5240000 0.1380000
0.3696250 0.5240000 0.1380000
0.4305625 0.5240000 0.1380000
0.4915000 0.5240000 0.1380000
0.5524375 0.5240000 0.1380000
0.6133750 0.5240000 0.1380000
0.6743125 0.5240000 0.1380000
0.7352500 0.5240000 0.1380000
0.7961875 0.5240000 0.1380000
0.8571250 0.5240000 0.1380000
0.9180625 0.5240000 0.1380000
0.9790000 0.5240000 0.1380000
0.0045000 0.5893125 0.1385000
0.0654375 0.5893125 0.1385000
0.1263750 0.5893125 0.1385000
0.1873125 0.5893125 0.1385000
0.2482500 0.5893125 0.1385000
0.3091875 0.5893125 0.1385000
0.3701250 0.5893125 0.1385000
0.4310625 0.5893125 0.1385000
0.4920000 0.5893125 0.1385000
0.5529375 0.5893125 0.1385000
0.6138750 0.5893125 0.1385000
0.6748125 0.5893125 0.1385000
0.7357500 0.5893125 0.1385000
0.7966875 0.5893125 0.1385000
0.8576250 0.5893125 0.1385000
0.9185625 0.5893125 0.1385000
0.9795000 0.5893125 0.1385000
0.0050000 0.6546250 0.1390000
0.0659375 0.6546250 0.1390000
0.1268750 0.6546250 0.1390000
0.1878125 0.6546250 0.1390000
0.2487500 0.6546250 0.1390000
0.3096875 0.6546250 0.1390000
0.3706250 0.6546250 0.1390000
0.4315625 0.6546250 0.1390000
0.4925000 0.6546250 0.1390000
0.5534375 0.6546250 0.1390000
0.6143750 0.6546250 0.1390000
0.6753125 0.6546250 0.1390000
0.7362500 0.6546250 0.1390000
0.7971875 0.6546250 0.1390000
0.8581250 0.6546250 0.1390000
0.9190625 0.6546250 0.1390000
0.9800000 0.6546250 0.1390000
0.0055000 0.7199375 0.1395000
0.0664375 0.7199375 0.1395000
0.1273750 0.7199375 0.1395000
0.1883125 0.7199375 0.1395000
0.2492500 0.7199375 0.1395000
0.3101875 0.7199375 0.1395000
0.3711250 0.7199375 0.1395000
0.4320625 0.7199375 0.1395000
0.4930000 0.7199375 0.1395000
0.5539375 0.7199375 0.1395000
0.6148750 0.7199375 0.1395000
0.6758125 0.7199375 0.1395000
0.7367500 0.7199375 0.1395000
0.7976875 0.7199375 0.1395000
0.8586250 0.7199375 0.1395000
0.9195625 0.7199375 0.1395000
0.9805000 0.7199375 0.1395000
0.0060000 0.7852500 0.1400000
0.0669375 0.7852500 0.1400000
0.1278750 0.7852500 0.1400000
0.1888125 0.7852500 0.1400000
0.2497500 0.7852500 0.1400000
0.3106875 0.7852500 0.1400000
0.3716250 0.7852500 0.1400000
0.4325625 0.7852500 0.1400000
