assets/color-grade/p2-builtin-filters/clear-landscape.cube
# Real Landscape P2 self-developed content. Do not label as an official or original brand LUT.
# License: project-owned content, redistribution permitted with this notice.
TITLE "清澈风景"
# Internal ID: clear-landscape
LUT_3D_SIZE 9
DOMAIN_MIN 0.0 0.0 0.0
DOMAIN_MAX 1.0 1.0 1.0
0.0000000 0.0000000 0.0040000
0.1218750 0.0000000 0.0040000
0.2437500 0.0000000 0.0040000
0.3656250 0.0000000 0.0040000
0.4875000 0.0000000 0.0040000
0.6093750 0.0000000 0.0040000
0.7312500 0.0000000 0.0040000
0.8531250 0.0000000 0.0040000
0.9750000 0.0000000 0.0040000
0.0010000 0.1306250 0.0050000
0.1228750 0.1306250 0.0050000
0.2447500 0.1306250 0.0050000
0.3666250 0.1306250 0.0050000
0.4885000 0.1306250 0.0050000
0.6103750 0.1306250 0.0050000
0.7322500 0.1306250 0.0050000
0.8541250 0.1306250 0.0050000
0.9760000 0.1306250 0.0050000
0.0020000 0.2612500 0.0060000
0.1238750 0.2612500 0.0060000
0.2457500 0.2612500 0.0060000
0.3676250 0.2612500 0.0060000
0.4895000 0.2612500 0.0060000
0.6113750 0.2612500 0.0060000
0.7332500 0.2612500 0.0060000
0.8551250 0.2612500 0.0060000
0.9770000 0.2612500 0.0060000
0.0030000 0.3918750 0.0070000
0.1248750 0.3918750 0.0070000
0.2467500 0.3918750 0.0070000
0.3686250 0.3918750 0.0070000
0.4905000 0.3918750 0.0070000
0.6123750 0.3918750 0.0070000
0.7342500 0.3918750 0.0070000
0.8561250 0.3918750 0.0070000
0.9780000 0.3918750 0.0070000
0.0040000 0.5225000 0.0080000
0.1258750 0.5225000 0.0080000
0.2477500 0.5225000 0.0080000
0.3696250 0.5225000 0.0080000
0.4915000 0.5225000 0.0080000
0.6133750 0.5225000 0.0080000
0.7352500 0.5225000 0.0080000
0.8571250 0.5225000 0.0080000
0.9790000 0.5225000 0.0080000
0.0050000 0.6531250 0.0090000
0.1268750 0.6531250 0.0090000
0.2487500 0.6531250 0.0090000
0.3706250 0.6531250 0.0090000
0.4925000 0.6531250 0.0090000
0.6143750 0.6531250 0.0090000
0.7362500 0.6531250 0.0090000
0.8581250 0.6531250 0.0090000
0.9800000 0.6531250 0.0090000
0.0060000 0.7837500 0.0100000
0.1278750 0.7837500 0.0100000
0.2497500 0.7837500 0.0100000
0.3716250 0.7837500 0.0100000
0.4935000 0.7837500 0.0100000
0.6153750 0.7837500 0.0100000
0.7372500 0.7837500 0.0100000
0.8591250 0.7837500 0.0100000
0.9810000 0.7837500 0.0100000
0.0070000 0.9143750 0.0110000
0.1288750 0.9143750 0.0110000
0.2507500 0.9143750 0.0110000
0.3726250 0.9143750 0.0110000
0.4945000 0.9143750 0.0110000
0.6163750 0.9143750 0.0110000
0.7382500 0.9143750 0.0110000
0.8601250 0.9143750 0.0110000
0.9820000 0.9143750 0.0110000
0.0080000 1.0000000 0.0120000
0.1298750 1.0000000 0.0120000
0.2517500 1.0000000 0.0120000
0.3736250 1.0000000 0.0120000
0.4955000 1.0000000 0.0120000
0.6173750 1.0000000 0.0120000
0.7392500 1.0000000 0.0120000
0.8611250 1.0000000 0.0120000
0.9830000 1.0000000 0.0120000
0.0000000 0.0015000 0.1340000
0.1218750 0.0015000 0.1340000
0.2437500 0.0015000 0.1340000
0.3656250 0.0015000 0.1340000
0.4875000 0.0015000 0.1340000
0.6093750 0.0015000 0.1340000
0.7312500 0.0015000 0.1340000
0.8531250 0.0015000 0.1340000
0.9750000 0.0015000 0.1340000
0.0010000 0.1321250 0.1350000
0.1228750 0.1321250 0.1350000
0.2447500 0.1321250 0.1350000
0.3666250 0.1321250 0.1350000
0.4885000 0.1321250 0.1350000
0.6103750 0.1321250 0.1350000
0.7322500 0.1321250 0.1350000
0.8541250 0.1321250 0.1350000
0.9760000 0.1321250 0.1350000
0.0020000 0.2627500 0.1360000
0.1238750 0.2627500 0.1360000
0.2457500 0.2627500 0.1360000
0.3676250 0.2627500 0.1360000
0.4895000 0.2627500 0.1360000
0.6113750 0.2627500 0.1360000
0.7332500 0.2627500 0.1360000
0.8551250 0.2627500 0.1360000
0.9770000 0.2627500 0.1360000
0.0030000 0.3933750 0.1370000
0.1248750 0.3933750 0.1370000
0.2467500 0.3933750 0.1370000
0.3686250 0.3933750 0.1370000
0.4905000 0.3933750 0.1370000
0.6123750 0.3933750 0.1370000
0.7342500 0.3933750 0.1370000
0.8561250 0.3933750 0.1370000
0.9780000 0.3933750 0.1370000
0.0040000 0.5240000 0.1380000
0.1258750 0.5240000 0.1380000
0.2477500 0.5240000 0.1380000
0.3696250 0.5240000 0.1380000
0.4915000 0.5240000 0.1380000
0.6133750 0.5240000 0.1380000
0.7352500 0.5240000 0.1380000
0.8571250 0.5240000 0.1380000
0.9790000 0.5240000 0.1380000
0.0050000 0.6546250 0.1390000
0.1268750 0.6546250 0.1390000
0.2487500 0.6546250 0.1390000
0.3706250 0.6546250 0.1390000
0.4925000 0.6546250 0.1390000
0.6143750 0.6546250 0.1390000
0.7362500 0.6546250 0.1390000
0.8581250 0.6546250 0.1390000
0.9800000 0.6546250 0.1390000
0.0060000 0.7852500 0.1400000
0.1278750 0.7852500 0.1400000
0.2497500 0.7852500 0.1400000
0.3716250 0.7852500 0.1400000
0.4935000 0.7852500 0.1400000
0.6153750 0.7852500 0.1400000
0.7372500 0.7852500 0.1400000
0.8591250 0.7852500 0.1400000
0.9810000 0.7852500 0.1400000
0.0070000 0.9158750 0.1410000
0.1288750 0.9158750 0.1410000
0.2507500 0.9158750 0.1410000
0.3726250 0.9158750 0.1410000
0.4945000 0.9158750 0.1410000
0.6163750 0.9158750 0.1410000
0.7382500 0.9158750 0.1410000
0.8601250 0.9158750 0.1410000
0.9820000 0.9158750 0.1410000
0.0080000 1.0000000 0.1420000
0.1298750 1.0000000 0.1420000
0.2517500 1.0000000 0.1420000
0.3736250 1.0000000 0.1420000
0.4955000 1.0000000 0.1420000
0.6173750 1.0000000 0.1420000
0.7392500 1.0000000 0.1420000
0.8611250 1.0000000 0.1420000
0.9830000 1.0000000 0.1420000
0.0000000 0.0030000 0.2640000
0.1218750 0.0030000 0.2640000
0.2437500 0.0030000 0.2640000
0.3656250 0.0030000 0.2640000
0.4875000 0.0030000 0.2640000
0.6093750 0.0030000 0.2640000
0.7312500 0.0030000 0.2640000
0.8531250 0.0030000 0.2640000
0.9750000 0.0030000 0.2640000
0.0010000 0.1336250 0.2650000
0.1228750 0.1336250 0.2650000
0.2447500 0.1336250 0.2650000
0.3666250 0.1336250 0.2650000
0.4885000 0.1336250 0.2650000
0.6103750 0.1336250 0.2650000
0.7322500 0.1336250 0.2650000
0.8541250 0.1336250 0.2650000
0.9760000 0.1336250 0.2650000
0.0020000 0.2642500 0.2660000
0.1238750 0.2642500 0.2660000
0.2457500 0.2642500 0.2660000
0.3676250 0.2642500 0.2660000
0.4895000 0.2642500 0.2660000
0.6113750 0.2642500 0.2660000
0.7332500 0.2642500 0.2660000
0.8551250 0.2642500 0.2660000
0.9770000 0.2642500 0.2660000
0.0030000 0.3948750 0.2670000
0.1248750 0.3948750 0.2670000
0.2467500 0.3948750 0.2670000
0.3686250 0.3948750 0.2670000
0.4905000 0.3948750 0.2670000
0.6123750 0.3948750 0.2670000
0.7342500 0.3948750 0.2670000
0.8561250 0.3948750 0.2670000
0.9780000 0.3948750 0.2670000
0.0040000 0.5255000 0.2680000
0.1258750 0.5255000 0.2680000
0.2477500 0.5255000 0.2680000
0.3696250 0.5255000 0.2680000
0.4915000 0.5255000 0.2680000
0.6133750 0.5255000 0.2680000
0.7352500 0.5255000 0.2680000
0.8571250 0.5255000 0.2680000
0.9790000 0.5255000 0.2680000
0.0050000 0.6561250 0.2690000
0.1268750 0.6561250 0.2690000
0.2487500 0.6561250 0.2690000
0.3706250 0.6561250 0.2690000
0.4925000 0.6561250 0.2690000
0.6143750 0.6561250 0.2690000
0.7362500 0.6561250 0.2690000
0.8581250 0.6561250 0.2690000
0.9800000 0.6561250 0.2690000
0.0060000 0.7867500 0.2700000
0.1278750 0.7867500 0.2700000
0.2497500 0.7867500 0.2700000
0.3716250 0.7867500 0.2700000
0.4935000 0.7867500 0.2700000
0.6153750 0.7867500 0.2700000
0.7372500 0.7867500 0.2700000
0.8591250 0.7867500 0.2700000
0.9810000 0.7867500 0.2700000
0.0070000 0.9173750 0.2710000
0.1288750 0.9173750 0.2710000
0.2507500 0.9173750 0.2710000
0.3726250 0.9173750 0.2710000
0.4945000 0.9173750 0.2710000
0.6163750 0.9173750 0.2710000
0.7382500 0.9173750 0.2710000
0.8601250 0.9173750 0.2710000
0.9820000 0.9173750 0.2710000
0.0080000 1.0000000 0.2720000
0.1298750 1.0000000 0.2720000
0.2517500 1.0000000 0.2720000
0.3736250 1.0000000 0.2720000
0.4955000 1.0000000 0.2720000
0.6173750 1.0000000 0.2720000
0.7392500 1.0000000 0.2720000
0.8611250 1.0000000 0.2720000
0.9830000 1.0000000 0.2720000
0.0000000 0.0045000 0.3940000
0.1218750 0.0045000 0.3940000
0.2437500 0.0045000 0.3940000
0.3656250 0.0045000 0.3940000
0.4875000 0.0045000 0.3940000
0.6093750 0.0045000 0.3940000
0.7312500 0.0045000 0.3940000
0.8531250 0.0045000 0.3940000
0.9750000 0.0045000 0.3940000
0.0010000 0.1351250 0.3950000
0.1228750 0.1351250 0.3950000
0.2447500 0.1351250 0.3950000
0.3666250 0.1351250 0.3950000
0.4885000 0.1351250 0.3950000
0.6103750 0.1351250 0.3950000
0.7322500 0.1351250 0.3950000
0.8541250 0.1351250 0.3950000
0.9760000 0.1351250 0.3950000
0.0020000 0.2657500 0.3960000
0.1238750 0.2657500 0.3960000
0.2457500 0.2657500 0.3960000
0.3676250 0.2657500 0.3960000
0.4895000 0.2657500 0.3960000
0.6113750 0.2657500 0.3960000
0.7332500 0.2657500 0.3960000
0.8551250 0.2657500 0.3960000
0.9770000 0.2657500 0.3960000
0.0030000 0.3963750 0.3970000
0.1248750 0.3963750 0.3970000
0.2467500 0.3963750 0.3970000
0.3686250 0.3963750 0.3970000
0.4905000 0.3963750 0.3970000
0.6123750 0.3963750 0.3970000
0.7342500 0.3963750 0.3970000
0.8561250 0.3963750 0.3970000
0.9780000 0.3963750 0.3970000
0.0040000 0.5270000 0.3980000
0.1258750 0.5270000 0.3980000
0.2477500 0.5270000 0.3980000
0.3696250 0.5270000 0.3980000
0.4915000 0.5270000 0.3980000
0.6133750 0.5270000 0.3980000
0.7352500 0.5270000 0.3980000
0.8571250 0.5270000 0.3980000
0.9790000 0.5270000 0.3980000
0.0050000 0.6576250 0.3990000
0.1268750 0.6576250 0.3990000
0.2487500 0.6576250 0.3990000
0.3706250 0.6576250 0.3990000
0.4925000 0.6576250 0.3990000
0.6143750 0.6576250 0.3990000
0.7362500 0.6576250 0.3990000
0.8581250 0.6576250 0.3990000
0.9800000 0.6576250 0.3990000
0.0060000 0.7882500 0.4000000
0.1278750 0.7882500 0.4000000
0.2497500 0.7882500 0.4000000
0.3716250 0.7882500 0.4000000
0.4935000 0.7882500 0.4000000
0.6153750 0.7882500 0.4000000
0.7372500 0.7882500 0.4000000
0.8591250 0.7882500 0.4000000
0.9810000 0.7882500 0.4000000
0.0070000 0.9188750 0.4010000
0.1288750 0.9188750 0.4010000
0.2507500 0.9188750 0.4010000
0.3726250 0.9188750 0.4010000
0.4945000 0.9188750 0.4010000
0.6163750 0.9188750 0.4010000
0.7382500 0.9188750 0.4010000
0.8601250 0.9188750 0.4010000
0.9820000 0.9188750 0.4010000
0.0080000 1.0000000 0.4020000
0.1298750 1.0000000 0.4020000
0.2517500 1.0000000 0.4020000
0.3736250 1.0000000 0.4020000
0.4955000 1.0000000 0.4020000
0.6173750 1.0000000 0.4020000
0.7392500 1.0000000 0.4020000
0.8611250 1.0000000 0.4020000
0.9830000 1.0000000 0.4020000
0.0000000 0.0060000 0.5240000
0.1218750 0.0060000 0.5240000
0.2437500 0.0060000 0.5240000
0.3656250 0.0060000 0.5240000
0.4875000 0.0060000 0.5240000
0.6093750 0.0060000 0.5240000
0.7312500 0.0060000 0.5240000
0.8531250 0.0060000 0.5240000
0.9750000 0.0060000 0.5240000
0.0010000 0.1366250 0.5250000
0.1228750 0.1366250 0.5250000
0.2447500 0.1366250 0.5250000
0.3666250 0.1366250 0.5250000
0.4885000 0.1366250 0.5250000
0.6103750 0.1366250 0.5250000
0.7322500 0.1366250 0.5250000
0.8541250 0.1366250 0.5250000
0.9760000 0.1366250 0.5250000
0.0020000 0.2672500 0.5260000
0.1238750 0.2672500 0.5260000
0.2457500 0.2672500 0.5260000
0.3676250 0.2672500 0.5260000
0.4895000 0.2672500 0.5260000
0.6113750 0.2672500 0.5260000
0.7332500 0.2672500 0.5260000
0.8551250 0.2672500 0.5260000
0.9770000 0.2672500 0.5260000
0.0030000 0.3978750 0.5270000
0.1248750 0.3978750 0.5270000
0.2467500 0.3978750 0.5270000
0.3686250 0.3978750 0.5270000
0.4905000 0.3978750 0.5270000
0.6123750 0.3978750 0.5270000
0.7342500 0.3978750 0.5270000
0.8561250 0.3978750 0.5270000
0.9780000 0.3978750 0.5270000
0.0040000 0.5285000 0.5280000
0.1258750 0.5285000 0.5280000
0.2477500 0.5285000 0.5280000
0.3696250 0.5285000 0.5280000
0.4915000 0.5285000 0.5280000
0.6133750 0.5285000 0.5280000
0.7352500 0.5285000 0.5280000
0.8571250 0.5285000 0.5280000
0.9790000 0.5285000 0.5280000
0.0050000 0.6591250 0.5290000
0.1268750 0.6591250 0.5290000
0.2487500 0.6591250 0.5290000
0.3706250 0.6591250 0.5290000
0.4925000 0.6591250 0.5290000
0.6143750 0.6591250 0.5290000
0.7362500 0.6591250 0.5290000
0.8581250 0.6591250 0.5290000
0.9800000 0.6591250 0.5290000
0.0060000 0.7897500 0.5300000
0.1278750 0.7897500 0.5300000
0.2497500 0.7897500 0.5300000
0.3716250 0.7897500 0.5300000
0.4935000 0.7897500 0.5300000
0.6153750 0.7897500 0.5300000
0.7372500 0.7897500 0.5300000
0.8591250 0.7897500 0.5300000
0.9810000 0.7897500 0.5300000
0.0070000 0.9203750 0.5310000
0.1288750 0.9203750 0.5310000
0.2507500 0.9203750 0.5310000
0.3726250 0.9203750 0.5310000
0.4945000 0.9203750 0.5310000
0.6163750 0.9203750 0.5310000
0.7382500 0.9203750 0.5310000
0.8601250 0.9203750 0.5310000
0.9820000 0.9203750 0.5310000
0.0080000 1.0000000 0.5320000
0.1298750 1.0000000 0.5320000
0.2517500 1.0000000 0.5320000
0.3736250 1.0000000 0.5320000
0.4955000 1.0000000 0.5320000
0.6173750 1.0000000 0.5320000
0.7392500 1.0000000 0.5320000
0.8611250 1.0000000 0.5320000
0.9830000 1.0000000 0.5320000
0.0000000 0.0075000 0.6540000
0.1218750 0.0075000 0.6540000
0.2437500 0.0075000 0.6540000
0.3656250 0.0075000 0.6540000
0.4875000 0.0075000 0.6540000
0.6093750 0.0075000 0.6540000
0.7312500 0.0075000 0.6540000
0.8531250 0.0075000 0.6540000
0.9750000 0.0075000 0.6540000
0.0010000 0.1381250 0.6550000
0.1228750 0.1381250 0.6550000
0.2447500 0.1381250 0.6550000
0.3666250 0.1381250 0.6550000
0.4885000 0.1381250 0.6550000
0.6103750 0.1381250 0.6550000
0.7322500 0.1381250 0.6550000
0.8541250 0.1381250 0.6550000
0.9760000 0.1381250 0.6550000
0.0020000 0.2687500 0.6560000
0.1238750 0.2687500 0.6560000
0.2457500 0.2687500 0.6560000
0.3676250 0.2687500 0.6560000
0.4895000 0.2687500 0.6560000
0.6113750 0.2687500 0.6560000
0.7332500 0.2687500 0.6560000
0.8551250 0.2687500 0.6560000
0.9770000 0.2687500 0.6560000
0.0030000 0.3993750 0.6570000
0.1248750 0.3993750 0.6570000
0.2467500 0.3993750 0.6570000
0.3686250 0.3993750 0.6570000
0.4905000 0.3993750 0.6570000
0.6123750 0.3993750 0.6570000
0.7342500 0.3993750 0.6570000
0.8561250 0.3993750 0.6570000
0.9780000 0.3993750 0.6570000
0.0040000 0.5300000 0.6580000
0.1258750 0.5300000 0.6580000
0.2477500 0.5300000 0.6580000
0.3696250 0.5300000 0.6580000
0.4915000 0.5300000 0.6580000
0.6133750 0.5300000 0.6580000
0.7352500 0.5300000 0.6580000
0.8571250 0.5300000 0.6580000
0.9790000 0.5300000 0.6580000
0.0050000 0.6606250 0.6590000
0.1268750 0.6606250 0.6590000
0.2487500 0.6606250 0.6590000
0.3706250 0.6606250 0.6590000
0.4925000 0.6606250 0.6590000
0.6143750 0.6606250 0.6590000
0.7362500 0.6606250 0.6590000
0.8581250 0.6606250 0.6590000
0.9800000 0.6606250 0.6590000
0.0060000 0.7912500 0.6600000
0.1278750 0.7912500 0.6600000
0.2497500 0.7912500 0.6600000
0.3716250 0.7912500 0.6600000
0.4935000 0.7912500 0.6600000
0.6153750 0.7912500 0.6600000
0.7372500 0.7912500 0.6600000
0.8591250 0.7912500 0.6600000
0.9810000 0.7912500 0.6600000
0.0070000 0.9218750 0.6610000
0.1288750 0.9218750 0.6610000
0.2507500 0.9218750 0.6610000
0.3726250 0.9218750 0.6610000
0.4945000 0.9218750 0.6610000
0.6163750 0.9218750 0.6610000
0.7382500 0.9218750 0.6610000
0.8601250 0.9218750 0.6610000
0.9820000 0.9218750 0.6610000
0.0080000 1.0000000 0.6620000
0.1298750 1.0000000 0.6620000
0.2517500 1.0000000 0.6620000
0.3736250 1.0000000 0.6620000
0.4955000 1.0000000 0.6620000
0.6173750 1.0000000 0.6620000
0.7392500 1.0000000 0.6620000
0.8611250 1.0000000 0.6620000
0.9830000 1.0000000 0.6620000
0.0000000 0.0090000 0.7840000
0.1218750 0.0090000 0.7840000
0.2437500 0.0090000 0.7840000
0.3656250 0.0090000 0.7840000
0.4875000 0.0090000 0.7840000
0.6093750 0.0090000 0.7840000
0.7312500 0.0090000 0.7840000
0.8531250 0.0090000 0.7840000
0.9750000 0.0090000 0.7840000
0.0010000 0.1396250 0.7850000
0.1228750 0.1396250 0.7850000
0.2447500 0.1396250 0.7850000
0.3666250 0.1396250 0.7850000
0.4885000 0.1396250 0.7850000
0.6103750 0.1396250 0.7850000
0.7322500 0.1396250 0.7850000
0.8541250 0.1396250 0.7850000
0.9760000 0.1396250 0.7850000
0.0020000 0.2702500 0.7860000
0.1238750 0.2702500 0.7860000
0.2457500 0.2702500 0.7860000
0.3676250 0.2702500 0.7860000
0.4895000 0.2702500 0.7860000
0.6113750 0.2702500 0.7860000
0.7332500 0.2702500 0.7860000
0.8551250 0.2702500 0.7860000
0.9770000 0.2702500 0.7860000
0.0030000 0.4008750 0.7870000
0.1248750 0.4008750 0.7870000
0.2467500 0.4008750 0.7870000
0.3686250 0.4008750 0.7870000
0.4905000 0.4008750 0.7870000
0.6123750 0.4008750 0.7870000
0.7342500 0.4008750 0.7870000
0.8561250 0.4008750 0.7870000
0.9780000 0.4008750 0.7870000
0.0040000 0.5315000 0.7880000
0.1258750 0.5315000 0.7880000
0.2477500 0.5315000 0.7880000
0.3696250 0.5315000 0.7880000
0.4915000 0.5315000 0.7880000
0.6133750 0.5315000 0.7880000
0.7352500 0.5315000 0.7880000
0.8571250 0.5315000 0.7880000
0.9790000 0.5315000 0.7880000
0.0050000 0.6621250 0.7890000
0.1268750 0.6621250 0.7890000
0.2487500 0.6621250 0.7890000
0.3706250 0.6621250 0.7890000
0.4925000 0.6621250 0.7890000
0.6143750 0.6621250 0.7890000
0.7362500 0.6621250 0.7890000
0.8581250 0.6621250 0.7890000
0.9800000 0.6621250 0.7890000
0.0060000 0.7927500 0.7900000
0.1278750 0.7927500 0.7900000
0.2497500 0.7927500 0.7900000
0.3716250 0.7927500 0.7900000
0.4935000 0.7927500 0.7900000
0.6153750 0.7927500 0.7900000
0.7372500 0.7927500 0.7900000
0.8591250 0.7927500 0.7900000
0.9810000 0.7927500 0.7900000
0.0070000 0.9233750 0.7910000
0.1288750 0.9233750 0.7910000
0.2507500 0.9233750 0.7910000
0.3726250 0.9233750 0.7910000
0.4945000 0.9233750 0.7910000
0.6163750 0.9233750 0.7910000
0.7382500 0.9233750 0.7910000
0.8601250 0.9233750 0.7910000
0.9820000 0.9233750 0.7910000
0.0080000 1.0000000 0.7920000
0.1298750 1.0000000 0.7920000
0.2517500 1.0000000 0.7920000
0.3736250 1.0000000 0.7920000
0.4955000 1.0000000 0.7920000
0.6173750 1.0000000 0.7920000
0.7392500 1.0000000 0.7920000
0.8611250 1.0000000 0.7920000
0.9830000 1.0000000 0.7920000
0.0000000 0.0105000 0.9140000
0.1218750 0.0105000 0.9140000
0.2437500 0.0105000 0.9140000
0.3656250 0.0105000 0.9140000
0.4875000 0.0105000 0.9140000
0.6093750 0.0105000 0.9140000
0.7312500 0.0105000 0.9140000
0.8531250 0.0105000 0.9140000
0.9750000 0.0105000 0.9140000
0.0010000 0.1411250 0.9150000
0.1228750 0.1411250 0.9150000
0.2447500 0.1411250 0.9150000
0.3666250 0.1411250 0.9150000
0.4885000 0.1411250 0.9150000
0.6103750 0.1411250 0.9150000
0.7322500 0.1411250 0.9150000
0.8541250 0.1411250 0.9150000
0.9760000 0.1411250 0.9150000
0.0020000 0.2717500 0.9160000
0.1238750 0.2717500 0.9160000
0.2457500 0.2717500 0.9160000
0.3676250 0.2717500 0.9160000
0.4895000 0.2717500 0.9160000
0.6113750 0.2717500 0.9160000
0.7332500 0.2717500 0.9160000
0.8551250 0.2717500 0.9160000
0.9770000 0.2717500 0.9160000
0.0030000 0.4023750 0.9170000
0.1248750 0.4023750 0.9170000
0.2467500 0.4023750 0.9170000
0.3686250 0.4023750 0.9170000
0.4905000 0.4023750 0.9170000
0.6123750 0.4023750 0.9170000
0.7342500 0.4023750 0.9170000
0.8561250 0.4023750 0.9170000
0.9780000 0.4023750 0.9170000
0.0040000 0.5330000 0.9180000
0.1258750 0.5330000 0.9180000
0.2477500 0.5330000 0.9180000
0.3696250 0.5330000 0.9180000
0.4915000 0.5330000 0.9180000
0.6133750 0.5330000 0.9180000
0.7352500 0.5330000 0.9180000
0.8571250 0.5330000 0.9180000
0.9790000 0.5330000 0.9180000
0.0050000 0.6636250 0.9190000
0.1268750 0.6636250 0.9190000
0.2487500 0.6636250 0.9190000
0.3706250 0.6636250 0.9190000
0.4925000 0.6636250 0.9190000
0.6143750 0.6636250 0.9190000
0.7362500 0.6636250 0.9190000
0.8581250 0.6636250 0.9190000
0.9800000 0.6636250 0.9190000
0.0060000 0.7942500 0.9200000
0.1278750 0.7942500 0.9200000
0.2497500 0.7942500 0.9200000
0.3716250 0.7942500 0.9200000
0.4935000 0.7942500 0.9200000
0.6153750 0.7942500 0.9200000
0.7372500 0.7942500 0.9200000
0.8591250 0.7942500 0.9200000
0.9810000 0.7942500 0.9200000
0.0070000 0.9248750 0.9210000
0.1288750 0.9248750 0.9210000
0.2507500 0.9248750 0.9210000
0.3726250 0.9248750 0.9210000
0.4945000 0.9248750 0.9210000
0.6163750 0.9248750 0.9210000
0.7382500 0.9248750 0.9210000
0.8601250 0.9248750 0.9210000
0.9820000 0.9248750 0.9210000
0.0080000 1.0000000 0.9220000
0.1298750 1.0000000 0.9220000
0.2517500 1.0000000 0.9220000
0.3736250 1.0000000 0.9220000
0.4955000 1.0000000 0.9220000
0.6173750 1.0000000 0.9220000
0.7392500 1.0000000 0.9220000
0.8611250 1.0000000 0.9220000
0.9830000 1.0000000 0.9220000
0.0000000 0.0120000 1.0000000
0.1218750 0.0120000 1.0000000
0.2437500 0.0120000 1.0000000
0.3656250 0.0120000 1.0000000
0.4875000 0.0120000 1.0000000
0.6093750 0.0120000 1.0000000
0.7312500 0.0120000 1.0000000
0.8531250 0.0120000 1.0000000
0.9750000 0.0120000 1.0000000
0.0010000 0.1426250 1.0000000
0.1228750 0.1426250 1.0000000
0.2447500 0.1426250 1.0000000
0.3666250 0.1426250 1.0000000
0.4885000 0.1426250 1.0000000
0.6103750 0.1426250 1.0000000
0.7322500 0.1426250 1.0000000
0.8541250 0.1426250 1.0000000
0.9760000 0.1426250 1.0000000
0.0020000 0.2732500 1.0000000
0.1238750 0.2732500 1.0000000
0.2457500 0.2732500 1.0000000
0.3676250 0.2732500 1.0000000
0.4895000 0.2732500 1.0000000
0.6113750 0.2732500 1.0000000
0.7332500 0.2732500 1.0000000
0.8551250 0.2732500 1.0000000
0.9770000 0.2732500 1.0000000
0.0030000 0.4038750 1.0000000
0.1248750 0.4038750 1.0000000
0.2467500 0.4038750 1.0000000
0.3686250 0.4038750 1.0000000
0.4905000 0.4038750 1.0000000
0.6123750 0.4038750 1.0000000
0.7342500 0.4038750 1.0000000
0.8561250 0.4038750 1.0000000
0.9780000 0.4038750 1.0000000
0.0040000 0.5345000 1.0000000
0.1258750 0.5345000 1.0000000
0.2477500 0.5345000 1.0000000
0.3696250 0.5345000 1.0000000
0.4915000 0.5345000 1.0000000
0.6133750 0.5345000 1.0000000
0.7352500 0.5345000 1.0000000
0.8571250 0.5345000 1.0000000
0.9790000 0.5345000 1.0000000
0.0050000 0.6651250 1.0000000
0.1268750 0.6651250 1.0000000
0.2487500 0.6651250 1.0000000
0.3706250 0.6651250 1.0000000
0.4925000 0.6651250 1.0000000
0.6143750 0.6651250 1.0000000
0.7362500 0.6651250 1.0000000
0.8581250 0.6651250 1.0000000
0.9800000 0.6651250 1.0000000
0.0060000 0.7957500 1.0000000
0.1278750 0.7957500 1.0000000
0.2497500 0.7957500 1.0000000
0.3716250 0.7957500 1.0000000
0.4935000 0.7957500 1.0000000
0.6153750 0.7957500 1.0000000
0.7372500 0.7957500 1.0000000
0.8591250 0.7957500 1.0000000
0.9810000 0.7957500 1.0000000
0.0070000 0.9263750 1.0000000
0.1288750 0.9263750 1.0000000
0.2507500 0.9263750 1.0000000
0.3726250 0.9263750 1.0000000
0.4945000 0.9263750 1.0000000
0.6163750 0.9263750 1.0000000
0.7382500 0.9263750 1.0000000
0.8601250 0.9263750 1.0000000
0.9820000 0.9263750 1.0000000
0.0080000 1.0000000 1.0000000
0.1298750 1.0000000 1.0000000
0.2517500 1.0000000 1.0000000
0.3736250 1.0000000 1.0000000
0.4955000 1.0000000 1.0000000
0.6173750 1.0000000 1.0000000
0.7392500 1.0000000 1.0000000
0.8611250 1.0000000 1.0000000
0.9830000 1.0000000 1.0000000
