assets/color-grade/p2-builtin-filters/clear-landscape.cube
# Real Landscape P2 self-developed content. Do not label as an official or original brand LUT.
# License: project-owned content, redistribution permitted with this notice.
TITLE "清澈风景"
# Internal ID: clear-landscape
LUT_3D_SIZE 5
DOMAIN_MIN 0.0 0.0 0.0
DOMAIN_MAX 1.0 1.0 1.0
0.0000000 0.0000000 0.0040000
0.2437500 0.0000000 0.0040000
0.4875000 0.0000000 0.0040000
0.7312500 0.0000000 0.0040000
0.9750000 0.0000000 0.0040000
0.0020000 0.2612500 0.0060000
0.2457500 0.2612500 0.0060000
0.4895000 0.2612500 0.0060000
0.7332500 0.2612500 0.0060000
0.9770000 0.2612500 0.0060000
0.0040000 0.5225000 0.0080000
0.2477500 0.5225000 0.0080000
0.4915000 0.5225000 0.0080000
0.7352500 0.5225000 0.0080000
0.9790000 0.5225000 0.0080000
0.0060000 0.7837500 0.0100000
0.2497500 0.7837500 0.0100000
0.4935000 0.7837500 0.0100000
0.7372500 0.7837500 0.0100000
0.9810000 0.7837500 0.0100000
0.0080000 1.0000000 0.0120000
0.2517500 1.0000000 0.0120000
0.4955000 1.0000000 0.0120000
0.7392500 1.0000000 0.0120000
0.9830000 1.0000000 0.0120000
0.0000000 0.0030000 0.2640000
0.2437500 0.0030000 0.2640000
0.4875000 0.0030000 0.2640000
0.7312500 0.0030000 0.2640000
0.9750000 0.0030000 0.2640000
0.0020000 0.2642500 0.2660000
0.2457500 0.2642500 0.2660000
0.4895000 0.2642500 0.2660000
0.7332500 0.2642500 0.2660000
0.9770000 0.2642500 0.2660000
0.0040000 0.5255000 0.2680000
0.2477500 0.5255000 0.2680000
0.4915000 0.5255000 0.2680000
0.7352500 0.5255000 0.2680000
0.9790000 0.5255000 0.2680000
0.0060000 0.7867500 0.2700000
0.2497500 0.7867500 0.2700000
0.4935000 0.7867500 0.2700000
0.7372500 0.7867500 0.2700000
0.9810000 0.7867500 0.2700000
0.0080000 1.0000000 0.2720000
0.2517500 1.0000000 0.2720000
0.4955000 1.0000000 0.2720000
0.7392500 1.0000000 0.2720000
0.9830000 1.0000000 0.2720000
0.0000000 0.0060000 0.5240000
0.2437500 0.0060000 0.5240000
0.4875000 0.0060000 0.5240000
0.7312500 0.0060000 0.5240000
0.9750000 0.0060000 0.5240000
0.0020000 0.2672500 0.5260000
0.2457500 0.2672500 0.5260000
0.4895000 0.2672500 0.5260000
0.7332500 0.2672500 0.5260000
0.9770000 0.2672500 0.5260000
0.0040000 0.5285000 0.5280000
0.2477500 0.5285000 0.5280000
0.4915000 0.5285000 0.5280000
0.7352500 0.5285000 0.5280000
0.9790000 0.5285000 0.5280000
0.0060000 0.7897500 0.5300000
0.2497500 0.7897500 0.5300000
0.4935000 0.7897500 0.5300000
0.7372500 0.7897500 0.5300000
0.9810000 0.7897500 0.5300000
0.0080000 1.0000000 0.5320000
0.2517500 1.0000000 0.5320000
0.4955000 1.0000000 0.5320000
0.7392500 1.0000000 0.5320000
0.9830000 1.0000000 0.5320000
0.0000000 0.0090000 0.7840000
0.2437500 0.0090000 0.7840000
0.4875000 0.0090000 0.7840000
0.7312500 0.0090000 0.7840000
0.9750000 0.0090000 0.7840000
0.0020000 0.2702500 0.7860000
0.2457500 0.2702500 0.7860000
0.4895000 0.2702500 0.7860000
0.7332500 0.2702500 0.7860000
0.9770000 0.2702500 0.7860000
0.0040000 0.5315000 0.7880000
0.2477500 0.5315000 0.7880000
0.4915000 0.5315000 0.7880000
0.7352500 0.5315000 0.7880000
0.9790000 0.5315000 0.7880000
0.0060000 0.7927500 0.7900000
0.2497500 0.7927500 0.7900000
0.4935000 0.7927500 0.7900000
0.7372500 0.7927500 0.7900000
0.9810000 0.7927500 0.7900000
0.0080000 1.0000000 0.7920000
0.2517500 1.0000000 0.7920000
0.4955000 1.0000000 0.7920000
0.7392500 1.0000000 0.7920000
0.9830000 1.0000000 0.7920000
0.0000000 0.0120000 1.0000000
0.2437500 0.0120000 1.0000000
0.4875000 0.0120000 1.0000000
0.7312500 0.0120000 1.0000000
0.9750000 0.0120000 1.0000000
0.0020000 0.2732500 1.0000000
0.2457500 0.2732500 1.0000000
0.4895000 0.2732500 1.0000000
0.7332500 0.2732500 1.0000000
0.9770000 0.2732500 1.0000000
0.0040000 0.5345000 1.0000000
0.2477500 0.5345000 1.0000000
0.4915000 0.5345000 1.0000000
0.7352500 0.5345000 1.0000000
0.9790000 0.5345000 1.0000000
0.0060000 0.7957500 1.0000000
0.2497500 0.7957500 1.0000000
0.4935000 0.7957500 1.0000000
0.7372500 0.7957500 1.0000000
0.9810000 0.7957500 1.0000000
0.0080000 1.0000000 1.0000000
0.2517500 1.0000000 1.0000000
0.4955000 1.0000000 1.0000000
0.7392500 1.0000000 1.0000000
0.9830000 1.0000000 1.0000000
