assets/color-grade/p2-builtin-filters/gentle-highlight.cube
# Real Landscape P2 self-developed content. Do not label as an official or original brand LUT.
# License: project-owned content, redistribution permitted with this notice.
TITLE "柔光层次"
# Internal ID: gentle-highlight
LUT_3D_SIZE 9
DOMAIN_MIN 0.0 0.0 0.0
DOMAIN_MAX 1.0 1.0 1.0
0.0000000 0.0000000 0.0000000
0.1345352 0.0000000 0.0007500
0.2667031 0.0000000 0.0015000
0.3965039 0.0000000 0.0022500
0.5239375 0.0000000 0.0030000
0.6490039 0.0000000 0.0037500
0.7717031 0.0000000 0.0045000
0.8920352 0.0000000 0.0052500
1.0000000 0.0000000 0.0060000
0.0000000 0.1332031 0.0000000
0.1345352 0.1332031 0.0007500
0.2667031 0.1332031 0.0015000
0.3965039 0.1332031 0.0022500
0.5239375 0.1332031 0.0030000
0.6490039 0.1332031 0.0037500
0.7717031 0.1332031 0.0045000
0.8920352 0.1332031 0.0052500
1.0000000 0.1332031 0.0060000
0.0000000 0.2640625 0.0000000
0.1345352 0.2640625 0.0007500
0.2667031 0.2640625 0.0015000
0.3965039 0.2640625 0.0022500
0.5239375 0.2640625 0.0030000
0.6490039 0.2640625 0.0037500
0.7717031 0.2640625 0.0045000
0.8920352 0.2640625 0.0052500
1.0000000 0.2640625 0.0060000
0.0000000 0.3925781 0.0000000
0.1345352 0.3925781 0.0007500
0.2667031 0.3925781 0.0015000
0.3965039 0.3925781 0.0022500
0.5239375 0.3925781 0.0030000
0.6490039 0.3925781 0.0037500
0.7717031 0.3925781 0.0045000
0.8920352 0.3925781 0.0052500
1.0000000 0.3925781 0.0060000
0.0000000 0.5187500 0.0000000
0.1345352 0.5187500 0.0007500
0.2667031 0.5187500 0.0015000
0.3965039 0.5187500 0.0022500
0.5239375 0.5187500 0.0030000
0.6490039 0.5187500 0.0037500
0.7717031 0.5187500 0.0045000
0.8920352 0.5187500 0.0052500
1.0000000 0.5187500 0.0060000
0.0000000 0.6425781 0.0000000
0.1345352 0.6425781 0.0007500
0.2667031 0.6425781 0.0015000
0.3965039 0.6425781 0.0022500
0.5239375 0.6425781 0.0030000
0.6490039 0.6425781 0.0037500
0.7717031 0.6425781 0.0045000
0.8920352 0.6425781 0.0052500
1.0000000 0.6425781 0.0060000
0.0000000 0.7640625 0.0000000
0.1345352 0.7640625 0.0007500
0.2667031 0.7640625 0.0015000
0.3965039 0.7640625 0.0022500
0.5239375 0.7640625 0.0030000
0.6490039 0.7640625 0.0037500
0.7717031 0.7640625 0.0045000
0.8920352 0.7640625 0.0052500
1.0000000 0.7640625 0.0060000
0.0000000 0.8832031 0.0000000
0.1345352 0.8832031 0.0007500
0.2667031 0.8832031 0.0015000
0.3965039 0.8832031 0.0022500
0.5239375 0.8832031 0.0030000
0.6490039 0.8832031 0.0037500
0.7717031 0.8832031 0.0045000
0.8920352 0.8832031 0.0052500
1.0000000 0.8832031 0.0060000
0.0000000 1.0000000 0.0000000
0.1345352 1.0000000 0.0007500
0.2667031 1.0000000 0.0015000
0.3965039 1.0000000 0.0022500
0.5239375 1.0000000 0.0030000
0.6490039 1.0000000 0.0037500
0.7717031 1.0000000 0.0045000
0.8920352 1.0000000 0.0052500
1.0000000 1.0000000 0.0060000
0.0000000 0.0000000 0.1312051
0.1345352 0.0000000 0.1319551
0.2667031 0.0000000 0.1327051
0.3965039 0.0000000 0.1334551
0.5239375 0.0000000 0.1342051
0.6490039 0.0000000 0.1349551
0.7717031 0.0000000 0.1357051
0.8920352 0.0000000 0.1364551
1.0000000 0.0000000 0.1372051
0.0000000 0.1332031 0.1312051
0.1345352 0.1332031 0.1319551
0.2667031 0.1332031 0.1327051
0.3965039 0.1332031 0.1334551
0.5239375 0.1332031 0.1342051
0.6490039 0.1332031 0.1349551
0.7717031 0.1332031 0.1357051
0.8920352 0.1332031 0.1364551
1.0000000 0.1332031 0.1372051
0.0000000 0.2640625 0.1312051
0.1345352 0.2640625 0.1319551
0.2667031 0.2640625 0.1327051
0.3965039 0.2640625 0.1334551
0.5239375 0.2640625 0.1342051
0.6490039 0.2640625 0.1349551
0.7717031 0.2640625 0.1357051
0.8920352 0.2640625 0.1364551
1.0000000 0.2640625 0.1372051
0.0000000 0.3925781 0.1312051
0.1345352 0.3925781 0.1319551
0.2667031 0.3925781 0.1327051
0.3965039 0.3925781 0.1334551
0.5239375 0.3925781 0.1342051
0.6490039 0.3925781 0.1349551
0.7717031 0.3925781 0.1357051
0.8920352 0.3925781 0.1364551
1.0000000 0.3925781 0.1372051
0.0000000 0.5187500 0.1312051
0.1345352 0.5187500 0.1319551
0.2667031 0.5187500 0.1327051
0.3965039 0.5187500 0.1334551
0.5239375 0.5187500 0.1342051
0.6490039 0.5187500 0.1349551
0.7717031 0.5187500 0.1357051
0.8920352 0.5187500 0.1364551
1.0000000 0.5187500 0.1372051
0.0000000 0.6425781 0.1312051
0.1345352 0.6425781 0.1319551
0.2667031 0.6425781 0.1327051
0.3965039 0.6425781 0.1334551
0.5239375 0.6425781 0.1342051
0.6490039 0.6425781 0.1349551
0.7717031 0.6425781 0.1357051
0.8920352 0.6425781 0.1364551
1.0000000 0.6425781 0.1372051
0.0000000 0.7640625 0.1312051
0.1345352 0.7640625 0.1319551
0.2667031 0.7640625 0.1327051
0.3965039 0.7640625 0.1334551
0.5239375 0.7640625 0.1342051
0.6490039 0.7640625 0.1349551
0.7717031 0.7640625 0.1357051
0.8920352 0.7640625 0.1364551
1.0000000 0.7640625 0.1372051
0.0000000 0.8832031 0.1312051
0.1345352 0.8832031 0.1319551
0.2667031 0.8832031 0.1327051
0.3965039 0.8832031 0.1334551
0.5239375 0.8832031 0.1342051
0.6490039 0.8832031 0.1349551
0.7717031 0.8832031 0.1357051
0.8920352 0.8832031 0.1364551
1.0000000 0.8832031 0.1372051
0.0000000 1.0000000 0.1312051
0.1345352 1.0000000 0.1319551
0.2667031 1.0000000 0.1327051
0.3965039 1.0000000 0.1334551
0.5239375 1.0000000 0.1342051
0.6490039 1.0000000 0.1349551
0.7717031 1.0000000 0.1357051
0.8920352 1.0000000 0.1364551
1.0000000 1.0000000 0.1372051
0.0000000 0.0000000 0.2601016
0.1345352 0.0000000 0.2608516
0.2667031 0.0000000 0.2616016
0.3965039 0.0000000 0.2623516
0.5239375 0.0000000 0.2631016
0.6490039 0.0000000 0.2638516
0.7717031 0.0000000 0.2646016
0.8920352 0.0000000 0.2653516
1.0000000 0.0000000 0.2661016
0.0000000 0.1332031 0.2601016
0.1345352 0.1332031 0.2608516
0.2667031 0.1332031 0.2616016
0.3965039 0.1332031 0.2623516
0.5239375 0.1332031 0.2631016
0.6490039 0.1332031 0.2638516
0.7717031 0.1332031 0.2646016
0.8920352 0.1332031 0.2653516
1.0000000 0.1332031 0.2661016
0.0000000 0.2640625 0.2601016
0.1345352 0.2640625 0.2608516
0.2667031 0.2640625 0.2616016
0.3965039 0.2640625 0.2623516
0.5239375 0.2640625 0.2631016
0.6490039 0.2640625 0.2638516
0.7717031 0.2640625 0.2646016
0.8920352 0.2640625 0.2653516
1.0000000 0.2640625 0.2661016
0.0000000 0.3925781 0.2601016
0.1345352 0.3925781 0.2608516
0.2667031 0.3925781 0.2616016
0.3965039 0.3925781 0.2623516
0.5239375 0.3925781 0.2631016
0.6490039 0.3925781 0.2638516
0.7717031 0.3925781 0.2646016
0.8920352 0.3925781 0.2653516
1.0000000 0.3925781 0.2661016
0.0000000 0.5187500 0.2601016
0.1345352 0.5187500 0.2608516
0.2667031 0.5187500 0.2616016
0.3965039 0.5187500 0.2623516
0.5239375 0.5187500 0.2631016
0.6490039 0.5187500 0.2638516
0.7717031 0.5187500 0.2646016
0.8920352 0.5187500 0.2653516
1.0000000 0.5187500 0.2661016
0.0000000 0.6425781 0.2601016
0.1345352 0.6425781 0.2608516
0.2667031 0.6425781 0.2616016
0.3965039 0.6425781 0.2623516
0.5239375 0.6425781 0.2631016
0.6490039 0.6425781 0.2638516
0.7717031 0.6425781 0.2646016
0.8920352 0.6425781 0.2653516
1.0000000 0.6425781 0.2661016
0.0000000 0.7640625 0.2601016
0.1345352 0.7640625 0.2608516
0.2667031 0.7640625 0.2616016
0.3965039 0.7640625 0.2623516
0.5239375 0.7640625 0.2631016
0.6490039 0.7640625 0.2638516
0.7717031 0.7640625 0.2646016
0.8920352 0.7640625 0.2653516
1.0000000 0.7640625 0.2661016
0.0000000 0.8832031 0.2601016
0.1345352 0.8832031 0.2608516
0.2667031 0.8832031 0.2616016
0.3965039 0.8832031 0.2623516
0.5239375 0.8832031 0.2631016
0.6490039 0.8832031 0.2638516
0.7717031 0.8832031 0.2646016
0.8920352 0.8832031 0.2653516
1.0000000 0.8832031 0.2661016
0.0000000 1.0000000 0.2601016
0.1345352 1.0000000 0.2608516
0.2667031 1.0000000 0.2616016
0.3965039 1.0000000 0.2623516
0.5239375 1.0000000 0.2631016
0.6490039 1.0000000 0.2638516
0.7717031 1.0000000 0.2646016
0.8920352 1.0000000 0.2653516
1.0000000 1.0000000 0.2661016
0.0000000 0.0000000 0.3866895
0.1345352 0.0000000 0.3874395
0.2667031 0.0000000 0.3881895
0.3965039 0.0000000 0.3889395
0.5239375 0.0000000 0.3896895
0.6490039 0.0000000 0.3904395
0.7717031 0.0000000 0.3911895
0.8920352 0.0000000 0.3919395
1.0000000 0.0000000 0.3926895
0.0000000 0.1332031 0.3866895
0.1345352 0.1332031 0.3874395
0.2667031 0.1332031 0.3881895
0.3965039 0.1332031 0.3889395
0.5239375 0.1332031 0.3896895
0.6490039 0.1332031 0.3904395
0.7717031 0.1332031 0.3911895
0.8920352 0.1332031 0.3919395
1.0000000 0.1332031 0.3926895
0.0000000 0.2640625 0.3866895
0.1345352 0.2640625 0.3874395
0.2667031 0.2640625 0.3881895
0.3965039 0.2640625 0.3889395
0.5239375 0.2640625 0.3896895
0.6490039 0.2640625 0.3904395
0.7717031 0.2640625 0.3911895
0.8920352 0.2640625 0.3919395
1.0000000 0.2640625 0.3926895
0.0000000 0.3925781 0.3866895
0.1345352 0.3925781 0.3874395
0.2667031 0.3925781 0.3881895
0.3965039 0.3925781 0.3889395
0.5239375 0.3925781 0.3896895
0.6490039 0.3925781 0.3904395
0.7717031 0.3925781 0.3911895
0.8920352 0.3925781 0.3919395
1.0000000 0.3925781 0.3926895
0.0000000 0.5187500 0.3866895
0.1345352 0.5187500 0.3874395
0.2667031 0.5187500 0.3881895
0.3965039 0.5187500 0.3889395
0.5239375 0.5187500 0.3896895
0.6490039 0.5187500 0.3904395
0.7717031 0.5187500 0.3911895
0.8920352 0.5187500 0.3919395
1.0000000 0.5187500 0.3926895
0.0000000 0.6425781 0.3866895
0.1345352 0.6425781 0.3874395
0.2667031 0.6425781 0.3881895
0.3965039 0.6425781 0.3889395
0.5239375 0.6425781 0.3896895
0.6490039 0.6425781 0.3904395
0.7717031 0.6425781 0.3911895
0.8920352 0.6425781 0.3919395
1.0000000 0.6425781 0.3926895
0.0000000 0.7640625 0.3866895
0.1345352 0.7640625 0.3874395
0.2667031 0.7640625 0.3881895
0.3965039 0.7640625 0.3889395
0.5239375 0.7640625 0.3896895
0.6490039 0.7640625 0.3904395
0.7717031 0.7640625 0.3911895
0.8920352 0.7640625 0.3919395
1.0000000 0.7640625 0.3926895
0.0000000 0.8832031 0.3866895
0.1345352 0.8832031 0.3874395
0.2667031 0.8832031 0.3881895
0.3965039 0.8832031 0.3889395
0.5239375 0.8832031 0.3896895
0.6490039 0.8832031 0.3904395
0.7717031 0.8832031 0.3911895
0.8920352 0.8832031 0.3919395
1.0000000 0.8832031 0.3926895
0.0000000 1.0000000 0.3866895
0.1345352 1.0000000 0.3874395
0.2667031 1.0000000 0.3881895
0.3965039 1.0000000 0.3889395
0.5239375 1.0000000 0.3896895
0.6490039 1.0000000 0.3904395
0.7717031 1.0000000 0.3911895
0.8920352 1.0000000 0.3919395
1.0000000 1.0000000 0.3926895
0.0000000 0.0000000 0.5109688
0.1345352 0.0000000 0.5117188
0.2667031 0.0000000 0.5124688
0.3965039 0.0000000 0.5132188
0.5239375 0.0000000 0.5139688
0.6490039 0.0000000 0.5147188
0.7717031 0.0000000 0.5154688
0.8920352 0.0000000 0.5162188
1.0000000 0.0000000 0.5169688
0.0000000 0.1332031 0.5109688
0.1345352 0.1332031 0.5117188
0.2667031 0.1332031 0.5124688
0.3965039 0.1332031 0.5132188
0.5239375 0.1332031 0.5139688
0.6490039 0.1332031 0.5147188
0.7717031 0.1332031 0.5154688
0.8920352 0.1332031 0.5162188
1.0000000 0.1332031 0.5169688
0.0000000 0.2640625 0.5109688
0.1345352 0.2640625 0.5117188
0.2667031 0.2640625 0.5124688
0.3965039 0.2640625 0.5132188
0.5239375 0.2640625 0.5139688
0.6490039 0.2640625 0.5147188
0.7717031 0.2640625 0.5154688
0.8920352 0.2640625 0.5162188
1.0000000 0.2640625 0.5169688
0.0000000 0.3925781 0.5109688
0.1345352 0.3925781 0.5117188
0.2667031 0.3925781 0.5124688
0.3965039 0.3925781 0.5132188
0.5239375 0.3925781 0.5139688
0.6490039 0.3925781 0.5147188
0.7717031 0.3925781 0.5154688
0.8920352 0.3925781 0.5162188
1.0000000 0.3925781 0.5169688
0.0000000 0.5187500 0.5109688
0.1345352 0.5187500 0.5117188
0.2667031 0.5187500 0.5124688
0.3965039 0.5187500 0.5132188
0.5239375 0.5187500 0.5139688
0.6490039 0.5187500 0.5147188
0.7717031 0.5187500 0.5154688
0.8920352 0.5187500 0.5162188
1.0000000 0.5187500 0.5169688
0.0000000 0.6425781 0.5109688
0.1345352 0.6425781 0.5117188
0.2667031 0.6425781 0.5124688
0.3965039 0.6425781 0.5132188
0.5239375 0.6425781 0.5139688
0.6490039 0.6425781 0.5147188
0.7717031 0.6425781 0.5154688
0.8920352 0.6425781 0.5162188
1.0000000 0.6425781 0.5169688
0.0000000 0.7640625 0.5109688
0.1345352 0.7640625 0.5117188
0.2667031 0.7640625 0.5124688
0.3965039 0.7640625 0.5132188
0.5239375 0.7640625 0.5139688
0.6490039 0.7640625 0.5147188
0.7717031 0.7640625 0.5154688
0.8920352 0.7640625 0.5162188
1.0000000 0.7640625 0.5169688
0.0000000 0.8832031 0.5109688
0.1345352 0.8832031 0.5117188
0.2667031 0.8832031 0.5124688
0.3965039 0.8832031 0.5132188
0.5239375 0.8832031 0.5139688
0.6490039 0.8832031 0.5147188
0.7717031 0.8832031 0.5154688
0.8920352 0.8832031 0.5162188
1.0000000 0.8832031 0.5169688
0.0000000 1.0000000 0.5109688
0.1345352 1.0000000 0.5117188
0.2667031 1.0000000 0.5124688
0.3965039 1.0000000 0.5132188
0.5239375 1.0000000 0.5139688
0.6490039 1.0000000 0.5147188
0.7717031 1.0000000 0.5154688
0.8920352 1.0000000 0.5162188
1.0000000 1.0000000 0.5169688
0.0000000 0.0000000 0.6329395
0.1345352 0.0000000 0.6336895
0.2667031 0.0000000 0.6344395
0.3965039 0.0000000 0.6351895
0.5239375 0.0000000 0.6359395
0.6490039 0.0000000 0.6366895
0.7717031 0.0000000 0.6374395
0.8920352 0.0000000 0.6381895
1.0000000 0.0000000 0.6389395
0.0000000 0.1332031 0.6329395
0.1345352 0.1332031 0.6336895
0.2667031 0.1332031 0.6344395
0.3965039 0.1332031 0.6351895
0.5239375 0.1332031 0.6359395
0.6490039 0.1332031 0.6366895
0.7717031 0.1332031 0.6374395
0.8920352 0.1332031 0.6381895
1.0000000 0.1332031 0.6389395
0.0000000 0.2640625 0.6329395
0.1345352 0.2640625 0.6336895
0.2667031 0.2640625 0.6344395
0.3965039 0.2640625 0.6351895
0.5239375 0.2640625 0.6359395
0.6490039 0.2640625 0.6366895
0.7717031 0.2640625 0.6374395
0.8920352 0.2640625 0.6381895
1.0000000 0.2640625 0.6389395
0.0000000 0.3925781 0.6329395
0.1345352 0.3925781 0.6336895
0.2667031 0.3925781 0.6344395
0.3965039 0.3925781 0.6351895
0.5239375 0.3925781 0.6359395
0.6490039 0.3925781 0.6366895
0.7717031 0.3925781 0.6374395
0.8920352 0.3925781 0.6381895
1.0000000 0.3925781 0.6389395
0.0000000 0.5187500 0.6329395
0.1345352 0.5187500 0.6336895
0.2667031 0.5187500 0.6344395
0.3965039 0.5187500 0.6351895
0.5239375 0.5187500 0.6359395
0.6490039 0.5187500 0.6366895
0.7717031 0.5187500 0.6374395
0.8920352 0.5187500 0.6381895
1.0000000 0.5187500 0.6389395
0.0000000 0.6425781 0.6329395
0.1345352 0.6425781 0.6336895
0.2667031 0.6425781 0.6344395
0.3965039 0.6425781 0.6351895
0.5239375 0.6425781 0.6359395
0.6490039 0.6425781 0.6366895
0.7717031 0.6425781 0.6374395
0.8920352 0.6425781 0.6381895
1.0000000 0.6425781 0.6389395
0.0000000 0.7640625 0.6329395
0.1345352 0.7640625 0.6336895
0.2667031 0.7640625 0.6344395
0.3965039 0.7640625 0.6351895
0.5239375 0.7640625 0.6359395
0.6490039 0.7640625 0.6366895
0.7717031 0.7640625 0.6374395
0.8920352 0.7640625 0.6381895
1.0000000 0.7640625 0.6389395
0.0000000 0.8832031 0.6329395
0.1345352 0.8832031 0.6336895
0.2667031 0.8832031 0.6344395
0.3965039 0.8832031 0.6351895
0.5239375 0.8832031 0.6359395
0.6490039 0.8832031 0.6366895
0.7717031 0.8832031 0.6374395
0.8920352 0.8832031 0.6381895
1.0000000 0.8832031 0.6389395
0.0000000 1.0000000 0.6329395
0.1345352 1.0000000 0.6336895
0.2667031 1.0000000 0.6344395
0.3965039 1.0000000 0.6351895
0.5239375 1.0000000 0.6359395
0.6490039 1.0000000 0.6366895
0.7717031 1.0000000 0.6374395
0.8920352 1.0000000 0.6381895
1.0000000 1.0000000 0.6389395
0.0000000 0.0000000 0.7526016
0.1345352 0.0000000 0.7533516
0.2667031 0.0000000 0.7541016
0.3965039 0.0000000 0.7548516
0.5239375 0.0000000 0.7556016
0.6490039 0.0000000 0.7563516
0.7717031 0.0000000 0.7571016
0.8920352 0.0000000 0.7578516
1.0000000 0.0000000 0.7586016
0.0000000 0.1332031 0.7526016
0.1345352 0.1332031 0.7533516
0.2667031 0.1332031 0.7541016
0.3965039 0.1332031 0.7548516
0.5239375 0.1332031 0.7556016
0.6490039 0.1332031 0.7563516
0.7717031 0.1332031 0.7571016
0.8920352 0.1332031 0.7578516
1.0000000 0.1332031 0.7586016
0.0000000 0.2640625 0.7526016
0.1345352 0.2640625 0.7533516
0.2667031 0.2640625 0.7541016
0.3965039 0.2640625 0.7548516
0.5239375 0.2640625 0.7556016
0.6490039 0.2640625 0.7563516
0.7717031 0.2640625 0.7571016
0.8920352 0.2640625 0.7578516
1.0000000 0.2640625 0.7586016
0.0000000 0.3925781 0.7526016
0.1345352 0.3925781 0.7533516
0.2667031 0.3925781 0.7541016
0.3965039 0.3925781 0.7548516
0.5239375 0.3925781 0.7556016
0.6490039 0.3925781 0.7563516
0.7717031 0.3925781 0.7571016
0.8920352 0.3925781 0.7578516
1.0000000 0.3925781 0.7586016
0.0000000 0.5187500 0.7526016
0.1345352 0.5187500 0.7533516
0.2667031 0.5187500 0.7541016
0.3965039 0.5187500 0.7548516
0.5239375 0.5187500 0.7556016
0.6490039 0.5187500 0.7563516
0.7717031 0.5187500 0.7571016
0.8920352 0.5187500 0.7578516
1.0000000 0.5187500 0.7586016
0.0000000 0.6425781 0.7526016
0.1345352 0.6425781 0.7533516
0.2667031 0.6425781 0.7541016
0.3965039 0.6425781 0.7548516
0.5239375 0.6425781 0.7556016
0.6490039 0.6425781 0.7563516
0.7717031 0.6425781 0.7571016
0.8920352 0.6425781 0.7578516
1.0000000 0.6425781 0.7586016
0.0000000 0.7640625 0.7526016
0.1345352 0.7640625 0.7533516
0.2667031 0.7640625 0.7541016
0.3965039 0.7640625 0.7548516
0.5239375 0.7640625 0.7556016
0.6490039 0.7640625 0.7563516
0.7717031 0.7640625 0.7571016
0.8920352 0.7640625 0.7578516
1.0000000 0.7640625 0.7586016
0.0000000 0.8832031 0.7526016
0.1345352 0.8832031 0.7533516
0.2667031 0.8832031 0.7541016
0.3965039 0.8832031 0.7548516
0.5239375 0.8832031 0.7556016
0.6490039 0.8832031 0.7563516
0.7717031 0.8832031 0.7571016
0.8920352 0.8832031 0.7578516
1.0000000 0.8832031 0.7586016
0.0000000 1.0000000 0.7526016
0.1345352 1.0000000 0.7533516
0.2667031 1.0000000 0.7541016
0.3965039 1.0000000 0.7548516
0.5239375 1.0000000 0.7556016
0.6490039 1.0000000 0.7563516
0.7717031 1.0000000 0.7571016
0.8920352 1.0000000 0.7578516
1.0000000 1.0000000 0.7586016
0.0000000 0.0000000 0.8699551
0.1345352 0.0000000 0.8707051
0.2667031 0.0000000 0.8714551
0.3965039 0.0000000 0.8722051
0.5239375 0.0000000 0.8729551
0.6490039 0.0000000 0.8737051
0.7717031 0.0000000 0.8744551
0.8920352 0.0000000 0.8752051
1.0000000 0.0000000 0.8759551
0.0000000 0.1332031 0.8699551
0.1345352 0.1332031 0.8707051
0.2667031 0.1332031 0.8714551
0.3965039 0.1332031 0.8722051
0.5239375 0.1332031 0.8729551
0.6490039 0.1332031 0.8737051
0.7717031 0.1332031 0.8744551
0.8920352 0.1332031 0.8752051
1.0000000 0.1332031 0.8759551
0.0000000 0.2640625 0.8699551
0.1345352 0.2640625 0.8707051
0.2667031 0.2640625 0.8714551
0.3965039 0.2640625 0.8722051
0.5239375 0.2640625 0.8729551
0.6490039 0.2640625 0.8737051
0.7717031 0.2640625 0.8744551
0.8920352 0.2640625 0.8752051
1.0000000 0.2640625 0.8759551
0.0000000 0.3925781 0.8699551
0.1345352 0.3925781 0.8707051
0.2667031 0.3925781 0.8714551
0.3965039 0.3925781 0.8722051
0.5239375 0.3925781 0.8729551
0.6490039 0.3925781 0.8737051
0.7717031 0.3925781 0.8744551
0.8920352 0.3925781 0.8752051
1.0000000 0.3925781 0.8759551
0.0000000 0.5187500 0.8699551
0.1345352 0.5187500 0.8707051
0.2667031 0.5187500 0.8714551
0.3965039 0.5187500 0.8722051
0.5239375 0.5187500 0.8729551
0.6490039 0.5187500 0.8737051
0.7717031 0.5187500 0.8744551
0.8920352 0.5187500 0.8752051
1.0000000 0.5187500 0.8759551
0.0000000 0.6425781 0.8699551
0.1345352 0.6425781 0.8707051
0.2667031 0.6425781 0.8714551
0.3965039 0.6425781 0.8722051
0.5239375 0.6425781 0.8729551
0.6490039 0.6425781 0.8737051
0.7717031 0.6425781 0.8744551
0.8920352 0.6425781 0.8752051
1.0000000 0.6425781 0.8759551
0.0000000 0.7640625 0.8699551
0.1345352 0.7640625 0.8707051
0.2667031 0.7640625 0.8714551
0.3965039 0.7640625 0.8722051
0.5239375 0.7640625 0.8729551
0.6490039 0.7640625 0.8737051
0.7717031 0.7640625 0.8744551
0.8920352 0.7640625 0.8752051
1.0000000 0.7640625 0.8759551
0.0000000 0.8832031 0.8699551
0.1345352 0.8832031 0.8707051
0.2667031 0.8832031 0.8714551
0.3965039 0.8832031 0.8722051
0.5239375 0.8832031 0.8729551
0.6490039 0.8832031 0.8737051
0.7717031 0.8832031 0.8744551
0.8920352 0.8832031 0.8752051
1.0000000 0.8832031 0.8759551
0.0000000 1.0000000 0.8699551
0.1345352 1.0000000 0.8707051
0.2667031 1.0000000 0.8714551
0.3965039 1.0000000 0.8722051
0.5239375 1.0000000 0.8729551
0.6490039 1.0000000 0.8737051
0.7717031 1.0000000 0.8744551
0.8920352 1.0000000 0.8752051
1.0000000 1.0000000 0.8759551
0.0000000 0.0000000 0.9850000
0.1345352 0.0000000 0.9857500
0.2667031 0.0000000 0.9865000
0.3965039 0.0000000 0.9872500
0.5239375 0.0000000 0.9880000
0.6490039 0.0000000 0.9887500
0.7717031 0.0000000 0.9895000
0.8920352 0.0000000 0.9902500
1.0000000 0.0000000 0.9910000
0.0000000 0.1332031 0.9850000
0.1345352 0.1332031 0.9857500
0.2667031 0.1332031 0.9865000
0.3965039 0.1332031 0.9872500
0.5239375 0.1332031 0.9880000
0.6490039 0.1332031 0.9887500
0.7717031 0.1332031 0.9895000
0.8920352 0.1332031 0.9902500
1.0000000 0.1332031 0.9910000
0.0000000 0.2640625 0.9850000
0.1345352 0.2640625 0.9857500
0.2667031 0.2640625 0.9865000
0.3965039 0.2640625 0.9872500
0.5239375 0.2640625 0.9880000
0.6490039 0.2640625 0.9887500
0.7717031 0.2640625 0.9895000
0.8920352 0.2640625 0.9902500
1.0000000 0.2640625 0.9910000
0.0000000 0.3925781 0.9850000
0.1345352 0.3925781 0.9857500
0.2667031 0.3925781 0.9865000
0.3965039 0.3925781 0.9872500
0.5239375 0.3925781 0.9880000
0.6490039 0.3925781 0.9887500
0.7717031 0.3925781 0.9895000
0.8920352 0.3925781 0.9902500
1.0000000 0.3925781 0.9910000
0.0000000 0.5187500 0.9850000
0.1345352 0.5187500 0.9857500
0.2667031 0.5187500 0.9865000
0.3965039 0.5187500 0.9872500
0.5239375 0.5187500 0.9880000
0.6490039 0.5187500 0.9887500
0.7717031 0.5187500 0.9895000
0.8920352 0.5187500 0.9902500
1.0000000 0.5187500 0.9910000
0.0000000 0.6425781 0.9850000
0.1345352 0.6425781 0.9857500
0.2667031 0.6425781 0.9865000
0.3965039 0.6425781 0.9872500
0.5239375 0.6425781 0.9880000
0.6490039 0.6425781 0.9887500
0.7717031 0.6425781 0.9895000
0.8920352 0.6425781 0.9902500
1.0000000 0.6425781 0.9910000
0.0000000 0.7640625 0.9850000
0.1345352 0.7640625 0.9857500
0.2667031 0.7640625 0.9865000
0.3965039 0.7640625 0.9872500
0.5239375 0.7640625 0.9880000
0.6490039 0.7640625 0.9887500
0.7717031 0.7640625 0.9895000
0.8920352 0.7640625 0.9902500
1.0000000 0.7640625 0.9910000
0.0000000 0.8832031 0.9850000
0.1345352 0.8832031 0.9857500
0.2667031 0.8832031 0.9865000
0.3965039 0.8832031 0.9872500
0.5239375 0.8832031 0.9880000
0.6490039 0.8832031 0.9887500
0.7717031 0.8832031 0.9895000
0.8920352 0.8832031 0.9902500
1.0000000 0.8832031 0.9910000
0.0000000 1.0000000 0.9850000
0.1345352 1.0000000 0.9857500
0.2667031 1.0000000 0.9865000
0.3965039 1.0000000 0.9872500
0.5239375 1.0000000 0.9880000
0.6490039 1.0000000 0.9887500
0.7717031 1.0000000 0.9895000
0.8920352 1.0000000 0.9902500
1.0000000 1.0000000 0.9910000
