assets/color-grade/p2-builtin-filters/gentle-highlight.cube
# Real Landscape P2 self-developed content. Do not label as an official or original brand LUT.
# License: project-owned content, redistribution permitted with this notice.
TITLE "柔光层次"
# Internal ID: gentle-highlight
LUT_3D_SIZE 17
DOMAIN_MIN 0.0 0.0 0.0
DOMAIN_MAX 1.0 1.0 1.0
0.0000000 0.0000000 0.0000000
0.0675635 0.0000000 0.0003750
0.1345352 0.0000000 0.0007500
0.2009150 0.0000000 0.0011250
0.2667031 0.0000000 0.0015000
0.3318994 0.0000000 0.0018750
0.3965039 0.0000000 0.0022500
0.4605166 0.0000000 0.0026250
0.5239375 0.0000000 0.0030000
0.5867666 0.0000000 0.0033750
0.6490039 0.0000000 0.0037500
0.7106494 0.0000000 0.0041250
0.7717031 0.0000000 0.0045000
0.8321650 0.0000000 0.0048750
0.8920352 0.0000000 0.0052500
0.9513135 0.0000000 0.0056250
1.0000000 0.0000000 0.0060000
0.0000000 0.0668945 0.0000000
0.0675635 0.0668945 0.0003750
0.1345352 0.0668945 0.0007500
0.2009150 0.0668945 0.0011250
0.2667031 0.0668945 0.0015000
0.3318994 0.0668945 0.0018750
0.3965039 0.0668945 0.0022500
0.4605166 0.0668945 0.0026250
0.5239375 0.0668945 0.0030000
0.5867666 0.0668945 0.0033750
0.6490039 0.0668945 0.0037500
0.7106494 0.0668945 0.0041250
0.7717031 0.0668945 0.0045000
0.8321650 0.0668945 0.0048750
0.8920352 0.0668945 0.0052500
0.9513135 0.0668945 0.0056250
1.0000000 0.0668945 0.0060000
0.0000000 0.1332031 0.0000000
0.0675635 0.1332031 0.0003750
0.1345352 0.1332031 0.0007500
0.2009150 0.1332031 0.0011250
0.2667031 0.1332031 0.0015000
0.3318994 0.1332031 0.0018750
0.3965039 0.1332031 0.0022500
0.4605166 0.1332031 0.0026250
0.5239375 0.1332031 0.0030000
0.5867666 0.1332031 0.0033750
0.6490039 0.1332031 0.0037500
0.7106494 0.1332031 0.0041250
0.7717031 0.1332031 0.0045000
0.8321650 0.1332031 0.0048750
0.8920352 0.1332031 0.0052500
0.9513135 0.1332031 0.0056250
1.0000000 0.1332031 0.0060000
0.0000000 0.1989258 0.0000000
0.0675635 0.1989258 0.0003750
0.1345352 0.1989258 0.0007500
0.2009150 0.1989258 0.0011250
0.2667031 0.1989258 0.0015000
0.3318994 0.1989258 0.0018750
0.3965039 0.1989258 0.0022500
0.4605166 0.1989258 0.0026250
0.5239375 0.1989258 0.0030000
0.5867666 0.1989258 0.0033750
0.6490039 0.1989258 0.0037500
0.7106494 0.1989258 0.0041250
0.7717031 0.1989258 0.0045000
0.8321650 0.1989258 0.0048750
0.8920352 0.1989258 0.0052500
0.9513135 0.1989258 0.0056250
1.0000000 0.1989258 0.0060000
0.0000000 0.2640625 0.0000000
0.0675635 0.2640625 0.0003750
0.1345352 0.2640625 0.0007500
0.2009150 0.2640625 0.0011250
0.2667031 0.2640625 0.0015000
0.3318994 0.2640625 0.0018750
0.3965039 0.2640625 0.0022500
0.4605166 0.2640625 0.0026250
0.5239375 0.2640625 0.0030000
0.5867666 0.2640625 0.0033750
0.6490039 0.2640625 0.0037500
0.7106494 0.2640625 0.0041250
0.7717031 0.2640625 0.0045000
0.8321650 0.2640625 0.0048750
0.8920352 0.2640625 0.0052500
0.9513135 0.2640625 0.0056250
1.0000000 0.2640625 0.0060000
0.0000000 0.3286133 0.0000000
0.0675635 0.3286133 0.0003750
0.1345352 0.3286133 0.0007500
0.2009150 0.3286133 0.0011250
0.2667031 0.3286133 0.0015000
0.3318994 0.3286133 0.0018750
0.3965039 0.3286133 0.0022500
0.4605166 0.3286133 0.0026250
0.5239375 0.3286133 0.0030000
0.5867666 0.3286133 0.0033750
0.6490039 0.3286133 0.0037500
0.7106494 0.3286133 0.0041250
0.7717031 0.3286133 0.0045000
0.8321650 0.3286133 0.0048750
0.8920352 0.3286133 0.0052500
0.9513135 0.3286133 0.0056250
1.0000000 0.3286133 0.0060000
0.0000000 0.3925781 0.0000000
0.0675635 0.3925781 0.0003750
0.1345352 0.3925781 0.0007500
0.2009150 0.3925781 0.0011250
0.2667031 0.3925781 0.0015000
0.3318994 0.3925781 0.0018750
0.3965039 0.3925781 0.0022500
0.4605166 0.3925781 0.0026250
0.5239375 0.3925781 0.0030000
0.5867666 0.3925781 0.0033750
0.6490039 0.3925781 0.0037500
0.7106494 0.3925781 0.0041250
0.7717031 0.3925781 0.0045000
0.8321650 0.3925781 0.0048750
0.8920352 0.3925781 0.0052500
0.9513135 0.3925781 0.0056250
1.0000000 0.3925781 0.0060000
0.0000000 0.4559570 0.0000000
0.0675635 0.4559570 0.0003750
0.1345352 0.4559570 0.0007500
0.2009150 0.4559570 0.0011250
0.2667031 0.4559570 0.0015000
0.3318994 0.4559570 0.0018750
0.3965039 0.4559570 0.0022500
0.4605166 0.4559570 0.0026250
0.5239375 0.4559570 0.0030000
0.5867666 0.4559570 0.0033750
0.6490039 0.4559570 0.0037500
0.7106494 0.4559570 0.0041250
0.7717031 0.4559570 0.0045000
0.8321650 0.4559570 0.0048750
0.8920352 0.4559570 0.0052500
0.9513135 0.4559570 0.0056250
1.0000000 0.4559570 0.0060000
0.0000000 0.5187500 0.0000000
0.0675635 0.5187500 0.0003750
0.1345352 0.5187500 0.0007500
0.2009150 0.5187500 0.0011250
0.2667031 0.5187500 0.0015000
0.3318994 0.5187500 0.0018750
0.3965039 0.5187500 0.0022500
0.4605166 0.5187500 0.0026250
0.5239375 0.5187500 0.0030000
0.5867666 0.5187500 0.0033750
0.6490039 0.5187500 0.0037500
0.7106494 0.5187500 0.0041250
0.7717031 0.5187500 0.0045000
0.8321650 0.5187500 0.0048750
0.8920352 0.5187500 0.0052500
0.9513135 0.5187500 0.0056250
1.0000000 0.5187500 0.0060000
0.0000000 0.5809570 0.0000000
0.0675635 0.5809570 0.0003750
0.1345352 0.5809570 0.0007500
0.2009150 0.5809570 0.0011250
0.2667031 0.5809570 0.0015000
0.3318994 0.5809570 0.0018750
0.3965039 0.5809570 0.0022500
0.4605166 0.5809570 0.0026250
0.5239375 0.5809570 0.0030000
0.5867666 0.5809570 0.0033750
0.6490039 0.5809570 0.0037500
0.7106494 0.5809570 0.0041250
0.7717031 0.5809570 0.0045000
0.8321650 0.5809570 0.0048750
0.8920352 0.5809570 0.0052500
0.9513135 0.5809570 0.0056250
1.0000000 0.5809570 0.0060000
0.0000000 0.6425781 0.0000000
0.0675635 0.6425781 0.0003750
0.1345352 0.6425781 0.0007500
0.2009150 0.6425781 0.0011250
0.2667031 0.6425781 0.0015000
0.3318994 0.6425781 0.0018750
0.3965039 0.6425781 0.0022500
0.4605166 0.6425781 0.0026250
0.5239375 0.6425781 0.0030000
0.5867666 0.6425781 0.0033750
0.6490039 0.6425781 0.0037500
0.7106494 0.6425781 0.0041250
0.7717031 0.6425781 0.0045000
0.8321650 0.6425781 0.0048750
0.8920352 0.6425781 0.0052500
0.9513135 0.6425781 0.0056250
1.0000000 0.6425781 0.0060000
0.0000000 0.7036133 0.0000000
0.0675635 0.7036133 0.0003750
0.1345352 0.7036133 0.0007500
0.2009150 0.7036133 0.0011250
0.2667031 0.7036133 0.0015000
0.3318994 0.7036133 0.0018750
0.3965039 0.7036133 0.0022500
0.4605166 0.7036133 0.0026250
0.5239375 0.7036133 0.0030000
0.5867666 0.7036133 0.0033750
0.6490039 0.7036133 0.0037500
0.7106494 0.7036133 0.0041250
0.7717031 0.7036133 0.0045000
0.8321650 0.7036133 0.0048750
0.8920352 0.7036133 0.0052500
0.9513135 0.7036133 0.0056250
1.0000000 0.7036133 0.0060000
0.0000000 0.7640625 0.0000000
0.0675635 0.7640625 0.0003750
0.1345352 0.7640625 0.0007500
0.2009150 0.7640625 0.0011250
0.2667031 0.7640625 0.0015000
0.3318994 0.7640625 0.0018750
0.3965039 0.7640625 0.0022500
0.4605166 0.7640625 0.0026250
0.5239375 0.7640625 0.0030000
0.5867666 0.7640625 0.0033750
0.6490039 0.7640625 0.0037500
0.7106494 0.7640625 0.0041250
0.7717031 0.7640625 0.0045000
0.8321650 0.7640625 0.0048750
0.8920352 0.7640625 0.0052500
0.9513135 0.7640625 0.0056250
1.0000000 0.7640625 0.0060000
0.0000000 0.8239258 0.0000000
0.0675635 0.8239258 0.0003750
0.1345352 0.8239258 0.0007500
0.2009150 0.8239258 0.0011250
0.2667031 0.8239258 0.0015000
0.3318994 0.8239258 0.0018750
0.3965039 0.8239258 0.0022500
0.4605166 0.8239258 0.0026250
0.5239375 0.8239258 0.0030000
0.5867666 0.8239258 0.0033750
0.6490039 0.8239258 0.0037500
0.7106494 0.8239258 0.0041250
0.7717031 0.8239258 0.0045000
0.8321650 0.8239258 0.0048750
0.8920352 0.8239258 0.0052500
0.9513135 0.8239258 0.0056250
1.0000000 0.8239258 0.0060000
0.0000000 0.8832031 0.0000000
0.0675635 0.8832031 0.0003750
0.1345352 0.8832031 0.0007500
0.2009150 0.8832031 0.0011250
0.2667031 0.8832031 0.0015000
0.3318994 0.8832031 0.0018750
0.3965039 0.8832031 0.0022500
0.4605166 0.8832031 0.0026250
0.5239375 0.8832031 0.0030000
0.5867666 0.8832031 0.0033750
0.6490039 0.8832031 0.0037500
0.7106494 0.8832031 0.0041250
0.7717031 0.8832031 0.0045000
0.8321650 0.8832031 0.0048750
0.8920352 0.8832031 0.0052500
0.9513135 0.8832031 0.0056250
1.0000000 0.8832031 0.0060000
0.0000000 0.9418945 0.0000000
0.0675635 0.9418945 0.0003750
0.1345352 0.9418945 0.0007500
0.2009150 0.9418945 0.0011250
0.2667031 0.9418945 0.0015000
0.3318994 0.9418945 0.0018750
0.3965039 0.9418945 0.0022500
0.4605166 0.9418945 0.0026250
0.5239375 0.9418945 0.0030000
0.5867666 0.9418945 0.0033750
0.6490039 0.9418945 0.0037500
0.7106494 0.9418945 0.0041250
0.7717031 0.9418945 0.0045000
0.8321650 0.9418945 0.0048750
0.8920352 0.9418945 0.0052500
0.9513135 0.9418945 0.0056250
1.0000000 0.9418945 0.0060000
0.0000000 1.0000000 0.0000000
0.0675635 1.0000000 0.0003750
0.1345352 1.0000000 0.0007500
0.2009150 1.0000000 0.0011250
0.2667031 1.0000000 0.0015000
0.3318994 1.0000000 0.0018750
0.3965039 1.0000000 0.0022500
0.4605166 1.0000000 0.0026250
0.5239375 1.0000000 0.0030000
0.5867666 1.0000000 0.0033750
0.6490039 1.0000000 0.0037500
0.7106494 1.0000000 0.0041250
0.7717031 1.0000000 0.0045000
0.8321650 1.0000000 0.0048750
0.8920352 1.0000000 0.0052500
0.9513135 1.0000000 0.0056250
1.0000000 1.0000000 0.0060000
0.0000000 0.0000000 0.0658911
0.0675635 0.0000000 0.0662661
0.1345352 0.0000000 0.0666411
0.2009150 0.0000000 0.0670161
0.2667031 0.0000000 0.0673911
0.3318994 0.0000000 0.0677661
0.3965039 0.0000000 0.0681411
0.4605166 0.0000000 0.0685161
0.5239375 0.0000000 0.0688911
0.5867666 0.0000000 0.0692661
0.6490039 0.0000000 0.0696411
0.7106494 0.0000000 0.0700161
0.7717031 0.0000000 0.0703911
0.8321650 0.0000000 0.0707661
0.8920352 0.0000000 0.0711411
0.9513135 0.0000000 0.0715161
1.0000000 0.0000000 0.0718911
0.0000000 0.0668945 0.0658911
0.0675635 0.0668945 0.0662661
0.1345352 0.0668945 0.0666411
0.2009150 0.0668945 0.0670161
0.2667031 0.0668945 0.0673911
0.3318994 0.0668945 0.0677661
0.3965039 0.0668945 0.0681411
0.4605166 0.0668945 0.0685161
0.5239375 0.0668945 0.0688911
0.5867666 0.0668945 0.0692661
0.6490039 0.0668945 0.0696411
0.7106494 0.0668945 0.0700161
0.7717031 0.0668945 0.0703911
0.8321650 0.0668945 0.0707661
0.8920352 0.0668945 0.0711411
0.9513135 0.0668945 0.0715161
1.0000000 0.0668945 0.0718911
0.0000000 0.1332031 0.0658911
0.0675635 0.1332031 0.0662661
0.1345352 0.1332031 0.0666411
0.2009150 0.1332031 0.0670161
0.2667031 0.1332031 0.0673911
0.3318994 0.1332031 0.0677661
0.3965039 0.1332031 0.0681411
0.4605166 0.1332031 0.0685161
0.5239375 0.1332031 0.0688911
0.5867666 0.1332031 0.0692661
0.6490039 0.1332031 0.0696411
0.7106494 0.1332031 0.0700161
0.7717031 0.1332031 0.0703911
0.8321650 0.1332031 0.0707661
0.8920352 0.1332031 0.0711411
0.9513135 0.1332031 0.0715161
1.0000000 0.1332031 0.0718911
0.0000000 0.1989258 0.0658911
0.0675635 0.1989258 0.0662661
0.1345352 0.1989258 0.0666411
0.2009150 0.1989258 0.0670161
0.2667031 0.1989258 0.0673911
0.3318994 0.1989258 0.0677661
0.3965039 0.1989258 0.0681411
0.4605166 0.1989258 0.0685161
0.5239375 0.1989258 0.0688911
0.5867666 0.1989258 0.0692661
0.6490039 0.1989258 0.0696411
0.7106494 0.1989258 0.0700161
0.7717031 0.1989258 0.0703911
0.8321650 0.1989258 0.0707661
0.8920352 0.1989258 0.0711411
0.9513135 0.1989258 0.0715161
1.0000000 0.1989258 0.0718911
0.0000000 0.2640625 0.0658911
0.0675635 0.2640625 0.0662661
0.1345352 0.2640625 0.0666411
0.2009150 0.2640625 0.0670161
0.2667031 0.2640625 0.0673911
0.3318994 0.2640625 0.0677661
0.3965039 0.2640625 0.0681411
0.4605166 0.2640625 0.0685161
0.5239375 0.2640625 0.0688911
0.5867666 0.2640625 0.0692661
0.6490039 0.2640625 0.0696411
0.7106494 0.2640625 0.0700161
0.7717031 0.2640625 0.0703911
0.8321650 0.2640625 0.0707661
0.8920352 0.2640625 0.0711411
0.9513135 0.2640625 0.0715161
1.0000000 0.2640625 0.0718911
0.0000000 0.3286133 0.0658911
0.0675635 0.3286133 0.0662661
0.1345352 0.3286133 0.0666411
0.2009150 0.3286133 0.0670161
0.2667031 0.3286133 0.0673911
0.3318994 0.3286133 0.0677661
0.3965039 0.3286133 0.0681411
0.4605166 0.3286133 0.0685161
0.5239375 0.3286133 0.0688911
0.5867666 0.3286133 0.0692661
0.6490039 0.3286133 0.0696411
0.7106494 0.3286133 0.0700161
0.7717031 0.3286133 0.0703911
0.8321650 0.3286133 0.0707661
0.8920352 0.3286133 0.0711411
0.9513135 0.3286133 0.0715161
1.0000000 0.3286133 0.0718911
0.0000000 0.3925781 0.0658911
0.0675635 0.3925781 0.0662661
0.1345352 0.3925781 0.0666411
0.2009150 0.3925781 0.0670161
0.2667031 0.3925781 0.0673911
0.3318994 0.3925781 0.0677661
0.3965039 0.3925781 0.0681411
0.4605166 0.3925781 0.0685161
0.5239375 0.3925781 0.0688911
0.5867666 0.3925781 0.0692661
0.6490039 0.3925781 0.0696411
0.7106494 0.3925781 0.0700161
0.7717031 0.3925781 0.0703911
0.8321650 0.3925781 0.0707661
0.8920352 0.3925781 0.0711411
0.9513135 0.3925781 0.0715161
1.0000000 0.3925781 0.0718911
0.0000000 0.4559570 0.0658911
0.0675635 0.4559570 0.0662661
0.1345352 0.4559570 0.0666411
0.2009150 0.4559570 0.0670161
0.2667031 0.4559570 0.0673911
0.3318994 0.4559570 0.0677661
0.3965039 0.4559570 0.0681411
0.4605166 0.4559570 0.0685161
0.5239375 0.4559570 0.0688911
0.5867666 0.4559570 0.0692661
0.6490039 0.4559570 0.0696411
0.7106494 0.4559570 0.0700161
0.7717031 0.4559570 0.0703911
0.8321650 0.4559570 0.0707661
0.8920352 0.4559570 0.0711411
0.9513135 0.4559570 0.0715161
1.0000000 0.4559570 0.0718911
0.0000000 0.5187500 0.0658911
0.0675635 0.5187500 0.0662661
0.1345352 0.5187500 0.0666411
0.2009150 0.5187500 0.0670161
0.2667031 0.5187500 0.0673911
0.3318994 0.5187500 0.0677661
0.3965039 0.5187500 0.0681411
0.4605166 0.5187500 0.0685161
0.5239375 0.5187500 0.0688911
0.5867666 0.5187500 0.0692661
0.6490039 0.5187500 0.0696411
0.7106494 0.5187500 0.0700161
0.7717031 0.5187500 0.0703911
0.8321650 0.5187500 0.0707661
0.8920352 0.5187500 0.0711411
0.9513135 0.5187500 0.0715161
1.0000000 0.5187500 0.0718911
0.0000000 0.5809570 0.0658911
0.0675635 0.5809570 0.0662661
0.1345352 0.5809570 0.0666411
0.2009150 0.5809570 0.0670161
0.2667031 0.5809570 0.0673911
0.3318994 0.5809570 0.0677661
0.3965039 0.5809570 0.0681411
0.4605166 0.5809570 0.0685161
0.5239375 0.5809570 0.0688911
0.5867666 0.5809570 0.0692661
0.6490039 0.5809570 0.0696411
0.7106494 0.5809570 0.0700161
0.7717031 0.5809570 0.0703911
0.8321650 0.5809570 0.0707661
0.8920352 0.5809570 0.0711411
0.9513135 0.5809570 0.0715161
1.0000000 0.5809570 0.0718911
0.0000000 0.6425781 0.0658911
0.0675635 0.6425781 0.0662661
0.1345352 0.6425781 0.0666411
0.2009150 0.6425781 0.0670161
0.2667031 0.6425781 0.0673911
0.3318994 0.6425781 0.0677661
0.3965039 0.6425781 0.0681411
0.4605166 0.6425781 0.0685161
0.5239375 0.6425781 0.0688911
0.5867666 0.6425781 0.0692661
0.6490039 0.6425781 0.0696411
0.7106494 0.6425781 0.0700161
0.7717031 0.6425781 0.0703911
0.8321650 0.6425781 0.0707661
0.8920352 0.6425781 0.0711411
0.9513135 0.6425781 0.0715161
1.0000000 0.6425781 0.0718911
0.0000000 0.7036133 0.0658911
0.0675635 0.7036133 0.0662661
0.1345352 0.7036133 0.0666411
0.2009150 0.7036133 0.0670161
0.2667031 0.7036133 0.0673911
0.3318994 0.7036133 0.0677661
0.3965039 0.7036133 0.0681411
0.4605166 0.7036133 0.0685161
0.5239375 0.7036133 0.0688911
0.5867666 0.7036133 0.0692661
0.6490039 0.7036133 0.0696411
0.7106494 0.7036133 0.0700161
0.7717031 0.7036133 0.0703911
0.8321650 0.7036133 0.0707661
0.8920352 0.7036133 0.0711411
0.9513135 0.7036133 0.0715161
1.0000000 0.7036133 0.0718911
0.0000000 0.7640625 0.0658911
0.0675635 0.7640625 0.0662661
0.1345352 0.7640625 0.0666411
0.2009150 0.7640625 0.0670161
0.2667031 0.7640625 0.0673911
0.3318994 0.7640625 0.0677661
0.3965039 0.7640625 0.0681411
0.4605166 0.7640625 0.0685161
0.5239375 0.7640625 0.0688911
0.5867666 0.7640625 0.0692661
0.6490039 0.7640625 0.0696411
0.7106494 0.7640625 0.0700161
0.7717031 0.7640625 0.0703911
0.8321650 0.7640625 0.0707661
0.8920352 0.7640625 0.0711411
0.9513135 0.7640625 0.0715161
1.0000000 0.7640625 0.0718911
0.0000000 0.8239258 0.0658911
0.0675635 0.8239258 0.0662661
0.1345352 0.8239258 0.0666411
0.2009150 0.8239258 0.0670161
0.2667031 0.8239258 0.0673911
0.3318994 0.8239258 0.0677661
0.3965039 0.8239258 0.0681411
0.4605166 0.8239258 0.0685161
0.5239375 0.8239258 0.0688911
0.5867666 0.8239258 0.0692661
0.6490039 0.8239258 0.0696411
0.7106494 0.8239258 0.0700161
0.7717031 0.8239258 0.0703911
0.8321650 0.8239258 0.0707661
0.8920352 0.8239258 0.0711411
0.9513135 0.8239258 0.0715161
1.0000000 0.8239258 0.0718911
0.0000000 0.8832031 0.0658911
0.0675635 0.8832031 0.0662661
0.1345352 0.8832031 0.0666411
0.2009150 0.8832031 0.0670161
0.2667031 0.8832031 0.0673911
0.3318994 0.8832031 0.0677661
0.3965039 0.8832031 0.0681411
0.4605166 0.8832031 0.0685161
0.5239375 0.8832031 0.0688911
0.5867666 0.8832031 0.0692661
0.6490039 0.8832031 0.0696411
0.7106494 0.8832031 0.0700161
0.7717031 0.8832031 0.0703911
0.8321650 0.8832031 0.0707661
0.8920352 0.8832031 0.0711411
0.9513135 0.8832031 0.0715161
1.0000000 0.8832031 0.0718911
0.0000000 0.9418945 0.0658911
0.0675635 0.9418945 0.0662661
0.1345352 0.9418945 0.0666411
0.2009150 0.9418945 0.0670161
0.2667031 0.9418945 0.0673911
0.3318994 0.9418945 0.0677661
0.3965039 0.9418945 0.0681411
0.4605166 0.9418945 0.0685161
0.5239375 0.9418945 0.0688911
0.5867666 0.9418945 0.0692661
0.6490039 0.9418945 0.0696411
0.7106494 0.9418945 0.0700161
0.7717031 0.9418945 0.0703911
0.8321650 0.9418945 0.0707661
0.8920352 0.9418945 0.0711411
0.9513135 0.9418945 0.0715161
1.0000000 0.9418945 0.0718911
0.0000000 1.0000000 0.0658911
0.0675635 1.0000000 0.0662661
0.1345352 1.0000000 0.0666411
0.2009150 1.0000000 0.0670161
0.2667031 1.0000000 0.0673911
0.3318994 1.0000000 0.0677661
0.3965039 1.0000000 0.0681411
0.4605166 1.0000000 0.0685161
0.5239375 1.0000000 0.0688911
0.5867666 1.0000000 0.0692661
0.6490039 1.0000000 0.0696411
0.7106494 1.0000000 0.0700161
0.7717031 1.0000000 0.0703911
0.8321650 1.0000000 0.0707661
0.8920352 1.0000000 0.0711411
0.9513135 1.0000000 0.0715161
1.0000000 1.0000000 0.0718911
0.0000000 0.0000000 0.1312051
0.0675635 0.0000000 0.1315801
0.1345352 0.0000000 0.1319551
0.2009150 0.0000000 0.1323301
0.2667031 0.0000000 0.1327051
0.3318994 0.0000000 0.1330801
0.3965039 0.0000000 0.1334551
0.4605166 0.0000000 0.1338301
0.5239375 0.0000000 0.1342051
0.5867666 0.0000000 0.1345801
0.6490039 0.0000000 0.1349551
0.7106494 0.0000000 0.1353301
0.7717031 0.0000000 0.1357051
0.8321650 0.0000000 0.1360801
0.8920352 0.0000000 0.1364551
0.9513135 0.0000000 0.1368301
1.0000000 0.0000000 0.1372051
0.0000000 0.0668945 0.1312051
0.0675635 0.0668945 0.1315801
0.1345352 0.0668945 0.1319551
0.2009150 0.0668945 0.1323301
0.2667031 0.0668945 0.1327051
0.3318994 0.0668945 0.1330801
0.3965039 0.0668945 0.1334551
0.4605166 0.0668945 0.1338301
0.5239375 0.0668945 0.1342051
0.5867666 0.0668945 0.1345801
0.6490039 0.0668945 0.1349551
0.7106494 0.0668945 0.1353301
0.7717031 0.0668945 0.1357051
0.8321650 0.0668945 0.1360801
0.8920352 0.0668945 0.1364551
0.9513135 0.0668945 0.1368301
1.0000000 0.0668945 0.1372051
0.0000000 0.1332031 0.1312051
0.0675635 0.1332031 0.1315801
0.1345352 0.1332031 0.1319551
0.2009150 0.1332031 0.1323301
0.2667031 0.1332031 0.1327051
0.3318994 0.1332031 0.1330801
0.3965039 0.1332031 0.1334551
0.4605166 0.1332031 0.1338301
0.5239375 0.1332031 0.1342051
0.5867666 0.1332031 0.1345801
0.6490039 0.1332031 0.1349551
0.7106494 0.1332031 0.1353301
0.7717031 0.1332031 0.1357051
0.8321650 0.1332031 0.1360801
0.8920352 0.1332031 0.1364551
0.9513135 0.1332031 0.1368301
1.0000000 0.1332031 0.1372051
0.0000000 0.1989258 0.1312051
0.0675635 0.1989258 0.1315801
0.1345352 0.1989258 0.1319551
0.2009150 0.1989258 0.1323301
0.2667031 0.1989258 0.1327051
0.3318994 0.1989258 0.1330801
0.3965039 0.1989258 0.1334551
0.4605166 0.1989258 0.1338301
0.5239375 0.1989258 0.1342051
0.5867666 0.1989258 0.1345801
0.6490039 0.1989258 0.1349551
0.7106494 0.1989258 0.1353301
0.7717031 0.1989258 0.1357051
0.8321650 0.1989258 0.1360801
0.8920352 0.1989258 0.1364551
0.9513135 0.1989258 0.1368301
1.0000000 0.1989258 0.1372051
0.0000000 0.2640625 0.1312051
0.0675635 0.2640625 0.1315801
0.1345352 0.2640625 0.1319551
0.2009150 0.2640625 0.1323301
0.2667031 0.2640625 0.1327051
0.3318994 0.2640625 0.1330801
0.3965039 0.2640625 0.1334551
0.4605166 0.2640625 0.1338301
0.5239375 0.2640625 0.1342051
0.5867666 0.2640625 0.1345801
0.6490039 0.2640625 0.1349551
0.7106494 0.2640625 0.1353301
0.7717031 0.2640625 0.1357051
0.8321650 0.2640625 0.1360801
0.8920352 0.2640625 0.1364551
0.9513135 0.2640625 0.1368301
1.0000000 0.2640625 0.1372051
0.0000000 0.3286133 0.1312051
0.0675635 0.3286133 0.1315801
0.1345352 0.3286133 0.1319551
0.2009150 0.3286133 0.1323301
0.2667031 0.3286133 0.1327051
0.3318994 0.3286133 0.1330801
0.3965039 0.3286133 0.1334551
0.4605166 0.3286133 0.1338301
0.5239375 0.3286133 0.1342051
0.5867666 0.3286133 0.1345801
0.6490039 0.3286133 0.1349551
0.7106494 0.3286133 0.1353301
0.7717031 0.3286133 0.1357051
0.8321650 0.3286133 0.1360801
0.8920352 0.3286133 0.1364551
0.9513135 0.3286133 0.1368301
1.0000000 0.3286133 0.1372051
0.0000000 0.3925781 0.1312051
0.0675635 0.3925781 0.1315801
0.1345352 0.3925781 0.1319551
0.2009150 0.3925781 0.1323301
0.2667031 0.3925781 0.1327051
0.3318994 0.3925781 0.1330801
0.3965039 0.3925781 0.1334551
0.4605166 0.3925781 0.1338301
0.5239375 0.3925781 0.1342051
0.5867666 0.3925781 0.1345801
0.6490039 0.3925781 0.1349551
0.7106494 0.3925781 0.1353301
0.7717031 0.3925781 0.1357051
0.8321650 0.3925781 0.1360801
0.8920352 0.3925781 0.1364551
0.9513135 0.3925781 0.1368301
1.0000000 0.3925781 0.1372051
0.0000000 0.4559570 0.1312051
0.0675635 0.4559570 0.1315801
0.1345352 0.4559570 0.1319551
0.2009150 0.4559570 0.1323301
0.2667031 0.4559570 0.1327051
0.3318994 0.4559570 0.1330801
0.3965039 0.4559570 0.1334551
0.4605166 0.4559570 0.1338301
0.5239375 0.4559570 0.1342051
0.5867666 0.4559570 0.1345801
0.6490039 0.4559570 0.1349551
0.7106494 0.4559570 0.1353301
0.7717031 0.4559570 0.1357051
0.8321650 0.4559570 0.1360801
0.8920352 0.4559570 0.1364551
0.9513135 0.4559570 0.1368301
1.0000000 0.4559570 0.1372051
0.0000000 0.5187500 0.1312051
0.0675635 0.5187500 0.1315801
0.1345352 0.5187500 0.1319551
0.2009150 0.5187500 0.1323301
0.2667031 0.5187500 0.1327051
0.3318994 0.5187500 0.1330801
0.3965039 0.5187500 0.1334551
0.4605166 0.5187500 0.1338301
0.5239375 0.5187500 0.1342051
0.5867666 0.5187500 0.1345801
0.6490039 0.5187500 0.1349551
0.7106494 0.5187500 0.1353301
0.7717031 0.5187500 0.1357051
0.8321650 0.5187500 0.1360801
0.8920352 0.5187500 0.1364551
0.9513135 0.5187500 0.1368301
1.0000000 0.5187500 0.1372051
0.0000000 0.5809570 0.1312051
0.0675635 0.5809570 0.1315801
0.1345352 0.5809570 0.1319551
0.2009150 0.5809570 0.1323301
0.2667031 0.5809570 0.1327051
0.3318994 0.5809570 0.1330801
0.3965039 0.5809570 0.1334551
0.4605166 0.5809570 0.1338301
0.5239375 0.5809570 0.1342051
0.5867666 0.5809570 0.1345801
0.6490039 0.5809570 0.1349551
0.7106494 0.5809570 0.1353301
0.7717031 0.5809570 0.1357051
0.8321650 0.5809570 0.1360801
0.8920352 0.5809570 0.1364551
0.9513135 0.5809570 0.1368301
1.0000000 0.5809570 0.1372051
0.0000000 0.6425781 0.1312051
0.0675635 0.6425781 0.1315801
0.1345352 0.6425781 0.1319551
0.2009150 0.6425781 0.1323301
0.2667031 0.6425781 0.1327051
0.3318994 0.6425781 0.1330801
0.3965039 0.6425781 0.1334551
0.4605166 0.6425781 0.1338301
0.5239375 0.6425781 0.1342051
0.5867666 0.6425781 0.1345801
0.6490039 0.6425781 0.1349551
0.7106494 0.6425781 0.1353301
0.7717031 0.6425781 0.1357051
0.8321650 0.6425781 0.1360801
0.8920352 0.6425781 0.1364551
0.9513135 0.6425781 0.1368301
1.0000000 0.6425781 0.1372051
0.0000000 0.7036133 0.1312051
0.0675635 0.7036133 0.1315801
0.1345352 0.7036133 0.1319551
0.2009150 0.7036133 0.1323301
0.2667031 0.7036133 0.1327051
0.3318994 0.7036133 0.1330801
0.3965039 0.7036133 0.1334551
0.4605166 0.7036133 0.1338301
0.5239375 0.7036133 0.1342051
0.5867666 0.7036133 0.1345801
0.6490039 0.7036133 0.1349551
0.7106494 0.7036133 0.1353301
0.7717031 0.7036133 0.1357051
0.8321650 0.7036133 0.1360801
0.8920352 0.7036133 0.1364551
0.9513135 0.7036133 0.1368301
1.0000000 0.7036133 0.1372051
0.0000000 0.7640625 0.1312051
0.0675635 0.7640625 0.1315801
0.1345352 0.7640625 0.1319551
0.2009150 0.7640625 0.1323301
0.2667031 0.7640625 0.1327051
0.3318994 0.7640625 0.1330801
0.3965039 0.7640625 0.1334551
0.4605166 0.7640625 0.1338301
