assets/color-grade/p2-builtin-filters/gentle-highlight.cube
# Real Landscape P2 self-developed content. Do not label as an official or original brand LUT.
# License: project-owned content, redistribution permitted with this notice.
TITLE "柔光层次"
# Internal ID: gentle-highlight
LUT_3D_SIZE 5
DOMAIN_MIN 0.0 0.0 0.0
DOMAIN_MAX 1.0 1.0 1.0
0.0000000 0.0000000 0.0000000
0.2667031 0.0000000 0.0015000
0.5239375 0.0000000 0.0030000
0.7717031 0.0000000 0.0045000
1.0000000 0.0000000 0.0060000
0.0000000 0.2640625 0.0000000
0.2667031 0.2640625 0.0015000
0.5239375 0.2640625 0.0030000
0.7717031 0.2640625 0.0045000
1.0000000 0.2640625 0.0060000
0.0000000 0.5187500 0.0000000
0.2667031 0.5187500 0.0015000
0.5239375 0.5187500 0.0030000
0.7717031 0.5187500 0.0045000
1.0000000 0.5187500 0.0060000
0.0000000 0.7640625 0.0000000
0.2667031 0.7640625 0.0015000
0.5239375 0.7640625 0.0030000
0.7717031 0.7640625 0.0045000
1.0000000 0.7640625 0.0060000
0.0000000 1.0000000 0.0000000
0.2667031 1.0000000 0.0015000
0.5239375 1.0000000 0.0030000
0.7717031 1.0000000 0.0045000
1.0000000 1.0000000 0.0060000
0.0000000 0.0000000 0.2601016
0.2667031 0.0000000 0.2616016
0.5239375 0.0000000 0.2631016
0.7717031 0.0000000 0.2646016
1.0000000 0.0000000 0.2661016
0.0000000 0.2640625 0.2601016
0.2667031 0.2640625 0.2616016
0.5239375 0.2640625 0.2631016
0.7717031 0.2640625 0.2646016
1.0000000 0.2640625 0.2661016
0.0000000 0.5187500 0.2601016
0.2667031 0.5187500 0.2616016
0.5239375 0.5187500 0.2631016
0.7717031 0.5187500 0.2646016
1.0000000 0.5187500 0.2661016
0.0000000 0.7640625 0.2601016
0.2667031 0.7640625 0.2616016
0.5239375 0.7640625 0.2631016
0.7717031 0.7640625 0.2646016
1.0000000 0.7640625 0.2661016
0.0000000 1.0000000 0.2601016
0.2667031 1.0000000 0.2616016
0.5239375 1.0000000 0.2631016
0.7717031 1.0000000 0.2646016
1.0000000 1.0000000 0.2661016
0.0000000 0.0000000 0.5109688
0.2667031 0.0000000 0.5124688
0.5239375 0.0000000 0.5139688
0.7717031 0.0000000 0.5154688
1.0000000 0.0000000 0.5169688
0.0000000 0.2640625 0.5109688
0.2667031 0.2640625 0.5124688
0.5239375 0.2640625 0.5139688
0.7717031 0.2640625 0.5154688
1.0000000 0.2640625 0.5169688
0.0000000 0.5187500 0.5109688
0.2667031 0.5187500 0.5124688
0.5239375 0.5187500 0.5139688
0.7717031 0.5187500 0.5154688
1.0000000 0.5187500 0.5169688
0.0000000 0.7640625 0.5109688
0.2667031 0.7640625 0.5124688
0.5239375 0.7640625 0.5139688
0.7717031 0.7640625 0.5154688
1.0000000 0.7640625 0.5169688
0.0000000 1.0000000 0.5109688
0.2667031 1.0000000 0.5124688
0.5239375 1.0000000 0.5139688
0.7717031 1.0000000 0.5154688
1.0000000 1.0000000 0.5169688
0.0000000 0.0000000 0.7526016
0.2667031 0.0000000 0.7541016
0.5239375 0.0000000 0.7556016
0.7717031 0.0000000 0.7571016
1.0000000 0.0000000 0.7586016
0.0000000 0.2640625 0.7526016
0.2667031 0.2640625 0.7541016
0.5239375 0.2640625 0.7556016
0.7717031 0.2640625 0.7571016
1.0000000 0.2640625 0.7586016
0.0000000 0.5187500 0.7526016
0.2667031 0.5187500 0.7541016
0.5239375 0.5187500 0.7556016
0.7717031 0.5187500 0.7571016
1.0000000 0.5187500 0.7586016
0.0000000 0.7640625 0.7526016
0.2667031 0.7640625 0.7541016
0.5239375 0.7640625 0.7556016
0.7717031 0.7640625 0.7571016
1.0000000 0.7640625 0.7586016
0.0000000 1.0000000 0.7526016
0.2667031 1.0000000 0.7541016
0.5239375 1.0000000 0.7556016
0.7717031 1.0000000 0.7571016
1.0000000 1.0000000 0.7586016
0.0000000 0.0000000 0.9850000
0.2667031 0.0000000 0.9865000
0.5239375 0.0000000 0.9880000
0.7717031 0.0000000 0.9895000
1.0000000 0.0000000 0.9910000
0.0000000 0.2640625 0.9850000
0.2667031 0.2640625 0.9865000
0.5239375 0.2640625 0.9880000
0.7717031 0.2640625 0.9895000
1.0000000 0.2640625 0.9910000
0.0000000 0.5187500 0.9850000
0.2667031 0.5187500 0.9865000
0.5239375 0.5187500 0.9880000
0.7717031 0.5187500 0.9895000
1.0000000 0.5187500 0.9910000
0.0000000 0.7640625 0.9850000
0.2667031 0.7640625 0.9865000
0.5239375 0.7640625 0.9880000
0.7717031 0.7640625 0.9895000
1.0000000 0.7640625 0.9910000
0.0000000 1.0000000 0.9850000
0.2667031 1.0000000 0.9865000
0.5239375 1.0000000 0.9880000
0.7717031 1.0000000 0.9895000
1.0000000 1.0000000 0.9910000
