assets/color-grade/p2-builtin-filters/soft-portrait.cube
# Real Landscape P2 self-developed content. Do not label as an official or original brand LUT.
# License: project-owned content, redistribution permitted with this notice.
TITLE "柔和肖像"
# Internal ID: soft-portrait
LUT_3D_SIZE 5
DOMAIN_MIN 0.0 0.0 0.0
DOMAIN_MAX 1.0 1.0 1.0
0.0080000 0.0020000 0.0060000
0.2617500 0.0030000 0.0090000
0.5155000 0.0040000 0.0120000
0.7692500 0.0050000 0.0150000
1.0000000 0.0060000 0.0180000
0.0110000 0.2525000 0.0060000
0.2647500 0.2535000 0.0090000
0.5185000 0.2545000 0.0120000
0.7722500 0.2555000 0.0150000
1.0000000 0.2565000 0.0180000
0.0140000 0.5030000 0.0060000
0.2677500 0.5040000 0.0090000
0.5215000 0.5050000 0.0120000
0.7752500 0.5060000 0.0150000
1.0000000 0.5070000 0.0180000
0.0170000 0.7535000 0.0060000
0.2707500 0.7545000 0.0090000
0.5245000 0.7555000 0.0120000
0.7782500 0.7565000 0.0150000
1.0000000 0.7575000 0.0180000
0.0200000 1.0000000 0.0060000
0.2737500 1.0000000 0.0090000
0.5275000 1.0000000 0.0120000
0.7812500 1.0000000 0.0150000
1.0000000 1.0000000 0.0180000
0.0080000 0.0020000 0.2460000
0.2617500 0.0030000 0.2490000
0.5155000 0.0040000 0.2520000
0.7692500 0.0050000 0.2550000
1.0000000 0.0060000 0.2580000
0.0110000 0.2525000 0.2460000
0.2647500 0.2535000 0.2490000
0.5185000 0.2545000 0.2520000
0.7722500 0.2555000 0.2550000
1.0000000 0.2565000 0.2580000
0.0140000 0.5030000 0.2460000
0.2677500 0.5040000 0.2490000
0.5215000 0.5050000 0.2520000
0.7752500 0.5060000 0.2550000
1.0000000 0.5070000 0.2580000
0.0170000 0.7535000 0.2460000
0.2707500 0.7545000 0.2490000
0.5245000 0.7555000 0.2520000
0.7782500 0.7565000 0.2550000
1.0000000 0.7575000 0.2580000
0.0200000 1.0000000 0.2460000
0.2737500 1.0000000 0.2490000
0.5275000 1.0000000 0.2520000
0.7812500 1.0000000 0.2550000
1.0000000 1.0000000 0.2580000
0.0080000 0.0020000 0.4860000
0.2617500 0.0030000 0.4890000
0.5155000 0.0040000 0.4920000
0.7692500 0.0050000 0.4950000
1.0000000 0.0060000 0.4980000
0.0110000 0.2525000 0.4860000
0.2647500 0.2535000 0.4890000
0.5185000 0.2545000 0.4920000
0.7722500 0.2555000 0.4950000
1.0000000 0.2565000 0.4980000
0.0140000 0.5030000 0.4860000
0.2677500 0.5040000 0.4890000
0.5215000 0.5050000 0.4920000
0.7752500 0.5060000 0.4950000
1.0000000 0.5070000 0.4980000
0.0170000 0.7535000 0.4860000
0.2707500 0.7545000 0.4890000
0.5245000 0.7555000 0.4920000
0.7782500 0.7565000 0.4950000
1.0000000 0.7575000 0.4980000
0.0200000 1.0000000 0.4860000
0.2737500 1.0000000 0.4890000
0.5275000 1.0000000 0.4920000
0.7812500 1.0000000 0.4950000
1.0000000 1.0000000 0.4980000
0.0080000 0.0020000 0.7260000
0.2617500 0.0030000 0.7290000
0.5155000 0.0040000 0.7320000
0.7692500 0.0050000 0.7350000
1.0000000 0.0060000 0.7380000
0.0110000 0.2525000 0.7260000
0.2647500 0.2535000 0.7290000
0.5185000 0.2545000 0.7320000
0.7722500 0.2555000 0.7350000
1.0000000 0.2565000 0.7380000
0.0140000 0.5030000 0.7260000
0.2677500 0.5040000 0.7290000
0.5215000 0.5050000 0.7320000
0.7752500 0.5060000 0.7350000
1.0000000 0.5070000 0.7380000
0.0170000 0.7535000 0.7260000
0.2707500 0.7545000 0.7290000
0.5245000 0.7555000 0.7320000
0.7782500 0.7565000 0.7350000
1.0000000 0.7575000 0.7380000
0.0200000 1.0000000 0.7260000
0.2737500 1.0000000 0.7290000
0.5275000 1.0000000 0.7320000
0.7812500 1.0000000 0.7350000
1.0000000 1.0000000 0.7380000
0.0080000 0.0020000 0.9660000
0.2617500 0.0030000 0.9690000
0.5155000 0.0040000 0.9720000
0.7692500 0.0050000 0.9750000
1.0000000 0.0060000 0.9780000
0.0110000 0.2525000 0.9660000
0.2647500 0.2535000 0.9690000
0.5185000 0.2545000 0.9720000
0.7722500 0.2555000 0.9750000
1.0000000 0.2565000 0.9780000
0.0140000 0.5030000 0.9660000
0.2677500 0.5040000 0.9690000
0.5215000 0.5050000 0.9720000
0.7752500 0.5060000 0.9750000
1.0000000 0.5070000 0.9780000
0.0170000 0.7535000 0.9660000
0.2707500 0.7545000 0.9690000
0.5245000 0.7555000 0.9720000
0.7782500 0.7565000 0.9750000
1.0000000 0.7575000 0.9780000
0.0200000 1.0000000 0.9660000
0.2737500 1.0000000 0.9690000
0.5275000 1.0000000 0.9720000
0.7812500 1.0000000 0.9750000
1.0000000 1.0000000 0.9780000
