assets/color-grade/p2-builtin-filters/soft-portrait.cube
# Real Landscape P2 self-developed content. Do not label as an official or original brand LUT.
# License: project-owned content, redistribution permitted with this notice.
TITLE "柔和肖像"
# Internal ID: soft-portrait
LUT_3D_SIZE 17
DOMAIN_MIN 0.0 0.0 0.0
DOMAIN_MAX 1.0 1.0 1.0
0.0080000 0.0020000 0.0060000
0.0714375 0.0022500 0.0067500
0.1348750 0.0025000 0.0075000
0.1983125 0.0027500 0.0082500
0.2617500 0.0030000 0.0090000
0.3251875 0.0032500 0.0097500
0.3886250 0.0035000 0.0105000
0.4520625 0.0037500 0.0112500
0.5155000 0.0040000 0.0120000
0.5789375 0.0042500 0.0127500
0.6423750 0.0045000 0.0135000
0.7058125 0.0047500 0.0142500
0.7692500 0.0050000 0.0150000
0.8326875 0.0052500 0.0157500
0.8961250 0.0055000 0.0165000
0.9595625 0.0057500 0.0172500
1.0000000 0.0060000 0.0180000
0.0087500 0.0646250 0.0060000
0.0721875 0.0648750 0.0067500
0.1356250 0.0651250 0.0075000
0.1990625 0.0653750 0.0082500
0.2625000 0.0656250 0.0090000
0.3259375 0.0658750 0.0097500
0.3893750 0.0661250 0.0105000
0.4528125 0.0663750 0.0112500
0.5162500 0.0666250 0.0120000
0.5796875 0.0668750 0.0127500
0.6431250 0.0671250 0.0135000
0.7065625 0.0673750 0.0142500
0.7700000 0.0676250 0.0150000
0.8334375 0.0678750 0.0157500
0.8968750 0.0681250 0.0165000
0.9603125 0.0683750 0.0172500
1.0000000 0.0686250 0.0180000
0.0095000 0.1272500 0.0060000
0.0729375 0.1275000 0.0067500
0.1363750 0.1277500 0.0075000
0.1998125 0.1280000 0.0082500
0.2632500 0.1282500 0.0090000
0.3266875 0.1285000 0.0097500
0.3901250 0.1287500 0.0105000
0.4535625 0.1290000 0.0112500
0.5170000 0.1292500 0.0120000
0.5804375 0.1295000 0.0127500
0.6438750 0.1297500 0.0135000
0.7073125 0.1300000 0.0142500
0.7707500 0.1302500 0.0150000
0.8341875 0.1305000 0.0157500
0.8976250 0.1307500 0.0165000
0.9610625 0.1310000 0.0172500
1.0000000 0.1312500 0.0180000
0.0102500 0.1898750 0.0060000
0.0736875 0.1901250 0.0067500
0.1371250 0.1903750 0.0075000
0.2005625 0.1906250 0.0082500
0.2640000 0.1908750 0.0090000
0.3274375 0.1911250 0.0097500
0.3908750 0.1913750 0.0105000
0.4543125 0.1916250 0.0112500
0.5177500 0.1918750 0.0120000
0.5811875 0.1921250 0.0127500
0.6446250 0.1923750 0.0135000
0.7080625 0.1926250 0.0142500
0.7715000 0.1928750 0.0150000
0.8349375 0.1931250 0.0157500
0.8983750 0.1933750 0.0165000
0.9618125 0.1936250 0.0172500
1.0000000 0.1938750 0.0180000
0.0110000 0.2525000 0.0060000
0.0744375 0.2527500 0.0067500
0.1378750 0.2530000 0.0075000
0.2013125 0.2532500 0.0082500
0.2647500 0.2535000 0.0090000
0.3281875 0.2537500 0.0097500
0.3916250 0.2540000 0.0105000
0.4550625 0.2542500 0.0112500
0.5185000 0.2545000 0.0120000
0.5819375 0.2547500 0.0127500
0.6453750 0.2550000 0.0135000
0.7088125 0.2552500 0.0142500
0.7722500 0.2555000 0.0150000
0.8356875 0.2557500 0.0157500
0.8991250 0.2560000 0.0165000
0.9625625 0.2562500 0.0172500
1.0000000 0.2565000 0.0180000
0.0117500 0.3151250 0.0060000
0.0751875 0.3153750 0.0067500
0.1386250 0.3156250 0.0075000
0.2020625 0.3158750 0.0082500
0.2655000 0.3161250 0.0090000
0.3289375 0.3163750 0.0097500
0.3923750 0.3166250 0.0105000
0.4558125 0.3168750 0.0112500
0.5192500 0.3171250 0.0120000
0.5826875 0.3173750 0.0127500
0.6461250 0.3176250 0.0135000
0.7095625 0.3178750 0.0142500
0.7730000 0.3181250 0.0150000
0.8364375 0.3183750 0.0157500
0.8998750 0.3186250 0.0165000
0.9633125 0.3188750 0.0172500
1.0000000 0.3191250 0.0180000
0.0125000 0.3777500 0.0060000
0.0759375 0.3780000 0.0067500
0.1393750 0.3782500 0.0075000
0.2028125 0.3785000 0.0082500
0.2662500 0.3787500 0.0090000
0.3296875 0.3790000 0.0097500
0.3931250 0.3792500 0.0105000
0.4565625 0.3795000 0.0112500
0.5200000 0.3797500 0.0120000
0.5834375 0.3800000 0.0127500
0.6468750 0.3802500 0.0135000
0.7103125 0.3805000 0.0142500
0.7737500 0.3807500 0.0150000
0.8371875 0.3810000 0.0157500
0.9006250 0.3812500 0.0165000
0.9640625 0.3815000 0.0172500
1.0000000 0.3817500 0.0180000
0.0132500 0.4403750 0.0060000
0.0766875 0.4406250 0.0067500
0.1401250 0.4408750 0.0075000
0.2035625 0.4411250 0.0082500
0.2670000 0.4413750 0.0090000
0.3304375 0.4416250 0.0097500
0.3938750 0.4418750 0.0105000
0.4573125 0.4421250 0.0112500
0.5207500 0.4423750 0.0120000
0.5841875 0.4426250 0.0127500
0.6476250 0.4428750 0.0135000
0.7110625 0.4431250 0.0142500
0.7745000 0.4433750 0.0150000
0.8379375 0.4436250 0.0157500
0.9013750 0.4438750 0.0165000
0.9648125 0.4441250 0.0172500
1.0000000 0.4443750 0.0180000
0.0140000 0.5030000 0.0060000
0.0774375 0.5032500 0.0067500
0.1408750 0.5035000 0.0075000
0.2043125 0.5037500 0.0082500
0.2677500 0.5040000 0.0090000
0.3311875 0.5042500 0.0097500
0.3946250 0.5045000 0.0105000
0.4580625 0.5047500 0.0112500
0.5215000 0.5050000 0.0120000
0.5849375 0.5052500 0.0127500
0.6483750 0.5055000 0.0135000
0.7118125 0.5057500 0.0142500
0.7752500 0.5060000 0.0150000
0.8386875 0.5062500 0.0157500
0.9021250 0.5065000 0.0165000
0.9655625 0.5067500 0.0172500
1.0000000 0.5070000 0.0180000
0.0147500 0.5656250 0.0060000
0.0781875 0.5658750 0.0067500
0.1416250 0.5661250 0.0075000
0.2050625 0.5663750 0.0082500
0.2685000 0.5666250 0.0090000
0.3319375 0.5668750 0.0097500
0.3953750 0.5671250 0.0105000
0.4588125 0.5673750 0.0112500
0.5222500 0.5676250 0.0120000
0.5856875 0.5678750 0.0127500
0.6491250 0.5681250 0.0135000
0.7125625 0.5683750 0.0142500
0.7760000 0.5686250 0.0150000
0.8394375 0.5688750 0.0157500
0.9028750 0.5691250 0.0165000
0.9663125 0.5693750 0.0172500
1.0000000 0.5696250 0.0180000
0.0155000 0.6282500 0.0060000
0.0789375 0.6285000 0.0067500
0.1423750 0.6287500 0.0075000
0.2058125 0.6290000 0.0082500
0.2692500 0.6292500 0.0090000
0.3326875 0.6295000 0.0097500
0.3961250 0.6297500 0.0105000
0.4595625 0.6300000 0.0112500
0.5230000 0.6302500 0.0120000
0.5864375 0.6305000 0.0127500
0.6498750 0.6307500 0.0135000
0.7133125 0.6310000 0.0142500
0.7767500 0.6312500 0.0150000
0.8401875 0.6315000 0.0157500
0.9036250 0.6317500 0.0165000
0.9670625 0.6320000 0.0172500
1.0000000 0.6322500 0.0180000
0.0162500 0.6908750 0.0060000
0.0796875 0.6911250 0.0067500
0.1431250 0.6913750 0.0075000
0.2065625 0.6916250 0.0082500
0.2700000 0.6918750 0.0090000
0.3334375 0.6921250 0.0097500
0.3968750 0.6923750 0.0105000
0.4603125 0.6926250 0.0112500
0.5237500 0.6928750 0.0120000
0.5871875 0.6931250 0.0127500
0.6506250 0.6933750 0.0135000
0.7140625 0.6936250 0.0142500
0.7775000 0.6938750 0.0150000
0.8409375 0.6941250 0.0157500
0.9043750 0.6943750 0.0165000
0.9678125 0.6946250 0.0172500
1.0000000 0.6948750 0.0180000
0.0170000 0.7535000 0.0060000
0.0804375 0.7537500 0.0067500
0.1438750 0.7540000 0.0075000
0.2073125 0.7542500 0.0082500
0.2707500 0.7545000 0.0090000
0.3341875 0.7547500 0.0097500
0.3976250 0.7550000 0.0105000
0.4610625 0.7552500 0.0112500
0.5245000 0.7555000 0.0120000
0.5879375 0.7557500 0.0127500
0.6513750 0.7560000 0.0135000
0.7148125 0.7562500 0.0142500
0.7782500 0.7565000 0.0150000
0.8416875 0.7567500 0.0157500
0.9051250 0.7570000 0.0165000
0.9685625 0.7572500 0.0172500
1.0000000 0.7575000 0.0180000
0.0177500 0.8161250 0.0060000
0.0811875 0.8163750 0.0067500
0.1446250 0.8166250 0.0075000
0.2080625 0.8168750 0.0082500
0.2715000 0.8171250 0.0090000
0.3349375 0.8173750 0.0097500
0.3983750 0.8176250 0.0105000
0.4618125 0.8178750 0.0112500
0.5252500 0.8181250 0.0120000
0.5886875 0.8183750 0.0127500
0.6521250 0.8186250 0.0135000
0.7155625 0.8188750 0.0142500
0.7790000 0.8191250 0.0150000
0.8424375 0.8193750 0.0157500
0.9058750 0.8196250 0.0165000
0.9693125 0.8198750 0.0172500
1.0000000 0.8201250 0.0180000
0.0185000 0.8787500 0.0060000
0.0819375 0.8790000 0.0067500
0.1453750 0.8792500 0.0075000
0.2088125 0.8795000 0.0082500
0.2722500 0.8797500 0.0090000
0.3356875 0.8800000 0.0097500
0.3991250 0.8802500 0.0105000
0.4625625 0.8805000 0.0112500
0.5260000 0.8807500 0.0120000
0.5894375 0.8810000 0.0127500
0.6528750 0.8812500 0.0135000
0.7163125 0.8815000 0.0142500
0.7797500 0.8817500 0.0150000
0.8431875 0.8820000 0.0157500
0.9066250 0.8822500 0.0165000
0.9700625 0.8825000 0.0172500
1.0000000 0.8827500 0.0180000
0.0192500 0.9413750 0.0060000
0.0826875 0.9416250 0.0067500
0.1461250 0.9418750 0.0075000
0.2095625 0.9421250 0.0082500
0.2730000 0.9423750 0.0090000
0.3364375 0.9426250 0.0097500
0.3998750 0.9428750 0.0105000
0.4633125 0.9431250 0.0112500
0.5267500 0.9433750 0.0120000
0.5901875 0.9436250 0.0127500
0.6536250 0.9438750 0.0135000
0.7170625 0.9441250 0.0142500
0.7805000 0.9443750 0.0150000
0.8439375 0.9446250 0.0157500
0.9073750 0.9448750 0.0165000
0.9708125 0.9451250 0.0172500
1.0000000 0.9453750 0.0180000
0.0200000 1.0000000 0.0060000
0.0834375 1.0000000 0.0067500
0.1468750 1.0000000 0.0075000
0.2103125 1.0000000 0.0082500
0.2737500 1.0000000 0.0090000
0.3371875 1.0000000 0.0097500
0.4006250 1.0000000 0.0105000
0.4640625 1.0000000 0.0112500
0.5275000 1.0000000 0.0120000
0.5909375 1.0000000 0.0127500
0.6543750 1.0000000 0.0135000
0.7178125 1.0000000 0.0142500
0.7812500 1.0000000 0.0150000
0.8446875 1.0000000 0.0157500
0.9081250 1.0000000 0.0165000
0.9715625 1.0000000 0.0172500
1.0000000 1.0000000 0.0180000
0.0080000 0.0020000 0.0660000
0.0714375 0.0022500 0.0667500
0.1348750 0.0025000 0.0675000
0.1983125 0.0027500 0.0682500
0.2617500 0.0030000 0.0690000
0.3251875 0.0032500 0.0697500
0.3886250 0.0035000 0.0705000
0.4520625 0.0037500 0.0712500
0.5155000 0.0040000 0.0720000
0.5789375 0.0042500 0.0727500
0.6423750 0.0045000 0.0735000
0.7058125 0.0047500 0.0742500
0.7692500 0.0050000 0.0750000
0.8326875 0.0052500 0.0757500
0.8961250 0.0055000 0.0765000
0.9595625 0.0057500 0.0772500
1.0000000 0.0060000 0.0780000
0.0087500 0.0646250 0.0660000
0.0721875 0.0648750 0.0667500
0.1356250 0.0651250 0.0675000
0.1990625 0.0653750 0.0682500
0.2625000 0.0656250 0.0690000
0.3259375 0.0658750 0.0697500
0.3893750 0.0661250 0.0705000
0.4528125 0.0663750 0.0712500
0.5162500 0.0666250 0.0720000
0.5796875 0.0668750 0.0727500
0.6431250 0.0671250 0.0735000
0.7065625 0.0673750 0.0742500
0.7700000 0.0676250 0.0750000
0.8334375 0.0678750 0.0757500
0.8968750 0.0681250 0.0765000
0.9603125 0.0683750 0.0772500
1.0000000 0.0686250 0.0780000
0.0095000 0.1272500 0.0660000
0.0729375 0.1275000 0.0667500
0.1363750 0.1277500 0.0675000
0.1998125 0.1280000 0.0682500
0.2632500 0.1282500 0.0690000
0.3266875 0.1285000 0.0697500
0.3901250 0.1287500 0.0705000
0.4535625 0.1290000 0.0712500
0.5170000 0.1292500 0.0720000
0.5804375 0.1295000 0.0727500
0.6438750 0.1297500 0.0735000
0.7073125 0.1300000 0.0742500
0.7707500 0.1302500 0.0750000
0.8341875 0.1305000 0.0757500
0.8976250 0.1307500 0.0765000
0.9610625 0.1310000 0.0772500
1.0000000 0.1312500 0.0780000
0.0102500 0.1898750 0.0660000
0.0736875 0.1901250 0.0667500
0.1371250 0.1903750 0.0675000
0.2005625 0.1906250 0.0682500
0.2640000 0.1908750 0.0690000
0.3274375 0.1911250 0.0697500
0.3908750 0.1913750 0.0705000
0.4543125 0.1916250 0.0712500
0.5177500 0.1918750 0.0720000
0.5811875 0.1921250 0.0727500
0.6446250 0.1923750 0.0735000
0.7080625 0.1926250 0.0742500
0.7715000 0.1928750 0.0750000
0.8349375 0.1931250 0.0757500
0.8983750 0.1933750 0.0765000
0.9618125 0.1936250 0.0772500
1.0000000 0.1938750 0.0780000
0.0110000 0.2525000 0.0660000
0.0744375 0.2527500 0.0667500
0.1378750 0.2530000 0.0675000
0.2013125 0.2532500 0.0682500
0.2647500 0.2535000 0.0690000
0.3281875 0.2537500 0.0697500
0.3916250 0.2540000 0.0705000
0.4550625 0.2542500 0.0712500
0.5185000 0.2545000 0.0720000
0.5819375 0.2547500 0.0727500
0.6453750 0.2550000 0.0735000
0.7088125 0.2552500 0.0742500
0.7722500 0.2555000 0.0750000
0.8356875 0.2557500 0.0757500
0.8991250 0.2560000 0.0765000
0.9625625 0.2562500 0.0772500
1.0000000 0.2565000 0.0780000
0.0117500 0.3151250 0.0660000
0.0751875 0.3153750 0.0667500
0.1386250 0.3156250 0.0675000
0.2020625 0.3158750 0.0682500
0.2655000 0.3161250 0.0690000
0.3289375 0.3163750 0.0697500
0.3923750 0.3166250 0.0705000
0.4558125 0.3168750 0.0712500
0.5192500 0.3171250 0.0720000
0.5826875 0.3173750 0.0727500
0.6461250 0.3176250 0.0735000
0.7095625 0.3178750 0.0742500
0.7730000 0.3181250 0.0750000
0.8364375 0.3183750 0.0757500
0.8998750 0.3186250 0.0765000
0.9633125 0.3188750 0.0772500
1.0000000 0.3191250 0.0780000
0.0125000 0.3777500 0.0660000
0.0759375 0.3780000 0.0667500
0.1393750 0.3782500 0.0675000
0.2028125 0.3785000 0.0682500
0.2662500 0.3787500 0.0690000
0.3296875 0.3790000 0.0697500
0.3931250 0.3792500 0.0705000
0.4565625 0.3795000 0.0712500
0.5200000 0.3797500 0.0720000
0.5834375 0.3800000 0.0727500
0.6468750 0.3802500 0.0735000
0.7103125 0.3805000 0.0742500
0.7737500 0.3807500 0.0750000
0.8371875 0.3810000 0.0757500
0.9006250 0.3812500 0.0765000
0.9640625 0.3815000 0.0772500
1.0000000 0.3817500 0.0780000
0.0132500 0.4403750 0.0660000
0.0766875 0.4406250 0.0667500
0.1401250 0.4408750 0.0675000
0.2035625 0.4411250 0.0682500
0.2670000 0.4413750 0.0690000
0.3304375 0.4416250 0.0697500
0.3938750 0.4418750 0.0705000
0.4573125 0.4421250 0.0712500
0.5207500 0.4423750 0.0720000
0.5841875 0.4426250 0.0727500
0.6476250 0.4428750 0.0735000
0.7110625 0.4431250 0.0742500
0.7745000 0.4433750 0.0750000
0.8379375 0.4436250 0.0757500
0.9013750 0.4438750 0.0765000
0.9648125 0.4441250 0.0772500
1.0000000 0.4443750 0.0780000
0.0140000 0.5030000 0.0660000
0.0774375 0.5032500 0.0667500
0.1408750 0.5035000 0.0675000
0.2043125 0.5037500 0.0682500
0.2677500 0.5040000 0.0690000
0.3311875 0.5042500 0.0697500
0.3946250 0.5045000 0.0705000
0.4580625 0.5047500 0.0712500
0.5215000 0.5050000 0.0720000
0.5849375 0.5052500 0.0727500
0.6483750 0.5055000 0.0735000
0.7118125 0.5057500 0.0742500
0.7752500 0.5060000 0.0750000
0.8386875 0.5062500 0.0757500
0.9021250 0.5065000 0.0765000
0.9655625 0.5067500 0.0772500
1.0000000 0.5070000 0.0780000
0.0147500 0.5656250 0.0660000
0.0781875 0.5658750 0.0667500
0.1416250 0.5661250 0.0675000
0.2050625 0.5663750 0.0682500
0.2685000 0.5666250 0.0690000
0.3319375 0.5668750 0.0697500
0.3953750 0.5671250 0.0705000
0.4588125 0.5673750 0.0712500
0.5222500 0.5676250 0.0720000
0.5856875 0.5678750 0.0727500
0.6491250 0.5681250 0.0735000
0.7125625 0.5683750 0.0742500
0.7760000 0.5686250 0.0750000
0.8394375 0.5688750 0.0757500
0.9028750 0.5691250 0.0765000
0.9663125 0.5693750 0.0772500
1.0000000 0.5696250 0.0780000
0.0155000 0.6282500 0.0660000
0.0789375 0.6285000 0.0667500
0.1423750 0.6287500 0.0675000
0.2058125 0.6290000 0.0682500
0.2692500 0.6292500 0.0690000
0.3326875 0.6295000 0.0697500
0.3961250 0.6297500 0.0705000
0.4595625 0.6300000 0.0712500
0.5230000 0.6302500 0.0720000
0.5864375 0.6305000 0.0727500
0.6498750 0.6307500 0.0735000
0.7133125 0.6310000 0.0742500
0.7767500 0.6312500 0.0750000
0.8401875 0.6315000 0.0757500
0.9036250 0.6317500 0.0765000
0.9670625 0.6320000 0.0772500
1.0000000 0.6322500 0.0780000
0.0162500 0.6908750 0.0660000
0.0796875 0.6911250 0.0667500
0.1431250 0.6913750 0.0675000
0.2065625 0.6916250 0.0682500
0.2700000 0.6918750 0.0690000
0.3334375 0.6921250 0.0697500
0.3968750 0.6923750 0.0705000
0.4603125 0.6926250 0.0712500
0.5237500 0.6928750 0.0720000
0.5871875 0.6931250 0.0727500
0.6506250 0.6933750 0.0735000
0.7140625 0.6936250 0.0742500
0.7775000 0.6938750 0.0750000
0.8409375 0.6941250 0.0757500
0.9043750 0.6943750 0.0765000
0.9678125 0.6946250 0.0772500
1.0000000 0.6948750 0.0780000
0.0170000 0.7535000 0.0660000
0.0804375 0.7537500 0.0667500
0.1438750 0.7540000 0.0675000
0.2073125 0.7542500 0.0682500
0.2707500 0.7545000 0.0690000
0.3341875 0.7547500 0.0697500
0.3976250 0.7550000 0.0705000
0.4610625 0.7552500 0.0712500
0.5245000 0.7555000 0.0720000
0.5879375 0.7557500 0.0727500
0.6513750 0.7560000 0.0735000
0.7148125 0.7562500 0.0742500
0.7782500 0.7565000 0.0750000
0.8416875 0.7567500 0.0757500
0.9051250 0.7570000 0.0765000
0.9685625 0.7572500 0.0772500
1.0000000 0.7575000 0.0780000
0.0177500 0.8161250 0.0660000
0.0811875 0.8163750 0.0667500
0.1446250 0.8166250 0.0675000
0.2080625 0.8168750 0.0682500
0.2715000 0.8171250 0.0690000
0.3349375 0.8173750 0.0697500
0.3983750 0.8176250 0.0705000
0.4618125 0.8178750 0.0712500
0.5252500 0.8181250 0.0720000
0.5886875 0.8183750 0.0727500
0.6521250 0.8186250 0.0735000
0.7155625 0.8188750 0.0742500
0.7790000 0.8191250 0.0750000
0.8424375 0.8193750 0.0757500
0.9058750 0.8196250 0.0765000
0.9693125 0.8198750 0.0772500
1.0000000 0.8201250 0.0780000
0.0185000 0.8787500 0.0660000
0.0819375 0.8790000 0.0667500
0.1453750 0.8792500 0.0675000
0.2088125 0.8795000 0.0682500
0.2722500 0.8797500 0.0690000
0.3356875 0.8800000 0.0697500
0.3991250 0.8802500 0.0705000
0.4625625 0.8805000 0.0712500
0.5260000 0.8807500 0.0720000
0.5894375 0.8810000 0.0727500
0.6528750 0.8812500 0.0735000
0.7163125 0.8815000 0.0742500
0.7797500 0.8817500 0.0750000
0.8431875 0.8820000 0.0757500
0.9066250 0.8822500 0.0765000
0.9700625 0.8825000 0.0772500
1.0000000 0.8827500 0.0780000
0.0192500 0.9413750 0.0660000
0.0826875 0.9416250 0.0667500
0.1461250 0.9418750 0.0675000
0.2095625 0.9421250 0.0682500
0.2730000 0.9423750 0.0690000
0.3364375 0.9426250 0.0697500
0.3998750 0.9428750 0.0705000
0.4633125 0.9431250 0.0712500
0.5267500 0.9433750 0.0720000
0.5901875 0.9436250 0.0727500
0.6536250 0.9438750 0.0735000
0.7170625 0.9441250 0.0742500
0.7805000 0.9443750 0.0750000
0.8439375 0.9446250 0.0757500
0.9073750 0.9448750 0.0765000
0.9708125 0.9451250 0.0772500
1.0000000 0.9453750 0.0780000
0.0200000 1.0000000 0.0660000
0.0834375 1.0000000 0.0667500
0.1468750 1.0000000 0.0675000
0.2103125 1.0000000 0.0682500
0.2737500 1.0000000 0.0690000
0.3371875 1.0000000 0.0697500
0.4006250 1.0000000 0.0705000
0.4640625 1.0000000 0.0712500
0.5275000 1.0000000 0.0720000
0.5909375 1.0000000 0.0727500
0.6543750 1.0000000 0.0735000
0.7178125 1.0000000 0.0742500
0.7812500 1.0000000 0.0750000
0.8446875 1.0000000 0.0757500
0.9081250 1.0000000 0.0765000
0.9715625 1.0000000 0.0772500
1.0000000 1.0000000 0.0780000
0.0080000 0.0020000 0.1260000
0.0714375 0.0022500 0.1267500
0.1348750 0.0025000 0.1275000
0.1983125 0.0027500 0.1282500
0.2617500 0.0030000 0.1290000
0.3251875 0.0032500 0.1297500
0.3886250 0.0035000 0.1305000
0.4520625 0.0037500 0.1312500
0.5155000 0.0040000 0.1320000
0.5789375 0.0042500 0.1327500
0.6423750 0.0045000 0.1335000
0.7058125 0.0047500 0.1342500
0.7692500 0.0050000 0.1350000
0.8326875 0.0052500 0.1357500
0.8961250 0.0055000 0.1365000
0.9595625 0.0057500 0.1372500
1.0000000 0.0060000 0.1380000
0.0087500 0.0646250 0.1260000
0.0721875 0.0648750 0.1267500
0.1356250 0.0651250 0.1275000
0.1990625 0.0653750 0.1282500
0.2625000 0.0656250 0.1290000
0.3259375 0.0658750 0.1297500
0.3893750 0.0661250 0.1305000
0.4528125 0.0663750 0.1312500
0.5162500 0.0666250 0.1320000
0.5796875 0.0668750 0.1327500
0.6431250 0.0671250 0.1335000
0.7065625 0.0673750 0.1342500
0.7700000 0.0676250 0.1350000
0.8334375 0.0678750 0.1357500
0.8968750 0.0681250 0.1365000
0.9603125 0.0683750 0.1372500
1.0000000 0.0686250 0.1380000
0.0095000 0.1272500 0.1260000
0.0729375 0.1275000 0.1267500
0.1363750 0.1277500 0.1275000
0.1998125 0.1280000 0.1282500
0.2632500 0.1282500 0.1290000
0.3266875 0.1285000 0.1297500
0.3901250 0.1287500 0.1305000
0.4535625 0.1290000 0.1312500
0.5170000 0.1292500 0.1320000
0.5804375 0.1295000 0.1327500
0.6438750 0.1297500 0.1335000
0.7073125 0.1300000 0.1342500
0.7707500 0.1302500 0.1350000
0.8341875 0.1305000 0.1357500
0.8976250 0.1307500 0.1365000
0.9610625 0.1310000 0.1372500
1.0000000 0.1312500 0.1380000
0.0102500 0.1898750 0.1260000
0.0736875 0.1901250 0.1267500
0.1371250 0.1903750 0.1275000
0.2005625 0.1906250 0.1282500
0.2640000 0.1908750 0.1290000
0.3274375 0.1911250 0.1297500
0.3908750 0.1913750 0.1305000
0.4543125 0.1916250 0.1312500
0.5177500 0.1918750 0.1320000
0.5811875 0.1921250 0.1327500
0.6446250 0.1923750 0.1335000
0.7080625 0.1926250 0.1342500
0.7715000 0.1928750 0.1350000
0.8349375 0.1931250 0.1357500
0.8983750 0.1933750 0.1365000
0.9618125 0.1936250 0.1372500
1.0000000 0.1938750 0.1380000
0.0110000 0.2525000 0.1260000
0.0744375 0.2527500 0.1267500
0.1378750 0.2530000 0.1275000
0.2013125 0.2532500 0.1282500
0.2647500 0.2535000 0.1290000
0.3281875 0.2537500 0.1297500
0.3916250 0.2540000 0.1305000
0.4550625 0.2542500 0.1312500
0.5185000 0.2545000 0.1320000
0.5819375 0.2547500 0.1327500
0.6453750 0.2550000 0.1335000
0.7088125 0.2552500 0.1342500
0.7722500 0.2555000 0.1350000
0.8356875 0.2557500 0.1357500
0.8991250 0.2560000 0.1365000
0.9625625 0.2562500 0.1372500
1.0000000 0.2565000 0.1380000
0.0117500 0.3151250 0.1260000
0.0751875 0.3153750 0.1267500
0.1386250 0.3156250 0.1275000
0.2020625 0.3158750 0.1282500
0.2655000 0.3161250 0.1290000
0.3289375 0.3163750 0.1297500
0.3923750 0.3166250 0.1305000
0.4558125 0.3168750 0.1312500
0.5192500 0.3171250 0.1320000
0.5826875 0.3173750 0.1327500
0.6461250 0.3176250 0.1335000
0.7095625 0.3178750 0.1342500
0.7730000 0.3181250 0.1350000
0.8364375 0.3183750 0.1357500
0.8998750 0.3186250 0.1365000
0.9633125 0.3188750 0.1372500
1.0000000 0.3191250 0.1380000
0.0125000 0.3777500 0.1260000
0.0759375 0.3780000 0.1267500
0.1393750 0.3782500 0.1275000
0.2028125 0.3785000 0.1282500
0.2662500 0.3787500 0.1290000
0.3296875 0.3790000 0.1297500
0.3931250 0.3792500 0.1305000
0.4565625 0.3795000 0.1312500
0.5200000 0.3797500 0.1320000
0.5834375 0.3800000 0.1327500
0.6468750 0.3802500 0.1335000
0.7103125 0.3805000 0.1342500
0.7737500 0.3807500 0.1350000
0.8371875 0.3810000 0.1357500
0.9006250 0.3812500 0.1365000
0.9640625 0.3815000 0.1372500
1.0000000 0.3817500 0.1380000
0.0132500 0.4403750 0.1260000
0.0766875 0.4406250 0.1267500
0.1401250 0.4408750 0.1275000
0.2035625 0.4411250 0.1282500
0.2670000 0.4413750 0.1290000
0.3304375 0.4416250 0.1297500
0.3938750 0.4418750 0.1305000
0.4573125 0.4421250 0.1312500
0.5207500 0.4423750 0.1320000
0.5841875 0.4426250 0.1327500
0.6476250 0.4428750 0.1335000
0.7110625 0.4431250 0.1342500
0.7745000 0.4433750 0.1350000
0.8379375 0.4436250 0.1357500
0.9013750 0.4438750 0.1365000
0.9648125 0.4441250 0.1372500
1.0000000 0.4443750 0.1380000
0.0140000 0.5030000 0.1260000
0.0774375 0.5032500 0.1267500
0.1408750 0.5035000 0.1275000
0.2043125 0.5037500 0.1282500
0.2677500 0.5040000 0.1290000
0.3311875 0.5042500 0.1297500
0.3946250 0.5045000 0.1305000
0.4580625 0.5047500 0.1312500
0.5215000 0.5050000 0.1320000
0.5849375 0.5052500 0.1327500
0.6483750 0.5055000 0.1335000
0.7118125 0.5057500 0.1342500
0.7752500 0.5060000 0.1350000
0.8386875 0.5062500 0.1357500
0.9021250 0.5065000 0.1365000
0.9655625 0.5067500 0.1372500
1.0000000 0.5070000 0.1380000
0.0147500 0.5656250 0.1260000
0.0781875 0.5658750 0.1267500
0.1416250 0.5661250 0.1275000
0.2050625 0.5663750 0.1282500
0.2685000 0.5666250 0.1290000
0.3319375 0.5668750 0.1297500
0.3953750 0.5671250 0.1305000
0.4588125 0.5673750 0.1312500
0.5222500 0.5676250 0.1320000
0.5856875 0.5678750 0.1327500
0.6491250 0.5681250 0.1335000
0.7125625 0.5683750 0.1342500
0.7760000 0.5686250 0.1350000
0.8394375 0.5688750 0.1357500
0.9028750 0.5691250 0.1365000
0.9663125 0.5693750 0.1372500
1.0000000 0.5696250 0.1380000
0.0155000 0.6282500 0.1260000
0.0789375 0.6285000 0.1267500
0.1423750 0.6287500 0.1275000
0.2058125 0.6290000 0.1282500
0.2692500 0.6292500 0.1290000
0.3326875 0.6295000 0.1297500
0.3961250 0.6297500 0.1305000
0.4595625 0.6300000 0.1312500
0.5230000 0.6302500 0.1320000
0.5864375 0.6305000 0.1327500
0.6498750 0.6307500 0.1335000
0.7133125 0.6310000 0.1342500
0.7767500 0.6312500 0.1350000
0.8401875 0.6315000 0.1357500
0.9036250 0.6317500 0.1365000
0.9670625 0.6320000 0.1372500
1.0000000 0.6322500 0.1380000
0.0162500 0.6908750 0.1260000
0.0796875 0.6911250 0.1267500
0.1431250 0.6913750 0.1275000
0.2065625 0.6916250 0.1282500
0.2700000 0.6918750 0.1290000
0.3334375 0.6921250 0.1297500
0.3968750 0.6923750 0.1305000
0.4603125 0.6926250 0.1312500
0.5237500 0.6928750 0.1320000
0.5871875 0.6931250 0.1327500
0.6506250 0.6933750 0.1335000
0.7140625 0.6936250 0.1342500
0.7775000 0.6938750 0.1350000
0.8409375 0.6941250 0.1357500
0.9043750 0.6943750 0.1365000
0.9678125 0.6946250 0.1372500
1.0000000 0.6948750 0.1380000
0.0170000 0.7535000 0.1260000
0.0804375 0.7537500 0.1267500
0.1438750 0.7540000 0.1275000
0.2073125 0.7542500 0.1282500
0.2707500 0.7545000 0.1290000
0.3341875 0.7547500 0.1297500
0.3976250 0.7550000 0.1305000
0.4610625 0.7552500 0.1312500
