assets/color-grade/p2-builtin-filters/soft-portrait.cube
# Real Landscape P2 self-developed content. Do not label as an official or original brand LUT.
# License: project-owned content, redistribution permitted with this notice.
TITLE "柔和肖像"
# Internal ID: soft-portrait
LUT_3D_SIZE 9
DOMAIN_MIN 0.0 0.0 0.0
DOMAIN_MAX 1.0 1.0 1.0
0.0080000 0.0020000 0.0060000
0.1348750 0.0025000 0.0075000
0.2617500 0.0030000 0.0090000
0.3886250 0.0035000 0.0105000
0.5155000 0.0040000 0.0120000
0.6423750 0.0045000 0.0135000
0.7692500 0.0050000 0.0150000
0.8961250 0.0055000 0.0165000
1.0000000 0.0060000 0.0180000
0.0095000 0.1272500 0.0060000
0.1363750 0.1277500 0.0075000
0.2632500 0.1282500 0.0090000
0.3901250 0.1287500 0.0105000
0.5170000 0.1292500 0.0120000
0.6438750 0.1297500 0.0135000
0.7707500 0.1302500 0.0150000
0.8976250 0.1307500 0.0165000
1.0000000 0.1312500 0.0180000
0.0110000 0.2525000 0.0060000
0.1378750 0.2530000 0.0075000
0.2647500 0.2535000 0.0090000
0.3916250 0.2540000 0.0105000
0.5185000 0.2545000 0.0120000
0.6453750 0.2550000 0.0135000
0.7722500 0.2555000 0.0150000
0.8991250 0.2560000 0.0165000
1.0000000 0.2565000 0.0180000
0.0125000 0.3777500 0.0060000
0.1393750 0.3782500 0.0075000
0.2662500 0.3787500 0.0090000
0.3931250 0.3792500 0.0105000
0.5200000 0.3797500 0.0120000
0.6468750 0.3802500 0.0135000
0.7737500 0.3807500 0.0150000
0.9006250 0.3812500 0.0165000
1.0000000 0.3817500 0.0180000
0.0140000 0.5030000 0.0060000
0.1408750 0.5035000 0.0075000
0.2677500 0.5040000 0.0090000
0.3946250 0.5045000 0.0105000
0.5215000 0.5050000 0.0120000
0.6483750 0.5055000 0.0135000
0.7752500 0.5060000 0.0150000
0.9021250 0.5065000 0.0165000
1.0000000 0.5070000 0.0180000
0.0155000 0.6282500 0.0060000
0.1423750 0.6287500 0.0075000
0.2692500 0.6292500 0.0090000
0.3961250 0.6297500 0.0105000
0.5230000 0.6302500 0.0120000
0.6498750 0.6307500 0.0135000
0.7767500 0.6312500 0.0150000
0.9036250 0.6317500 0.0165000
1.0000000 0.6322500 0.0180000
0.0170000 0.7535000 0.0060000
0.1438750 0.7540000 0.0075000
0.2707500 0.7545000 0.0090000
0.3976250 0.7550000 0.0105000
0.5245000 0.7555000 0.0120000
0.6513750 0.7560000 0.0135000
0.7782500 0.7565000 0.0150000
0.9051250 0.7570000 0.0165000
1.0000000 0.7575000 0.0180000
0.0185000 0.8787500 0.0060000
0.1453750 0.8792500 0.0075000
0.2722500 0.8797500 0.0090000
0.3991250 0.8802500 0.0105000
0.5260000 0.8807500 0.0120000
0.6528750 0.8812500 0.0135000
0.7797500 0.8817500 0.0150000
0.9066250 0.8822500 0.0165000
1.0000000 0.8827500 0.0180000
0.0200000 1.0000000 0.0060000
0.1468750 1.0000000 0.0075000
0.2737500 1.0000000 0.0090000
0.4006250 1.0000000 0.0105000
0.5275000 1.0000000 0.0120000
0.6543750 1.0000000 0.0135000
0.7812500 1.0000000 0.0150000
0.9081250 1.0000000 0.0165000
1.0000000 1.0000000 0.0180000
0.0080000 0.0020000 0.1260000
0.1348750 0.0025000 0.1275000
0.2617500 0.0030000 0.1290000
0.3886250 0.0035000 0.1305000
0.5155000 0.0040000 0.1320000
0.6423750 0.0045000 0.1335000
0.7692500 0.0050000 0.1350000
0.8961250 0.0055000 0.1365000
1.0000000 0.0060000 0.1380000
0.0095000 0.1272500 0.1260000
0.1363750 0.1277500 0.1275000
0.2632500 0.1282500 0.1290000
0.3901250 0.1287500 0.1305000
0.5170000 0.1292500 0.1320000
0.6438750 0.1297500 0.1335000
0.7707500 0.1302500 0.1350000
0.8976250 0.1307500 0.1365000
1.0000000 0.1312500 0.1380000
0.0110000 0.2525000 0.1260000
0.1378750 0.2530000 0.1275000
0.2647500 0.2535000 0.1290000
0.3916250 0.2540000 0.1305000
0.5185000 0.2545000 0.1320000
0.6453750 0.2550000 0.1335000
0.7722500 0.2555000 0.1350000
0.8991250 0.2560000 0.1365000
1.0000000 0.2565000 0.1380000
0.0125000 0.3777500 0.1260000
0.1393750 0.3782500 0.1275000
0.2662500 0.3787500 0.1290000
0.3931250 0.3792500 0.1305000
0.5200000 0.3797500 0.1320000
0.6468750 0.3802500 0.1335000
0.7737500 0.3807500 0.1350000
0.9006250 0.3812500 0.1365000
1.0000000 0.3817500 0.1380000
0.0140000 0.5030000 0.1260000
0.1408750 0.5035000 0.1275000
0.2677500 0.5040000 0.1290000
0.3946250 0.5045000 0.1305000
0.5215000 0.5050000 0.1320000
0.6483750 0.5055000 0.1335000
0.7752500 0.5060000 0.1350000
0.9021250 0.5065000 0.1365000
1.0000000 0.5070000 0.1380000
0.0155000 0.6282500 0.1260000
0.1423750 0.6287500 0.1275000
0.2692500 0.6292500 0.1290000
0.3961250 0.6297500 0.1305000
0.5230000 0.6302500 0.1320000
0.6498750 0.6307500 0.1335000
0.7767500 0.6312500 0.1350000
0.9036250 0.6317500 0.1365000
1.0000000 0.6322500 0.1380000
0.0170000 0.7535000 0.1260000
0.1438750 0.7540000 0.1275000
0.2707500 0.7545000 0.1290000
0.3976250 0.7550000 0.1305000
0.5245000 0.7555000 0.1320000
0.6513750 0.7560000 0.1335000
0.7782500 0.7565000 0.1350000
0.9051250 0.7570000 0.1365000
1.0000000 0.7575000 0.1380000
0.0185000 0.8787500 0.1260000
0.1453750 0.8792500 0.1275000
0.2722500 0.8797500 0.1290000
0.3991250 0.8802500 0.1305000
0.5260000 0.8807500 0.1320000
0.6528750 0.8812500 0.1335000
0.7797500 0.8817500 0.1350000
0.9066250 0.8822500 0.1365000
1.0000000 0.8827500 0.1380000
0.0200000 1.0000000 0.1260000
0.1468750 1.0000000 0.1275000
0.2737500 1.0000000 0.1290000
0.4006250 1.0000000 0.1305000
0.5275000 1.0000000 0.1320000
0.6543750 1.0000000 0.1335000
0.7812500 1.0000000 0.1350000
0.9081250 1.0000000 0.1365000
1.0000000 1.0000000 0.1380000
0.0080000 0.0020000 0.2460000
0.1348750 0.0025000 0.2475000
0.2617500 0.0030000 0.2490000
0.3886250 0.0035000 0.2505000
0.5155000 0.0040000 0.2520000
0.6423750 0.0045000 0.2535000
0.7692500 0.0050000 0.2550000
0.8961250 0.0055000 0.2565000
1.0000000 0.0060000 0.2580000
0.0095000 0.1272500 0.2460000
0.1363750 0.1277500 0.2475000
0.2632500 0.1282500 0.2490000
0.3901250 0.1287500 0.2505000
0.5170000 0.1292500 0.2520000
0.6438750 0.1297500 0.2535000
0.7707500 0.1302500 0.2550000
0.8976250 0.1307500 0.2565000
1.0000000 0.1312500 0.2580000
0.0110000 0.2525000 0.2460000
0.1378750 0.2530000 0.2475000
0.2647500 0.2535000 0.2490000
0.3916250 0.2540000 0.2505000
0.5185000 0.2545000 0.2520000
0.6453750 0.2550000 0.2535000
0.7722500 0.2555000 0.2550000
0.8991250 0.2560000 0.2565000
1.0000000 0.2565000 0.2580000
0.0125000 0.3777500 0.2460000
0.1393750 0.3782500 0.2475000
0.2662500 0.3787500 0.2490000
0.3931250 0.3792500 0.2505000
0.5200000 0.3797500 0.2520000
0.6468750 0.3802500 0.2535000
0.7737500 0.3807500 0.2550000
0.9006250 0.3812500 0.2565000
1.0000000 0.3817500 0.2580000
0.0140000 0.5030000 0.2460000
0.1408750 0.5035000 0.2475000
0.2677500 0.5040000 0.2490000
0.3946250 0.5045000 0.2505000
0.5215000 0.5050000 0.2520000
0.6483750 0.5055000 0.2535000
0.7752500 0.5060000 0.2550000
0.9021250 0.5065000 0.2565000
1.0000000 0.5070000 0.2580000
0.0155000 0.6282500 0.2460000
0.1423750 0.6287500 0.2475000
0.2692500 0.6292500 0.2490000
0.3961250 0.6297500 0.2505000
0.5230000 0.6302500 0.2520000
0.6498750 0.6307500 0.2535000
0.7767500 0.6312500 0.2550000
0.9036250 0.6317500 0.2565000
1.0000000 0.6322500 0.2580000
0.0170000 0.7535000 0.2460000
0.1438750 0.7540000 0.2475000
0.2707500 0.7545000 0.2490000
0.3976250 0.7550000 0.2505000
0.5245000 0.7555000 0.2520000
0.6513750 0.7560000 0.2535000
0.7782500 0.7565000 0.2550000
0.9051250 0.7570000 0.2565000
1.0000000 0.7575000 0.2580000
0.0185000 0.8787500 0.2460000
0.1453750 0.8792500 0.2475000
0.2722500 0.8797500 0.2490000
0.3991250 0.8802500 0.2505000
0.5260000 0.8807500 0.2520000
0.6528750 0.8812500 0.2535000
0.7797500 0.8817500 0.2550000
0.9066250 0.8822500 0.2565000
1.0000000 0.8827500 0.2580000
0.0200000 1.0000000 0.2460000
0.1468750 1.0000000 0.2475000
0.2737500 1.0000000 0.2490000
0.4006250 1.0000000 0.2505000
0.5275000 1.0000000 0.2520000
0.6543750 1.0000000 0.2535000
0.7812500 1.0000000 0.2550000
0.9081250 1.0000000 0.2565000
1.0000000 1.0000000 0.2580000
0.0080000 0.0020000 0.3660000
0.1348750 0.0025000 0.3675000
0.2617500 0.0030000 0.3690000
0.3886250 0.0035000 0.3705000
0.5155000 0.0040000 0.3720000
0.6423750 0.0045000 0.3735000
0.7692500 0.0050000 0.3750000
0.8961250 0.0055000 0.3765000
1.0000000 0.0060000 0.3780000
0.0095000 0.1272500 0.3660000
0.1363750 0.1277500 0.3675000
0.2632500 0.1282500 0.3690000
0.3901250 0.1287500 0.3705000
0.5170000 0.1292500 0.3720000
0.6438750 0.1297500 0.3735000
0.7707500 0.1302500 0.3750000
0.8976250 0.1307500 0.3765000
1.0000000 0.1312500 0.3780000
0.0110000 0.2525000 0.3660000
0.1378750 0.2530000 0.3675000
0.2647500 0.2535000 0.3690000
0.3916250 0.2540000 0.3705000
0.5185000 0.2545000 0.3720000
0.6453750 0.2550000 0.3735000
0.7722500 0.2555000 0.3750000
0.8991250 0.2560000 0.3765000
1.0000000 0.2565000 0.3780000
0.0125000 0.3777500 0.3660000
0.1393750 0.3782500 0.3675000
0.2662500 0.3787500 0.3690000
0.3931250 0.3792500 0.3705000
0.5200000 0.3797500 0.3720000
0.6468750 0.3802500 0.3735000
0.7737500 0.3807500 0.3750000
0.9006250 0.3812500 0.3765000
1.0000000 0.3817500 0.3780000
0.0140000 0.5030000 0.3660000
0.1408750 0.5035000 0.3675000
0.2677500 0.5040000 0.3690000
0.3946250 0.5045000 0.3705000
0.5215000 0.5050000 0.3720000
0.6483750 0.5055000 0.3735000
0.7752500 0.5060000 0.3750000
0.9021250 0.5065000 0.3765000
1.0000000 0.5070000 0.3780000
0.0155000 0.6282500 0.3660000
0.1423750 0.6287500 0.3675000
0.2692500 0.6292500 0.3690000
0.3961250 0.6297500 0.3705000
0.5230000 0.6302500 0.3720000
0.6498750 0.6307500 0.3735000
0.7767500 0.6312500 0.3750000
0.9036250 0.6317500 0.3765000
1.0000000 0.6322500 0.3780000
0.0170000 0.7535000 0.3660000
0.1438750 0.7540000 0.3675000
0.2707500 0.7545000 0.3690000
0.3976250 0.7550000 0.3705000
0.5245000 0.7555000 0.3720000
0.6513750 0.7560000 0.3735000
0.7782500 0.7565000 0.3750000
0.9051250 0.7570000 0.3765000
1.0000000 0.7575000 0.3780000
0.0185000 0.8787500 0.3660000
0.1453750 0.8792500 0.3675000
0.2722500 0.8797500 0.3690000
0.3991250 0.8802500 0.3705000
0.5260000 0.8807500 0.3720000
0.6528750 0.8812500 0.3735000
0.7797500 0.8817500 0.3750000
0.9066250 0.8822500 0.3765000
1.0000000 0.8827500 0.3780000
0.0200000 1.0000000 0.3660000
0.1468750 1.0000000 0.3675000
0.2737500 1.0000000 0.3690000
0.4006250 1.0000000 0.3705000
0.5275000 1.0000000 0.3720000
0.6543750 1.0000000 0.3735000
0.7812500 1.0000000 0.3750000
0.9081250 1.0000000 0.3765000
1.0000000 1.0000000 0.3780000
0.0080000 0.0020000 0.4860000
0.1348750 0.0025000 0.4875000
0.2617500 0.0030000 0.4890000
0.3886250 0.0035000 0.4905000
0.5155000 0.0040000 0.4920000
0.6423750 0.0045000 0.4935000
0.7692500 0.0050000 0.4950000
0.8961250 0.0055000 0.4965000
1.0000000 0.0060000 0.4980000
0.0095000 0.1272500 0.4860000
0.1363750 0.1277500 0.4875000
0.2632500 0.1282500 0.4890000
0.3901250 0.1287500 0.4905000
0.5170000 0.1292500 0.4920000
0.6438750 0.1297500 0.4935000
0.7707500 0.1302500 0.4950000
0.8976250 0.1307500 0.4965000
1.0000000 0.1312500 0.4980000
0.0110000 0.2525000 0.4860000
0.1378750 0.2530000 0.4875000
0.2647500 0.2535000 0.4890000
0.3916250 0.2540000 0.4905000
0.5185000 0.2545000 0.4920000
0.6453750 0.2550000 0.4935000
0.7722500 0.2555000 0.4950000
0.8991250 0.2560000 0.4965000
1.0000000 0.2565000 0.4980000
0.0125000 0.3777500 0.4860000
0.1393750 0.3782500 0.4875000
0.2662500 0.3787500 0.4890000
0.3931250 0.3792500 0.4905000
0.5200000 0.3797500 0.4920000
0.6468750 0.3802500 0.4935000
0.7737500 0.3807500 0.4950000
0.9006250 0.3812500 0.4965000
1.0000000 0.3817500 0.4980000
0.0140000 0.5030000 0.4860000
0.1408750 0.5035000 0.4875000
0.2677500 0.5040000 0.4890000
0.3946250 0.5045000 0.4905000
0.5215000 0.5050000 0.4920000
0.6483750 0.5055000 0.4935000
0.7752500 0.5060000 0.4950000
0.9021250 0.5065000 0.4965000
1.0000000 0.5070000 0.4980000
0.0155000 0.6282500 0.4860000
0.1423750 0.6287500 0.4875000
0.2692500 0.6292500 0.4890000
0.3961250 0.6297500 0.4905000
0.5230000 0.6302500 0.4920000
0.6498750 0.6307500 0.4935000
0.7767500 0.6312500 0.4950000
0.9036250 0.6317500 0.4965000
1.0000000 0.6322500 0.4980000
0.0170000 0.7535000 0.4860000
0.1438750 0.7540000 0.4875000
0.2707500 0.7545000 0.4890000
0.3976250 0.7550000 0.4905000
0.5245000 0.7555000 0.4920000
0.6513750 0.7560000 0.4935000
0.7782500 0.7565000 0.4950000
0.9051250 0.7570000 0.4965000
1.0000000 0.7575000 0.4980000
0.0185000 0.8787500 0.4860000
0.1453750 0.8792500 0.4875000
0.2722500 0.8797500 0.4890000
0.3991250 0.8802500 0.4905000
0.5260000 0.8807500 0.4920000
0.6528750 0.8812500 0.4935000
0.7797500 0.8817500 0.4950000
0.9066250 0.8822500 0.4965000
1.0000000 0.8827500 0.4980000
0.0200000 1.0000000 0.4860000
0.1468750 1.0000000 0.4875000
0.2737500 1.0000000 0.4890000
0.4006250 1.0000000 0.4905000
0.5275000 1.0000000 0.4920000
0.6543750 1.0000000 0.4935000
0.7812500 1.0000000 0.4950000
0.9081250 1.0000000 0.4965000
1.0000000 1.0000000 0.4980000
0.0080000 0.0020000 0.6060000
0.1348750 0.0025000 0.6075000
0.2617500 0.0030000 0.6090000
0.3886250 0.0035000 0.6105000
0.5155000 0.0040000 0.6120000
0.6423750 0.0045000 0.6135000
0.7692500 0.0050000 0.6150000
0.8961250 0.0055000 0.6165000
1.0000000 0.0060000 0.6180000
0.0095000 0.1272500 0.6060000
0.1363750 0.1277500 0.6075000
0.2632500 0.1282500 0.6090000
0.3901250 0.1287500 0.6105000
0.5170000 0.1292500 0.6120000
0.6438750 0.1297500 0.6135000
0.7707500 0.1302500 0.6150000
0.8976250 0.1307500 0.6165000
1.0000000 0.1312500 0.6180000
0.0110000 0.2525000 0.6060000
0.1378750 0.2530000 0.6075000
0.2647500 0.2535000 0.6090000
0.3916250 0.2540000 0.6105000
0.5185000 0.2545000 0.6120000
0.6453750 0.2550000 0.6135000
0.7722500 0.2555000 0.6150000
0.8991250 0.2560000 0.6165000
1.0000000 0.2565000 0.6180000
0.0125000 0.3777500 0.6060000
0.1393750 0.3782500 0.6075000
0.2662500 0.3787500 0.6090000
0.3931250 0.3792500 0.6105000
0.5200000 0.3797500 0.6120000
0.6468750 0.3802500 0.6135000
0.7737500 0.3807500 0.6150000
0.9006250 0.3812500 0.6165000
1.0000000 0.3817500 0.6180000
0.0140000 0.5030000 0.6060000
0.1408750 0.5035000 0.6075000
0.2677500 0.5040000 0.6090000
0.3946250 0.5045000 0.6105000
0.5215000 0.5050000 0.6120000
0.6483750 0.5055000 0.6135000
0.7752500 0.5060000 0.6150000
0.9021250 0.5065000 0.6165000
1.0000000 0.5070000 0.6180000
0.0155000 0.6282500 0.6060000
0.1423750 0.6287500 0.6075000
0.2692500 0.6292500 0.6090000
0.3961250 0.6297500 0.6105000
0.5230000 0.6302500 0.6120000
0.6498750 0.6307500 0.6135000
0.7767500 0.6312500 0.6150000
0.9036250 0.6317500 0.6165000
1.0000000 0.6322500 0.6180000
0.0170000 0.7535000 0.6060000
0.1438750 0.7540000 0.6075000
0.2707500 0.7545000 0.6090000
0.3976250 0.7550000 0.6105000
0.5245000 0.7555000 0.6120000
0.6513750 0.7560000 0.6135000
0.7782500 0.7565000 0.6150000
0.9051250 0.7570000 0.6165000
1.0000000 0.7575000 0.6180000
0.0185000 0.8787500 0.6060000
0.1453750 0.8792500 0.6075000
0.2722500 0.8797500 0.6090000
0.3991250 0.8802500 0.6105000
0.5260000 0.8807500 0.6120000
0.6528750 0.8812500 0.6135000
0.7797500 0.8817500 0.6150000
0.9066250 0.8822500 0.6165000
1.0000000 0.8827500 0.6180000
0.0200000 1.0000000 0.6060000
0.1468750 1.0000000 0.6075000
0.2737500 1.0000000 0.6090000
0.4006250 1.0000000 0.6105000
0.5275000 1.0000000 0.6120000
0.6543750 1.0000000 0.6135000
0.7812500 1.0000000 0.6150000
0.9081250 1.0000000 0.6165000
1.0000000 1.0000000 0.6180000
0.0080000 0.0020000 0.7260000
0.1348750 0.0025000 0.7275000
0.2617500 0.0030000 0.7290000
0.3886250 0.0035000 0.7305000
0.5155000 0.0040000 0.7320000
0.6423750 0.0045000 0.7335000
0.7692500 0.0050000 0.7350000
0.8961250 0.0055000 0.7365000
1.0000000 0.0060000 0.7380000
0.0095000 0.1272500 0.7260000
0.1363750 0.1277500 0.7275000
0.2632500 0.1282500 0.7290000
0.3901250 0.1287500 0.7305000
0.5170000 0.1292500 0.7320000
0.6438750 0.1297500 0.7335000
0.7707500 0.1302500 0.7350000
0.8976250 0.1307500 0.7365000
1.0000000 0.1312500 0.7380000
0.0110000 0.2525000 0.7260000
0.1378750 0.2530000 0.7275000
0.2647500 0.2535000 0.7290000
0.3916250 0.2540000 0.7305000
0.5185000 0.2545000 0.7320000
0.6453750 0.2550000 0.7335000
0.7722500 0.2555000 0.7350000
0.8991250 0.2560000 0.7365000
1.0000000 0.2565000 0.7380000
0.0125000 0.3777500 0.7260000
0.1393750 0.3782500 0.7275000
0.2662500 0.3787500 0.7290000
0.3931250 0.3792500 0.7305000
0.5200000 0.3797500 0.7320000
0.6468750 0.3802500 0.7335000
0.7737500 0.3807500 0.7350000
0.9006250 0.3812500 0.7365000
1.0000000 0.3817500 0.7380000
0.0140000 0.5030000 0.7260000
0.1408750 0.5035000 0.7275000
0.2677500 0.5040000 0.7290000
0.3946250 0.5045000 0.7305000
0.5215000 0.5050000 0.7320000
0.6483750 0.5055000 0.7335000
0.7752500 0.5060000 0.7350000
0.9021250 0.5065000 0.7365000
1.0000000 0.5070000 0.7380000
0.0155000 0.6282500 0.7260000
0.1423750 0.6287500 0.7275000
0.2692500 0.6292500 0.7290000
0.3961250 0.6297500 0.7305000
0.5230000 0.6302500 0.7320000
0.6498750 0.6307500 0.7335000
0.7767500 0.6312500 0.7350000
0.9036250 0.6317500 0.7365000
1.0000000 0.6322500 0.7380000
0.0170000 0.7535000 0.7260000
0.1438750 0.7540000 0.7275000
0.2707500 0.7545000 0.7290000
0.3976250 0.7550000 0.7305000
0.5245000 0.7555000 0.7320000
0.6513750 0.7560000 0.7335000
0.7782500 0.7565000 0.7350000
0.9051250 0.7570000 0.7365000
1.0000000 0.7575000 0.7380000
0.0185000 0.8787500 0.7260000
0.1453750 0.8792500 0.7275000
0.2722500 0.8797500 0.7290000
0.3991250 0.8802500 0.7305000
0.5260000 0.8807500 0.7320000
0.6528750 0.8812500 0.7335000
0.7797500 0.8817500 0.7350000
0.9066250 0.8822500 0.7365000
1.0000000 0.8827500 0.7380000
0.0200000 1.0000000 0.7260000
0.1468750 1.0000000 0.7275000
0.2737500 1.0000000 0.7290000
0.4006250 1.0000000 0.7305000
0.5275000 1.0000000 0.7320000
0.6543750 1.0000000 0.7335000
0.7812500 1.0000000 0.7350000
0.9081250 1.0000000 0.7365000
1.0000000 1.0000000 0.7380000
0.0080000 0.0020000 0.8460000
0.1348750 0.0025000 0.8475000
0.2617500 0.0030000 0.8490000
0.3886250 0.0035000 0.8505000
0.5155000 0.0040000 0.8520000
0.6423750 0.0045000 0.8535000
0.7692500 0.0050000 0.8550000
0.8961250 0.0055000 0.8565000
1.0000000 0.0060000 0.8580000
0.0095000 0.1272500 0.8460000
0.1363750 0.1277500 0.8475000
0.2632500 0.1282500 0.8490000
0.3901250 0.1287500 0.8505000
0.5170000 0.1292500 0.8520000
0.6438750 0.1297500 0.8535000
0.7707500 0.1302500 0.8550000
0.8976250 0.1307500 0.8565000
1.0000000 0.1312500 0.8580000
0.0110000 0.2525000 0.8460000
0.1378750 0.2530000 0.8475000
0.2647500 0.2535000 0.8490000
0.3916250 0.2540000 0.8505000
0.5185000 0.2545000 0.8520000
0.6453750 0.2550000 0.8535000
0.7722500 0.2555000 0.8550000
0.8991250 0.2560000 0.8565000
1.0000000 0.2565000 0.8580000
0.0125000 0.3777500 0.8460000
0.1393750 0.3782500 0.8475000
0.2662500 0.3787500 0.8490000
0.3931250 0.3792500 0.8505000
0.5200000 0.3797500 0.8520000
0.6468750 0.3802500 0.8535000
0.7737500 0.3807500 0.8550000
0.9006250 0.3812500 0.8565000
1.0000000 0.3817500 0.8580000
0.0140000 0.5030000 0.8460000
0.1408750 0.5035000 0.8475000
0.2677500 0.5040000 0.8490000
0.3946250 0.5045000 0.8505000
0.5215000 0.5050000 0.8520000
0.6483750 0.5055000 0.8535000
0.7752500 0.5060000 0.8550000
0.9021250 0.5065000 0.8565000
1.0000000 0.5070000 0.8580000
0.0155000 0.6282500 0.8460000
0.1423750 0.6287500 0.8475000
0.2692500 0.6292500 0.8490000
0.3961250 0.6297500 0.8505000
0.5230000 0.6302500 0.8520000
0.6498750 0.6307500 0.8535000
0.7767500 0.6312500 0.8550000
0.9036250 0.6317500 0.8565000
1.0000000 0.6322500 0.8580000
0.0170000 0.7535000 0.8460000
0.1438750 0.7540000 0.8475000
0.2707500 0.7545000 0.8490000
0.3976250 0.7550000 0.8505000
0.5245000 0.7555000 0.8520000
0.6513750 0.7560000 0.8535000
0.7782500 0.7565000 0.8550000
0.9051250 0.7570000 0.8565000
1.0000000 0.7575000 0.8580000
0.0185000 0.8787500 0.8460000
0.1453750 0.8792500 0.8475000
0.2722500 0.8797500 0.8490000
0.3991250 0.8802500 0.8505000
0.5260000 0.8807500 0.8520000
0.6528750 0.8812500 0.8535000
0.7797500 0.8817500 0.8550000
0.9066250 0.8822500 0.8565000
1.0000000 0.8827500 0.8580000
0.0200000 1.0000000 0.8460000
0.1468750 1.0000000 0.8475000
0.2737500 1.0000000 0.8490000
0.4006250 1.0000000 0.8505000
0.5275000 1.0000000 0.8520000
0.6543750 1.0000000 0.8535000
0.7812500 1.0000000 0.8550000
0.9081250 1.0000000 0.8565000
1.0000000 1.0000000 0.8580000
0.0080000 0.0020000 0.9660000
0.1348750 0.0025000 0.9675000
0.2617500 0.0030000 0.9690000
0.3886250 0.0035000 0.9705000
0.5155000 0.0040000 0.9720000
0.6423750 0.0045000 0.9735000
0.7692500 0.0050000 0.9750000
0.8961250 0.0055000 0.9765000
1.0000000 0.0060000 0.9780000
0.0095000 0.1272500 0.9660000
0.1363750 0.1277500 0.9675000
0.2632500 0.1282500 0.9690000
0.3901250 0.1287500 0.9705000
0.5170000 0.1292500 0.9720000
0.6438750 0.1297500 0.9735000
0.7707500 0.1302500 0.9750000
0.8976250 0.1307500 0.9765000
1.0000000 0.1312500 0.9780000
0.0110000 0.2525000 0.9660000
0.1378750 0.2530000 0.9675000
0.2647500 0.2535000 0.9690000
0.3916250 0.2540000 0.9705000
0.5185000 0.2545000 0.9720000
0.6453750 0.2550000 0.9735000
0.7722500 0.2555000 0.9750000
0.8991250 0.2560000 0.9765000
1.0000000 0.2565000 0.9780000
0.0125000 0.3777500 0.9660000
0.1393750 0.3782500 0.9675000
0.2662500 0.3787500 0.9690000
0.3931250 0.3792500 0.9705000
0.5200000 0.3797500 0.9720000
0.6468750 0.3802500 0.9735000
0.7737500 0.3807500 0.9750000
0.9006250 0.3812500 0.9765000
1.0000000 0.3817500 0.9780000
0.0140000 0.5030000 0.9660000
0.1408750 0.5035000 0.9675000
0.2677500 0.5040000 0.9690000
0.3946250 0.5045000 0.9705000
0.5215000 0.5050000 0.9720000
0.6483750 0.5055000 0.9735000
0.7752500 0.5060000 0.9750000
0.9021250 0.5065000 0.9765000
1.0000000 0.5070000 0.9780000
0.0155000 0.6282500 0.9660000
0.1423750 0.6287500 0.9675000
0.2692500 0.6292500 0.9690000
0.3961250 0.6297500 0.9705000
0.5230000 0.6302500 0.9720000
0.6498750 0.6307500 0.9735000
0.7767500 0.6312500 0.9750000
0.9036250 0.6317500 0.9765000
1.0000000 0.6322500 0.9780000
0.0170000 0.7535000 0.9660000
0.1438750 0.7540000 0.9675000
0.2707500 0.7545000 0.9690000
0.3976250 0.7550000 0.9705000
0.5245000 0.7555000 0.9720000
0.6513750 0.7560000 0.9735000
0.7782500 0.7565000 0.9750000
0.9051250 0.7570000 0.9765000
1.0000000 0.7575000 0.9780000
0.0185000 0.8787500 0.9660000
0.1453750 0.8792500 0.9675000
0.2722500 0.8797500 0.9690000
0.3991250 0.8802500 0.9705000
0.5260000 0.8807500 0.9720000
0.6528750 0.8812500 0.9735000
0.7797500 0.8817500 0.9750000
0.9066250 0.8822500 0.9765000
1.0000000 0.8827500 0.9780000
0.0200000 1.0000000 0.9660000
0.1468750 1.0000000 0.9675000
0.2737500 1.0000000 0.9690000
0.4006250 1.0000000 0.9705000
0.5275000 1.0000000 0.9720000
0.6543750 1.0000000 0.9735000
0.7812500 1.0000000 0.9750000
0.9081250 1.0000000 0.9765000
1.0000000 1.0000000 0.9780000
